( Made using CamBam - http://www.cambam.co.uk )
( res_eq 6/3/2015 10:38:45 PM )
( T3 : 3.175 )
G21 G90 G64 G40
G0 Z3.0
( T3 : 3.175 )
T3 M6
( mounting )
G17
M3 S1000
G0 X118.75 Y22.6
G0 Z3.0
G0 X118.7625 Y22.6
G0 Z0.05
G1 F1000.0 Z0.0
G2 F2000.0 X118.7438 Y22.5892 Z-0.0333 I-0.0125 J0.0
G2 Y22.6108 Z-0.0667 I0.0062 J0.0108
G2 X118.7625 Y22.6 Z-0.1 I0.0062 J-0.0108
G2 X118.7438 Y22.5892 Z-0.1333 I-0.0125 J0.0
G2 Y22.6108 Z-0.1667 I0.0062 J0.0108
G2 X118.7625 Y22.6 Z-0.2 I0.0062 J-0.0108
G2 X118.7438 Y22.5892 Z-0.2333 I-0.0125 J0.0
G2 Y22.6108 Z-0.2667 I0.0062 J0.0108
G2 X118.7625 Y22.6 Z-0.3 I0.0062 J-0.0108
G2 X118.7438 Y22.5892 Z-0.3333 I-0.0125 J0.0
G2 Y22.6108 Z-0.3667 I0.0062 J0.0108
G2 X118.7625 Y22.6 Z-0.4 I0.0062 J-0.0108
G2 X118.7438 Y22.5892 Z-0.4333 I-0.0125 J0.0
G2 Y22.6108 Z-0.4667 I0.0062 J0.0108
G2 X118.7625 Y22.6 Z-0.5 I0.0062 J-0.0108
G2 X118.7438 Y22.5892 Z-0.5333 I-0.0125 J0.0
G2 Y22.6108 Z-0.5667 I0.0062 J0.0108
G2 X118.7625 Y22.6 Z-0.6 I0.0062 J-0.0108
G2 X118.7438 Y22.5892 Z-0.6333 I-0.0125 J0.0
G2 Y22.6108 Z-0.6667 I0.0062 J0.0108
G2 X118.7625 Y22.6 Z-0.7 I0.0062 J-0.0108
G2 X118.7438 Y22.5892 Z-0.7333 I-0.0125 J0.0
G2 Y22.6108 Z-0.7667 I0.0062 J0.0108
G2 X118.7625 Y22.6 Z-0.8 I0.0062 J-0.0108
G2 X118.7438 Y22.5892 Z-0.8333 I-0.0125 J0.0
G2 Y22.6108 Z-0.8667 I0.0062 J0.0108
G2 X118.7625 Y22.6 Z-0.9 I0.0062 J-0.0108
G2 X118.7438 Y22.5892 Z-0.9333 I-0.0125 J0.0
G2 Y22.6108 Z-0.9667 I0.0062 J0.0108
G2 X118.7625 Y22.6 Z-1.0 I0.0062 J-0.0108
G2 X118.7438 Y22.5892 Z-1.0333 I-0.0125 J0.0
G2 Y22.6108 Z-1.0667 I0.0062 J0.0108
G2 X118.7625 Y22.6 Z-1.1 I0.0062 J-0.0108
G2 X118.7438 Y22.5892 Z-1.1333 I-0.0125 J0.0
G2 Y22.6108 Z-1.1667 I0.0062 J0.0108
G2 X118.7625 Y22.6 Z-1.2 I0.0062 J-0.0108
G2 X118.7438 Y22.5892 Z-1.2333 I-0.0125 J0.0
G2 Y22.6108 Z-1.2667 I0.0062 J0.0108
G2 X118.7625 Y22.6 Z-1.3 I0.0062 J-0.0108
G2 X118.7438 Y22.5892 Z-1.3333 I-0.0125 J0.0
G2 Y22.6108 Z-1.3667 I0.0062 J0.0108
G2 X118.7625 Y22.6 Z-1.4 I0.0062 J-0.0108
G2 X118.7438 Y22.5892 Z-1.4333 I-0.0125 J0.0
G2 Y22.6108 Z-1.4667 I0.0062 J0.0108
G2 X118.7625 Y22.6 Z-1.5 I0.0062 J-0.0108
G2 X118.7438 Y22.5892 Z-1.5333 I-0.0125 J0.0
G2 Y22.6108 Z-1.5667 I0.0062 J0.0108
G2 X118.7625 Y22.6 Z-1.6 I0.0062 J-0.0108
G2 X118.7438 Y22.5892 Z-1.6333 I-0.0125 J0.0
G2 Y22.6108 Z-1.6667 I0.0062 J0.0108
G2 X118.7625 Y22.6 Z-1.7 I0.0062 J-0.0108
G2 X118.7438 Y22.5892 Z-1.7333 I-0.0125 J0.0
G2 Y22.6108 Z-1.7667 I0.0062 J0.0108
G2 X118.7625 Y22.6 Z-1.8 I0.0062 J-0.0108
G2 X118.7438 Y22.5892 Z-1.8333 I-0.0125 J0.0
G2 Y22.6108 Z-1.8667 I0.0062 J0.0108
G2 X118.7625 Y22.6 Z-1.9 I0.0062 J-0.0108
G2 X118.7438 Y22.5892 Z-1.9333 I-0.0125 J0.0
G2 Y22.6108 Z-1.9667 I0.0062 J0.0108
G2 X118.7625 Y22.6 Z-2.0 I0.0062 J-0.0108
G2 X118.7438 Y22.5892 Z-2.0333 I-0.0125 J0.0
G2 Y22.6108 Z-2.0667 I0.0062 J0.0108
G2 X118.7625 Y22.6 Z-2.1 I0.0062 J-0.0108
G2 X118.7438 Y22.5892 Z-2.1333 I-0.0125 J0.0
G2 Y22.6108 Z-2.1667 I0.0062 J0.0108
G2 X118.7625 Y22.6 Z-2.2 I0.0062 J-0.0108
G2 X118.7438 Y22.5892 Z-2.2333 I-0.0125 J0.0
G2 Y22.6108 Z-2.2667 I0.0062 J0.0108
G2 X118.7625 Y22.6 Z-2.3 I0.0062 J-0.0108
G2 X118.7438 Y22.5892 Z-2.3333 I-0.0125 J0.0
G2 Y22.6108 Z-2.3667 I0.0062 J0.0108
G2 X118.7625 Y22.6 Z-2.4 I0.0062 J-0.0108
G2 X118.7438 Y22.5892 Z-2.4333 I-0.0125 J0.0
G2 Y22.6108 Z-2.4667 I0.0062 J0.0108
G2 X118.7625 Y22.6 Z-2.5 I0.0062 J-0.0108
G2 X118.7438 Y22.5892 Z-2.5333 I-0.0125 J0.0
G2 Y22.6108 Z-2.5667 I0.0062 J0.0108
G2 X118.7625 Y22.6 Z-2.6 I0.0062 J-0.0108
G2 X118.7438 Y22.5892 Z-2.6333 I-0.0125 J0.0
G2 Y22.6108 Z-2.6667 I0.0062 J0.0108
G2 X118.7625 Y22.6 Z-2.7 I0.0062 J-0.0108
G2 X118.7438 Y22.5892 Z-2.7333 I-0.0125 J0.0
G2 Y22.6108 Z-2.7667 I0.0063 J0.0108
G2 X118.7625 Y22.6 Z-2.8 I0.0062 J-0.0108
G2 X118.7438 Y22.5892 Z-2.8333 I-0.0125 J0.0
G2 Y22.6108 Z-2.8667 I0.0063 J0.0108
G2 X118.7625 Y22.6 Z-2.9 I0.0062 J-0.0108
G2 X118.7438 Y22.5892 Z-2.9333 I-0.0125 J0.0
G2 Y22.6108 Z-2.9667 I0.0063 J0.0108
G2 X118.7625 Y22.6 Z-3.0 I0.0062 J-0.0108
G2 X118.7438 Y22.5892 Z-3.0333 I-0.0125 J0.0
G2 Y22.6108 Z-3.0667 I0.0063 J0.0108
G2 X118.7625 Y22.6 Z-3.1 I0.0062 J-0.0108
G2 X118.7438 Y22.5892 Z-3.1333 I-0.0125 J0.0
G2 Y22.6108 Z-3.1667 I0.0063 J0.0108
G2 X118.7625 Y22.6 Z-3.2 I0.0062 J-0.0108
G2 X118.7438 Y22.5892 I-0.0125 J0.0
G2 Y22.6108 I0.0063 J0.0108
G2 X118.7625 Y22.6 I0.0062 J-0.0108
G0 Z3.0
G0 X107.6125
G0 Z0.05
G1 F1000.0 Z0.0
G2 F2000.0 X107.5938 Y22.5892 Z-0.0333 I-0.0125 J0.0
G2 Y22.6108 Z-0.0667 I0.0062 J0.0108
G2 X107.6125 Y22.6 Z-0.1 I0.0062 J-0.0108
G2 X107.5938 Y22.5892 Z-0.1333 I-0.0125 J0.0
G2 Y22.6108 Z-0.1667 I0.0062 J0.0108
G2 X107.6125 Y22.6 Z-0.2 I0.0062 J-0.0108
G2 X107.5938 Y22.5892 Z-0.2333 I-0.0125 J0.0
G2 Y22.6108 Z-0.2667 I0.0062 J0.0108
G2 X107.6125 Y22.6 Z-0.3 I0.0062 J-0.0108
G2 X107.5938 Y22.5892 Z-0.3333 I-0.0125 J0.0
G2 Y22.6108 Z-0.3667 I0.0062 J0.0108
G2 X107.6125 Y22.6 Z-0.4 I0.0062 J-0.0108
G2 X107.5938 Y22.5892 Z-0.4333 I-0.0125 J0.0
G2 Y22.6108 Z-0.4667 I0.0062 J0.0108
G2 X107.6125 Y22.6 Z-0.5 I0.0062 J-0.0108
G2 X107.5938 Y22.5892 Z-0.5333 I-0.0125 J0.0
G2 Y22.6108 Z-0.5667 I0.0062 J0.0108
G2 X107.6125 Y22.6 Z-0.6 I0.0062 J-0.0108
G2 X107.5938 Y22.5892 Z-0.6333 I-0.0125 J0.0
G2 Y22.6108 Z-0.6667 I0.0062 J0.0108
G2 X107.6125 Y22.6 Z-0.7 I0.0062 J-0.0108
G2 X107.5938 Y22.5892 Z-0.7333 I-0.0125 J0.0
G2 Y22.6108 Z-0.7667 I0.0062 J0.0108
G2 X107.6125 Y22.6 Z-0.8 I0.0062 J-0.0108
G2 X107.5938 Y22.5892 Z-0.8333 I-0.0125 J0.0
G2 Y22.6108 Z-0.8667 I0.0062 J0.0108
G2 X107.6125 Y22.6 Z-0.9 I0.0062 J-0.0108
G2 X107.5938 Y22.5892 Z-0.9333 I-0.0125 J0.0
G2 Y22.6108 Z-0.9667 I0.0062 J0.0108
G2 X107.6125 Y22.6 Z-1.0 I0.0062 J-0.0108
G2 X107.5938 Y22.5892 Z-1.0333 I-0.0125 J0.0
G2 Y22.6108 Z-1.0667 I0.0062 J0.0108
G2 X107.6125 Y22.6 Z-1.1 I0.0062 J-0.0108
G2 X107.5938 Y22.5892 Z-1.1333 I-0.0125 J0.0
G2 Y22.6108 Z-1.1667 I0.0062 J0.0108
G2 X107.6125 Y22.6 Z-1.2 I0.0062 J-0.0108
G2 X107.5938 Y22.5892 Z-1.2333 I-0.0125 J0.0
G2 Y22.6108 Z-1.2667 I0.0062 J0.0108
G2 X107.6125 Y22.6 Z-1.3 I0.0062 J-0.0108
G2 X107.5938 Y22.5892 Z-1.3333 I-0.0125 J0.0
G2 Y22.6108 Z-1.3667 I0.0062 J0.0108
G2 X107.6125 Y22.6 Z-1.4 I0.0062 J-0.0108
G2 X107.5938 Y22.5892 Z-1.4333 I-0.0125 J0.0
G2 Y22.6108 Z-1.4667 I0.0062 J0.0108
G2 X107.6125 Y22.6 Z-1.5 I0.0062 J-0.0108
G2 X107.5938 Y22.5892 Z-1.5333 I-0.0125 J0.0
G2 Y22.6108 Z-1.5667 I0.0062 J0.0108
G2 X107.6125 Y22.6 Z-1.6 I0.0062 J-0.0108
G2 X107.5938 Y22.5892 Z-1.6333 I-0.0125 J0.0
G2 Y22.6108 Z-1.6667 I0.0062 J0.0108
G2 X107.6125 Y22.6 Z-1.7 I0.0062 J-0.0108
G2 X107.5938 Y22.5892 Z-1.7333 I-0.0125 J0.0
G2 Y22.6108 Z-1.7667 I0.0062 J0.0108
G2 X107.6125 Y22.6 Z-1.8 I0.0062 J-0.0108
G2 X107.5938 Y22.5892 Z-1.8333 I-0.0125 J0.0
G2 Y22.6108 Z-1.8667 I0.0062 J0.0108
G2 X107.6125 Y22.6 Z-1.9 I0.0062 J-0.0108
G2 X107.5938 Y22.5892 Z-1.9333 I-0.0125 J0.0
G2 Y22.6108 Z-1.9667 I0.0062 J0.0108
G2 X107.6125 Y22.6 Z-2.0 I0.0062 J-0.0108
G2 X107.5938 Y22.5892 Z-2.0333 I-0.0125 J0.0
G2 Y22.6108 Z-2.0667 I0.0062 J0.0108
G2 X107.6125 Y22.6 Z-2.1 I0.0062 J-0.0108
G2 X107.5938 Y22.5892 Z-2.1333 I-0.0125 J0.0
G2 Y22.6108 Z-2.1667 I0.0062 J0.0108
G2 X107.6125 Y22.6 Z-2.2 I0.0062 J-0.0108
G2 X107.5938 Y22.5892 Z-2.2333 I-0.0125 J0.0
G2 Y22.6108 Z-2.2667 I0.0062 J0.0108
G2 X107.6125 Y22.6 Z-2.3 I0.0062 J-0.0108
G2 X107.5938 Y22.5892 Z-2.3333 I-0.0125 J0.0
G2 Y22.6108 Z-2.3667 I0.0062 J0.0108
G2 X107.6125 Y22.6 Z-2.4 I0.0062 J-0.0108
G2 X107.5938 Y22.5892 Z-2.4333 I-0.0125 J0.0
G2 Y22.6108 Z-2.4667 I0.0062 J0.0108
G2 X107.6125 Y22.6 Z-2.5 I0.0062 J-0.0108
G2 X107.5938 Y22.5892 Z-2.5333 I-0.0125 J0.0
G2 Y22.6108 Z-2.5667 I0.0062 J0.0108
G2 X107.6125 Y22.6 Z-2.6 I0.0062 J-0.0108
G2 X107.5938 Y22.5892 Z-2.6333 I-0.0125 J0.0
G2 Y22.6108 Z-2.6667 I0.0062 J0.0108
G2 X107.6125 Y22.6 Z-2.7 I0.0062 J-0.0108
G2 X107.5938 Y22.5892 Z-2.7333 I-0.0125 J0.0
G2 Y22.6108 Z-2.7667 I0.0063 J0.0108
G2 X107.6125 Y22.6 Z-2.8 I0.0062 J-0.0108
G2 X107.5938 Y22.5892 Z-2.8333 I-0.0125 J0.0
G2 Y22.6108 Z-2.8667 I0.0063 J0.0108
G2 X107.6125 Y22.6 Z-2.9 I0.0062 J-0.0108
G2 X107.5938 Y22.5892 Z-2.9333 I-0.0125 J0.0
G2 Y22.6108 Z-2.9667 I0.0063 J0.0108
G2 X107.6125 Y22.6 Z-3.0 I0.0062 J-0.0108
G2 X107.5938 Y22.5892 Z-3.0333 I-0.0125 J0.0
G2 Y22.6108 Z-3.0667 I0.0063 J0.0108
G2 X107.6125 Y22.6 Z-3.1 I0.0062 J-0.0108
G2 X107.5938 Y22.5892 Z-3.1333 I-0.0125 J0.0
G2 Y22.6108 Z-3.1667 I0.0063 J0.0108
G2 X107.6125 Y22.6 Z-3.2 I0.0062 J-0.0108
G2 X107.5938 Y22.5892 I-0.0125 J0.0
G2 Y22.6108 I0.0063 J0.0108
G2 X107.6125 Y22.6 I0.0062 J-0.0108
G0 Z3.0
G0 X93.6625
G0 Z0.05
G1 F1000.0 Z0.0
G2 F2000.0 X93.6438 Y22.5892 Z-0.0333 I-0.0125 J0.0
G2 Y22.6108 Z-0.0667 I0.0062 J0.0108
G2 X93.6625 Y22.6 Z-0.1 I0.0062 J-0.0108
G2 X93.6438 Y22.5892 Z-0.1333 I-0.0125 J0.0
G2 Y22.6108 Z-0.1667 I0.0062 J0.0108
G2 X93.6625 Y22.6 Z-0.2 I0.0062 J-0.0108
G2 X93.6438 Y22.5892 Z-0.2333 I-0.0125 J0.0
G2 Y22.6108 Z-0.2667 I0.0062 J0.0108
G2 X93.6625 Y22.6 Z-0.3 I0.0062 J-0.0108
G2 X93.6438 Y22.5892 Z-0.3333 I-0.0125 J0.0
G2 Y22.6108 Z-0.3667 I0.0062 J0.0108
G2 X93.6625 Y22.6 Z-0.4 I0.0062 J-0.0108
G2 X93.6438 Y22.5892 Z-0.4333 I-0.0125 J0.0
G2 Y22.6108 Z-0.4667 I0.0062 J0.0108
G2 X93.6625 Y22.6 Z-0.5 I0.0062 J-0.0108
G2 X93.6438 Y22.5892 Z-0.5333 I-0.0125 J0.0
G2 Y22.6108 Z-0.5667 I0.0062 J0.0108
G2 X93.6625 Y22.6 Z-0.6 I0.0062 J-0.0108
G2 X93.6438 Y22.5892 Z-0.6333 I-0.0125 J0.0
G2 Y22.6108 Z-0.6667 I0.0062 J0.0108
G2 X93.6625 Y22.6 Z-0.7 I0.0062 J-0.0108
G2 X93.6438 Y22.5892 Z-0.7333 I-0.0125 J0.0
G2 Y22.6108 Z-0.7667 I0.0062 J0.0108
G2 X93.6625 Y22.6 Z-0.8 I0.0062 J-0.0108
G2 X93.6438 Y22.5892 Z-0.8333 I-0.0125 J0.0
G2 Y22.6108 Z-0.8667 I0.0062 J0.0108
G2 X93.6625 Y22.6 Z-0.9 I0.0062 J-0.0108
G2 X93.6438 Y22.5892 Z-0.9333 I-0.0125 J0.0
G2 Y22.6108 Z-0.9667 I0.0062 J0.0108
G2 X93.6625 Y22.6 Z-1.0 I0.0062 J-0.0108
G2 X93.6438 Y22.5892 Z-1.0333 I-0.0125 J0.0
G2 Y22.6108 Z-1.0667 I0.0062 J0.0108
G2 X93.6625 Y22.6 Z-1.1 I0.0062 J-0.0108
G2 X93.6438 Y22.5892 Z-1.1333 I-0.0125 J0.0
G2 Y22.6108 Z-1.1667 I0.0062 J0.0108
G2 X93.6625 Y22.6 Z-1.2 I0.0062 J-0.0108
G2 X93.6438 Y22.5892 Z-1.2333 I-0.0125 J0.0
G2 Y22.6108 Z-1.2667 I0.0062 J0.0108
G2 X93.6625 Y22.6 Z-1.3 I0.0062 J-0.0108
G2 X93.6438 Y22.5892 Z-1.3333 I-0.0125 J0.0
G2 Y22.6108 Z-1.3667 I0.0062 J0.0108
G2 X93.6625 Y22.6 Z-1.4 I0.0062 J-0.0108
G2 X93.6438 Y22.5892 Z-1.4333 I-0.0125 J0.0
G2 Y22.6108 Z-1.4667 I0.0062 J0.0108
G2 X93.6625 Y22.6 Z-1.5 I0.0062 J-0.0108
G2 X93.6438 Y22.5892 Z-1.5333 I-0.0125 J0.0
G2 Y22.6108 Z-1.5667 I0.0062 J0.0108
G2 X93.6625 Y22.6 Z-1.6 I0.0062 J-0.0108
G2 X93.6438 Y22.5892 Z-1.6333 I-0.0125 J0.0
G2 Y22.6108 Z-1.6667 I0.0062 J0.0108
G2 X93.6625 Y22.6 Z-1.7 I0.0062 J-0.0108
G2 X93.6438 Y22.5892 Z-1.7333 I-0.0125 J0.0
G2 Y22.6108 Z-1.7667 I0.0062 J0.0108
G2 X93.6625 Y22.6 Z-1.8 I0.0062 J-0.0108
G2 X93.6438 Y22.5892 Z-1.8333 I-0.0125 J0.0
G2 Y22.6108 Z-1.8667 I0.0062 J0.0108
G2 X93.6625 Y22.6 Z-1.9 I0.0062 J-0.0108
G2 X93.6438 Y22.5892 Z-1.9333 I-0.0125 J0.0
G2 Y22.6108 Z-1.9667 I0.0062 J0.0108
G2 X93.6625 Y22.6 Z-2.0 I0.0062 J-0.0108
G2 X93.6438 Y22.5892 Z-2.0333 I-0.0125 J0.0
G2 Y22.6108 Z-2.0667 I0.0062 J0.0108
G2 X93.6625 Y22.6 Z-2.1 I0.0062 J-0.0108
G2 X93.6438 Y22.5892 Z-2.1333 I-0.0125 J0.0
G2 Y22.6108 Z-2.1667 I0.0062 J0.0108
G2 X93.6625 Y22.6 Z-2.2 I0.0062 J-0.0108
G2 X93.6438 Y22.5892 Z-2.2333 I-0.0125 J0.0
G2 Y22.6108 Z-2.2667 I0.0062 J0.0108
G2 X93.6625 Y22.6 Z-2.3 I0.0062 J-0.0108
G2 X93.6438 Y22.5892 Z-2.3333 I-0.0125 J0.0
G2 Y22.6108 Z-2.3667 I0.0062 J0.0108
G2 X93.6625 Y22.6 Z-2.4 I0.0062 J-0.0108
G2 X93.6438 Y22.5892 Z-2.4333 I-0.0125 J0.0
G2 Y22.6108 Z-2.4667 I0.0062 J0.0108
G2 X93.6625 Y22.6 Z-2.5 I0.0062 J-0.0108
G2 X93.6438 Y22.5892 Z-2.5333 I-0.0125 J0.0
G2 Y22.6108 Z-2.5667 I0.0062 J0.0108
G2 X93.6625 Y22.6 Z-2.6 I0.0062 J-0.0108
G2 X93.6438 Y22.5892 Z-2.6333 I-0.0125 J0.0
G2 Y22.6108 Z-2.6667 I0.0062 J0.0108
G2 X93.6625 Y22.6 Z-2.7 I0.0062 J-0.0108
G2 X93.6438 Y22.5892 Z-2.7333 I-0.0125 J0.0
G2 Y22.6108 Z-2.7667 I0.0063 J0.0108
G2 X93.6625 Y22.6 Z-2.8 I0.0062 J-0.0108
G2 X93.6438 Y22.5892 Z-2.8333 I-0.0125 J0.0
G2 Y22.6108 Z-2.8667 I0.0063 J0.0108
G2 X93.6625 Y22.6 Z-2.9 I0.0062 J-0.0108
G2 X93.6438 Y22.5892 Z-2.9333 I-0.0125 J0.0
G2 Y22.6108 Z-2.9667 I0.0063 J0.0108
G2 X93.6625 Y22.6 Z-3.0 I0.0062 J-0.0108
G2 X93.6438 Y22.5892 Z-3.0333 I-0.0125 J0.0
G2 Y22.6108 Z-3.0667 I0.0063 J0.0108
G2 X93.6625 Y22.6 Z-3.1 I0.0062 J-0.0108
G2 X93.6438 Y22.5892 Z-3.1333 I-0.0125 J0.0
G2 Y22.6108 Z-3.1667 I0.0063 J0.0108
G2 X93.6625 Y22.6 Z-3.2 I0.0062 J-0.0108
G2 X93.6438 Y22.5892 I-0.0125 J0.0
G2 Y22.6108 I0.0063 J0.0108
G2 X93.6625 Y22.6 I0.0062 J-0.0108
G0 Z3.0
G0 X82.4625
G0 Z0.05
G1 F1000.0 Z0.0
G2 F2000.0 X82.4438 Y22.5892 Z-0.0333 I-0.0125 J0.0
G2 Y22.6108 Z-0.0667 I0.0062 J0.0108
G2 X82.4625 Y22.6 Z-0.1 I0.0062 J-0.0108
G2 X82.4438 Y22.5892 Z-0.1333 I-0.0125 J0.0
G2 Y22.6108 Z-0.1667 I0.0062 J0.0108
G2 X82.4625 Y22.6 Z-0.2 I0.0062 J-0.0108
G2 X82.4438 Y22.5892 Z-0.2333 I-0.0125 J0.0
G2 Y22.6108 Z-0.2667 I0.0062 J0.0108
G2 X82.4625 Y22.6 Z-0.3 I0.0062 J-0.0108
G2 X82.4438 Y22.5892 Z-0.3333 I-0.0125 J0.0
G2 Y22.6108 Z-0.3667 I0.0062 J0.0108
G2 X82.4625 Y22.6 Z-0.4 I0.0062 J-0.0108
G2 X82.4438 Y22.5892 Z-0.4333 I-0.0125 J0.0
G2 Y22.6108 Z-0.4667 I0.0062 J0.0108
G2 X82.4625 Y22.6 Z-0.5 I0.0062 J-0.0108
G2 X82.4438 Y22.5892 Z-0.5333 I-0.0125 J0.0
G2 Y22.6108 Z-0.5667 I0.0062 J0.0108
G2 X82.4625 Y22.6 Z-0.6 I0.0062 J-0.0108
G2 X82.4438 Y22.5892 Z-0.6333 I-0.0125 J0.0
G2 Y22.6108 Z-0.6667 I0.0062 J0.0108
G2 X82.4625 Y22.6 Z-0.7 I0.0062 J-0.0108
G2 X82.4438 Y22.5892 Z-0.7333 I-0.0125 J0.0
G2 Y22.6108 Z-0.7667 I0.0062 J0.0108
G2 X82.4625 Y22.6 Z-0.8 I0.0062 J-0.0108
G2 X82.4438 Y22.5892 Z-0.8333 I-0.0125 J0.0
G2 Y22.6108 Z-0.8667 I0.0062 J0.0108
G2 X82.4625 Y22.6 Z-0.9 I0.0062 J-0.0108
G2 X82.4438 Y22.5892 Z-0.9333 I-0.0125 J0.0
G2 Y22.6108 Z-0.9667 I0.0062 J0.0108
G2 X82.4625 Y22.6 Z-1.0 I0.0062 J-0.0108
G2 X82.4438 Y22.5892 Z-1.0333 I-0.0125 J0.0
G2 Y22.6108 Z-1.0667 I0.0062 J0.0108
G2 X82.4625 Y22.6 Z-1.1 I0.0062 J-0.0108
G2 X82.4438 Y22.5892 Z-1.1333 I-0.0125 J0.0
G2 Y22.6108 Z-1.1667 I0.0062 J0.0108
G2 X82.4625 Y22.6 Z-1.2 I0.0062 J-0.0108
G2 X82.4438 Y22.5892 Z-1.2333 I-0.0125 J0.0
G2 Y22.6108 Z-1.2667 I0.0062 J0.0108
G2 X82.4625 Y22.6 Z-1.3 I0.0062 J-0.0108
G2 X82.4438 Y22.5892 Z-1.3333 I-0.0125 J0.0
G2 Y22.6108 Z-1.3667 I0.0062 J0.0108
G2 X82.4625 Y22.6 Z-1.4 I0.0062 J-0.0108
G2 X82.4438 Y22.5892 Z-1.4333 I-0.0125 J0.0
G2 Y22.6108 Z-1.4667 I0.0062 J0.0108
G2 X82.4625 Y22.6 Z-1.5 I0.0062 J-0.0108
G2 X82.4438 Y22.5892 Z-1.5333 I-0.0125 J0.0
G2 Y22.6108 Z-1.5667 I0.0062 J0.0108
G2 X82.4625 Y22.6 Z-1.6 I0.0062 J-0.0108
G2 X82.4438 Y22.5892 Z-1.6333 I-0.0125 J0.0
G2 Y22.6108 Z-1.6667 I0.0062 J0.0108
G2 X82.4625 Y22.6 Z-1.7 I0.0062 J-0.0108
G2 X82.4438 Y22.5892 Z-1.7333 I-0.0125 J0.0
G2 Y22.6108 Z-1.7667 I0.0062 J0.0108
G2 X82.4625 Y22.6 Z-1.8 I0.0062 J-0.0108
G2 X82.4438 Y22.5892 Z-1.8333 I-0.0125 J0.0
G2 Y22.6108 Z-1.8667 I0.0062 J0.0108
G2 X82.4625 Y22.6 Z-1.9 I0.0062 J-0.0108
G2 X82.4438 Y22.5892 Z-1.9333 I-0.0125 J0.0
G2 Y22.6108 Z-1.9667 I0.0062 J0.0108
G2 X82.4625 Y22.6 Z-2.0 I0.0062 J-0.0108
G2 X82.4438 Y22.5892 Z-2.0333 I-0.0125 J0.0
G2 Y22.6108 Z-2.0667 I0.0062 J0.0108
G2 X82.4625 Y22.6 Z-2.1 I0.0062 J-0.0108
G2 X82.4438 Y22.5892 Z-2.1333 I-0.0125 J0.0
G2 Y22.6108 Z-2.1667 I0.0062 J0.0108
G2 X82.4625 Y22.6 Z-2.2 I0.0062 J-0.0108
G2 X82.4438 Y22.5892 Z-2.2333 I-0.0125 J0.0
G2 Y22.6108 Z-2.2667 I0.0062 J0.0108
G2 X82.4625 Y22.6 Z-2.3 I0.0062 J-0.0108
G2 X82.4438 Y22.5892 Z-2.3333 I-0.0125 J0.0
G2 Y22.6108 Z-2.3667 I0.0062 J0.0108
G2 X82.4625 Y22.6 Z-2.4 I0.0062 J-0.0108
G2 X82.4438 Y22.5892 Z-2.4333 I-0.0125 J0.0
G2 Y22.6108 Z-2.4667 I0.0062 J0.0108
G2 X82.4625 Y22.6 Z-2.5 I0.0062 J-0.0108
G2 X82.4438 Y22.5892 Z-2.5333 I-0.0125 J0.0
G2 Y22.6108 Z-2.5667 I0.0062 J0.0108
G2 X82.4625 Y22.6 Z-2.6 I0.0062 J-0.0108
G2 X82.4438 Y22.5892 Z-2.6333 I-0.0125 J0.0
G2 Y22.6108 Z-2.6667 I0.0062 J0.0108
G2 X82.4625 Y22.6 Z-2.7 I0.0062 J-0.0108
G2 X82.4438 Y22.5892 Z-2.7333 I-0.0125 J0.0
G2 Y22.6108 Z-2.7667 I0.0063 J0.0108
G2 X82.4625 Y22.6 Z-2.8 I0.0062 J-0.0108
G2 X82.4438 Y22.5892 Z-2.8333 I-0.0125 J0.0
G2 Y22.6108 Z-2.8667 I0.0063 J0.0108
G2 X82.4625 Y22.6 Z-2.9 I0.0062 J-0.0108
G2 X82.4438 Y22.5892 Z-2.9333 I-0.0125 J0.0
G2 Y22.6108 Z-2.9667 I0.0063 J0.0108
G2 X82.4625 Y22.6 Z-3.0 I0.0062 J-0.0108
G2 X82.4438 Y22.5892 Z-3.0333 I-0.0125 J0.0
G2 Y22.6108 Z-3.0667 I0.0063 J0.0108
G2 X82.4625 Y22.6 Z-3.1 I0.0062 J-0.0108
G2 X82.4438 Y22.5892 Z-3.1333 I-0.0125 J0.0
G2 Y22.6108 Z-3.1667 I0.0063 J0.0108
G2 X82.4625 Y22.6 Z-3.2 I0.0062 J-0.0108
G2 X82.4438 Y22.5892 I-0.0125 J0.0
G2 Y22.6108 I0.0063 J0.0108
G2 X82.4625 Y22.6 I0.0062 J-0.0108
G0 Z3.0
G0 X71.4125
G0 Z0.05
G1 F1000.0 Z0.0
G2 F2000.0 X71.3938 Y22.5892 Z-0.0333 I-0.0125 J0.0
G2 Y22.6108 Z-0.0667 I0.0062 J0.0108
G2 X71.4125 Y22.6 Z-0.1 I0.0062 J-0.0108
G2 X71.3938 Y22.5892 Z-0.1333 I-0.0125 J0.0
G2 Y22.6108 Z-0.1667 I0.0062 J0.0108
G2 X71.4125 Y22.6 Z-0.2 I0.0062 J-0.0108
G2 X71.3938 Y22.5892 Z-0.2333 I-0.0125 J0.0
G2 Y22.6108 Z-0.2667 I0.0062 J0.0108
G2 X71.4125 Y22.6 Z-0.3 I0.0062 J-0.0108
G2 X71.3938 Y22.5892 Z-0.3333 I-0.0125 J0.0
G2 Y22.6108 Z-0.3667 I0.0062 J0.0108
G2 X71.4125 Y22.6 Z-0.4 I0.0062 J-0.0108
G2 X71.3938 Y22.5892 Z-0.4333 I-0.0125 J0.0
G2 Y22.6108 Z-0.4667 I0.0062 J0.0108
G2 X71.4125 Y22.6 Z-0.5 I0.0062 J-0.0108
G2 X71.3938 Y22.5892 Z-0.5333 I-0.0125 J0.0
G2 Y22.6108 Z-0.5667 I0.0062 J0.0108
G2 X71.4125 Y22.6 Z-0.6 I0.0062 J-0.0108
G2 X71.3938 Y22.5892 Z-0.6333 I-0.0125 J0.0
G2 Y22.6108 Z-0.6667 I0.0062 J0.0108
G2 X71.4125 Y22.6 Z-0.7 I0.0062 J-0.0108
G2 X71.3938 Y22.5892 Z-0.7333 I-0.0125 J0.0
G2 Y22.6108 Z-0.7667 I0.0062 J0.0108
G2 X71.4125 Y22.6 Z-0.8 I0.0062 J-0.0108
G2 X71.3938 Y22.5892 Z-0.8333 I-0.0125 J0.0
G2 Y22.6108 Z-0.8667 I0.0062 J0.0108
G2 X71.4125 Y22.6 Z-0.9 I0.0062 J-0.0108
G2 X71.3938 Y22.5892 Z-0.9333 I-0.0125 J0.0
G2 Y22.6108 Z-0.9667 I0.0062 J0.0108
G2 X71.4125 Y22.6 Z-1.0 I0.0062 J-0.0108
G2 X71.3938 Y22.5892 Z-1.0333 I-0.0125 J0.0
G2 Y22.6108 Z-1.0667 I0.0062 J0.0108
G2 X71.4125 Y22.6 Z-1.1 I0.0062 J-0.0108
G2 X71.3938 Y22.5892 Z-1.1333 I-0.0125 J0.0
G2 Y22.6108 Z-1.1667 I0.0062 J0.0108
G2 X71.4125 Y22.6 Z-1.2 I0.0062 J-0.0108
G2 X71.3938 Y22.5892 Z-1.2333 I-0.0125 J0.0
G2 Y22.6108 Z-1.2667 I0.0062 J0.0108
G2 X71.4125 Y22.6 Z-1.3 I0.0062 J-0.0108
G2 X71.3938 Y22.5892 Z-1.3333 I-0.0125 J0.0
G2 Y22.6108 Z-1.3667 I0.0062 J0.0108
G2 X71.4125 Y22.6 Z-1.4 I0.0062 J-0.0108
G2 X71.3938 Y22.5892 Z-1.4333 I-0.0125 J0.0
G2 Y22.6108 Z-1.4667 I0.0062 J0.0108
G2 X71.4125 Y22.6 Z-1.5 I0.0062 J-0.0108
G2 X71.3938 Y22.5892 Z-1.5333 I-0.0125 J0.0
G2 Y22.6108 Z-1.5667 I0.0062 J0.0108
G2 X71.4125 Y22.6 Z-1.6 I0.0062 J-0.0108
G2 X71.3938 Y22.5892 Z-1.6333 I-0.0125 J0.0
G2 Y22.6108 Z-1.6667 I0.0062 J0.0108
G2 X71.4125 Y22.6 Z-1.7 I0.0062 J-0.0108
G2 X71.3938 Y22.5892 Z-1.7333 I-0.0125 J0.0
G2 Y22.6108 Z-1.7667 I0.0062 J0.0108
G2 X71.4125 Y22.6 Z-1.8 I0.0062 J-0.0108
G2 X71.3938 Y22.5892 Z-1.8333 I-0.0125 J0.0
G2 Y22.6108 Z-1.8667 I0.0062 J0.0108
G2 X71.4125 Y22.6 Z-1.9 I0.0062 J-0.0108
G2 X71.3938 Y22.5892 Z-1.9333 I-0.0125 J0.0
G2 Y22.6108 Z-1.9667 I0.0062 J0.0108
G2 X71.4125 Y22.6 Z-2.0 I0.0062 J-0.0108
G2 X71.3938 Y22.5892 Z-2.0333 I-0.0125 J0.0
G2 Y22.6108 Z-2.0667 I0.0062 J0.0108
G2 X71.4125 Y22.6 Z-2.1 I0.0062 J-0.0108
G2 X71.3938 Y22.5892 Z-2.1333 I-0.0125 J0.0
G2 Y22.6108 Z-2.1667 I0.0062 J0.0108
G2 X71.4125 Y22.6 Z-2.2 I0.0062 J-0.0108
G2 X71.3938 Y22.5892 Z-2.2333 I-0.0125 J0.0
G2 Y22.6108 Z-2.2667 I0.0062 J0.0108
G2 X71.4125 Y22.6 Z-2.3 I0.0062 J-0.0108
G2 X71.3938 Y22.5892 Z-2.3333 I-0.0125 J0.0
G2 Y22.6108 Z-2.3667 I0.0062 J0.0108
G2 X71.4125 Y22.6 Z-2.4 I0.0062 J-0.0108
G2 X71.3938 Y22.5892 Z-2.4333 I-0.0125 J0.0
G2 Y22.6108 Z-2.4667 I0.0062 J0.0108
G2 X71.4125 Y22.6 Z-2.5 I0.0062 J-0.0108
G2 X71.3938 Y22.5892 Z-2.5333 I-0.0125 J0.0
G2 Y22.6108 Z-2.5667 I0.0062 J0.0108
G2 X71.4125 Y22.6 Z-2.6 I0.0062 J-0.0108
G2 X71.3938 Y22.5892 Z-2.6333 I-0.0125 J0.0
G2 Y22.6108 Z-2.6667 I0.0062 J0.0108
G2 X71.4125 Y22.6 Z-2.7 I0.0062 J-0.0108
G2 X71.3938 Y22.5892 Z-2.7333 I-0.0125 J0.0
G2 Y22.6108 Z-2.7667 I0.0063 J0.0108
G2 X71.4125 Y22.6 Z-2.8 I0.0062 J-0.0108
G2 X71.3938 Y22.5892 Z-2.8333 I-0.0125 J0.0
G2 Y22.6108 Z-2.8667 I0.0063 J0.0108
G2 X71.4125 Y22.6 Z-2.9 I0.0062 J-0.0108
G2 X71.3938 Y22.5892 Z-2.9333 I-0.0125 J0.0
G2 Y22.6108 Z-2.9667 I0.0063 J0.0108
G2 X71.4125 Y22.6 Z-3.0 I0.0062 J-0.0108
G2 X71.3938 Y22.5892 Z-3.0333 I-0.0125 J0.0
G2 Y22.6108 Z-3.0667 I0.0063 J0.0108
G2 X71.4125 Y22.6 Z-3.1 I0.0062 J-0.0108
G2 X71.3938 Y22.5892 Z-3.1333 I-0.0125 J0.0
G2 Y22.6108 Z-3.1667 I0.0063 J0.0108
G2 X71.4125 Y22.6 Z-3.2 I0.0062 J-0.0108
G2 X71.3938 Y22.5892 I-0.0125 J0.0
G2 Y22.6108 I0.0063 J0.0108
G2 X71.4125 Y22.6 I0.0062 J-0.0108
G0 Z3.0
G0 X42.6966 Y24.9648
G0 Z0.05
G1 F1000.0 Z0.0
G2 F2000.0 X42.6779 Y24.954 Z-0.0333 I-0.0125 J0.0
G2 Y24.9756 Z-0.0667 I0.0063 J0.0108
G2 X42.6966 Y24.9648 Z-0.1 I0.0063 J-0.0108
G2 X42.6779 Y24.954 Z-0.1333 I-0.0125 J0.0
G2 Y24.9756 Z-0.1667 I0.0063 J0.0108
G2 X42.6966 Y24.9648 Z-0.2 I0.0063 J-0.0108
G2 X42.6779 Y24.954 Z-0.2333 I-0.0125 J0.0
G2 Y24.9756 Z-0.2667 I0.0063 J0.0108
G2 X42.6966 Y24.9648 Z-0.3 I0.0063 J-0.0108
G2 X42.6779 Y24.954 Z-0.3333 I-0.0125 J0.0
G2 Y24.9756 Z-0.3667 I0.0063 J0.0108
G2 X42.6966 Y24.9648 Z-0.4 I0.0063 J-0.0108
G2 X42.6779 Y24.954 Z-0.4333 I-0.0125 J0.0
G2 Y24.9756 Z-0.4667 I0.0063 J0.0108
G2 X42.6966 Y24.9648 Z-0.5 I0.0063 J-0.0108
G2 X42.6779 Y24.954 Z-0.5333 I-0.0125 J0.0
G2 Y24.9756 Z-0.5667 I0.0063 J0.0108
G2 X42.6966 Y24.9648 Z-0.6 I0.0063 J-0.0108
G2 X42.6779 Y24.954 Z-0.6333 I-0.0125 J0.0
G2 Y24.9756 Z-0.6667 I0.0063 J0.0108
G2 X42.6966 Y24.9648 Z-0.7 I0.0063 J-0.0108
G2 X42.6779 Y24.954 Z-0.7333 I-0.0125 J0.0
G2 Y24.9756 Z-0.7667 I0.0063 J0.0108
G2 X42.6966 Y24.9648 Z-0.8 I0.0063 J-0.0108
G2 X42.6779 Y24.954 Z-0.8333 I-0.0125 J0.0
G2 Y24.9756 Z-0.8667 I0.0063 J0.0108
G2 X42.6966 Y24.9648 Z-0.9 I0.0063 J-0.0108
G2 X42.6779 Y24.954 Z-0.9333 I-0.0125 J0.0
G2 Y24.9756 Z-0.9667 I0.0063 J0.0108
G2 X42.6966 Y24.9648 Z-1.0 I0.0063 J-0.0108
G2 X42.6779 Y24.954 Z-1.0333 I-0.0125 J0.0
G2 Y24.9756 Z-1.0667 I0.0063 J0.0108
G2 X42.6966 Y24.9648 Z-1.1 I0.0063 J-0.0108
G2 X42.6779 Y24.954 Z-1.1333 I-0.0125 J0.0
G2 Y24.9756 Z-1.1667 I0.0063 J0.0108
G2 X42.6966 Y24.9648 Z-1.2 I0.0063 J-0.0108
G2 X42.6779 Y24.954 Z-1.2333 I-0.0125 J0.0
G2 Y24.9756 Z-1.2667 I0.0063 J0.0108
G2 X42.6966 Y24.9648 Z-1.3 I0.0063 J-0.0108
G2 X42.6779 Y24.954 Z-1.3333 I-0.0125 J0.0
G2 Y24.9756 Z-1.3667 I0.0063 J0.0108
G2 X42.6966 Y24.9648 Z-1.4 I0.0063 J-0.0108
G2 X42.6779 Y24.954 Z-1.4333 I-0.0125 J0.0
G2 Y24.9756 Z-1.4667 I0.0063 J0.0108
G2 X42.6966 Y24.9648 Z-1.5 I0.0063 J-0.0108
G2 X42.6779 Y24.954 Z-1.5333 I-0.0125 J0.0
G2 Y24.9756 Z-1.5667 I0.0063 J0.0108
G2 X42.6966 Y24.9648 Z-1.6 I0.0063 J-0.0108
G2 X42.6779 Y24.954 Z-1.6333 I-0.0125 J0.0
G2 Y24.9756 Z-1.6667 I0.0063 J0.0108
G2 X42.6966 Y24.9648 Z-1.7 I0.0063 J-0.0108
G2 X42.6779 Y24.954 Z-1.7333 I-0.0125 J0.0
G2 Y24.9756 Z-1.7667 I0.0063 J0.0108
G2 X42.6966 Y24.9648 Z-1.8 I0.0063 J-0.0108
G2 X42.6779 Y24.954 Z-1.8333 I-0.0125 J0.0
G2 Y24.9756 Z-1.8667 I0.0063 J0.0108
G2 X42.6966 Y24.9648 Z-1.9 I0.0063 J-0.0108
G2 X42.6779 Y24.954 Z-1.9333 I-0.0125 J0.0
G2 Y24.9756 Z-1.9667 I0.0063 J0.0108
G2 X42.6966 Y24.9648 Z-2.0 I0.0063 J-0.0108
G2 X42.6779 Y24.954 Z-2.0333 I-0.0125 J0.0
G2 Y24.9756 Z-2.0667 I0.0063 J0.0108
G2 X42.6966 Y24.9648 Z-2.1 I0.0063 J-0.0108
G2 X42.6779 Y24.954 Z-2.1333 I-0.0125 J0.0
G2 Y24.9756 Z-2.1667 I0.0063 J0.0108
G2 X42.6966 Y24.9648 Z-2.2 I0.0063 J-0.0108
G2 X42.6779 Y24.954 Z-2.2333 I-0.0125 J0.0
G2 Y24.9756 Z-2.2667 I0.0063 J0.0108
G2 X42.6966 Y24.9648 Z-2.3 I0.0063 J-0.0108
G2 X42.6779 Y24.954 Z-2.3333 I-0.0125 J0.0
G2 Y24.9756 Z-2.3667 I0.0063 J0.0108
G2 X42.6966 Y24.9648 Z-2.4 I0.0063 J-0.0108
G2 X42.6779 Y24.954 Z-2.4333 I-0.0125 J0.0
G2 Y24.9756 Z-2.4667 I0.0063 J0.0108
G2 X42.6966 Y24.9648 Z-2.5 I0.0063 J-0.0108
G2 X42.6779 Y24.954 Z-2.5333 I-0.0125 J0.0
G2 Y24.9756 Z-2.5667 I0.0063 J0.0108
G2 X42.6966 Y24.9648 Z-2.6 I0.0063 J-0.0108
G2 X42.6779 Y24.954 Z-2.6333 I-0.0125 J0.0
G2 Y24.9756 Z-2.6667 I0.0063 J0.0108
G2 X42.6966 Y24.9648 Z-2.7 I0.0063 J-0.0108
G2 X42.6779 Y24.954 Z-2.7333 I-0.0125 J0.0
G2 Y24.9756 Z-2.7667 I0.0063 J0.0108
G2 X42.6966 Y24.9648 Z-2.8 I0.0063 J-0.0108
G2 X42.6779 Y24.954 Z-2.8333 I-0.0125 J0.0
G2 Y24.9756 Z-2.8667 I0.0063 J0.0108
G2 X42.6966 Y24.9648 Z-2.9 I0.0063 J-0.0108
G2 X42.6779 Y24.954 Z-2.9333 I-0.0125 J0.0
G2 Y24.9756 Z-2.9667 I0.0063 J0.0108
G2 X42.6966 Y24.9648 Z-3.0 I0.0062 J-0.0108
G2 X42.6779 Y24.954 Z-3.0333 I-0.0125 J0.0
G2 Y24.9756 Z-3.0667 I0.0063 J0.0108
G2 X42.6966 Y24.9648 Z-3.1 I0.0062 J-0.0108
G2 X42.6779 Y24.954 Z-3.1333 I-0.0125 J0.0
G2 Y24.9756 Z-3.1667 I0.0063 J0.0108
G2 X42.6966 Y24.9648 Z-3.2 I0.0062 J-0.0108
G2 X42.6779 Y24.954 I-0.0125 J0.0
G2 Y24.9756 I0.0063 J0.0108
G2 X42.6966 Y24.9648 I0.0062 J-0.0108
G0 Z3.0
G0 X27.0436 Y3.2167
G0 Z0.05
G1 F1000.0 Z0.0
G2 F2000.0 X27.0249 Y3.2059 Z-0.0333 I-0.0125 J0.0
G2 Y3.2276 Z-0.0667 I0.0063 J0.0108
G2 X27.0436 Y3.2167 Z-0.1 I0.0063 J-0.0108
G2 X27.0249 Y3.2059 Z-0.1333 I-0.0125 J0.0
G2 Y3.2276 Z-0.1667 I0.0063 J0.0108
G2 X27.0436 Y3.2167 Z-0.2 I0.0063 J-0.0108
G2 X27.0249 Y3.2059 Z-0.2333 I-0.0125 J0.0
G2 Y3.2276 Z-0.2667 I0.0063 J0.0108
G2 X27.0436 Y3.2167 Z-0.3 I0.0063 J-0.0108
G2 X27.0249 Y3.2059 Z-0.3333 I-0.0125 J0.0
G2 Y3.2276 Z-0.3667 I0.0063 J0.0108
G2 X27.0436 Y3.2167 Z-0.4 I0.0063 J-0.0108
G2 X27.0249 Y3.2059 Z-0.4333 I-0.0125 J0.0
G2 Y3.2276 Z-0.4667 I0.0063 J0.0108
G2 X27.0436 Y3.2167 Z-0.5 I0.0063 J-0.0108
G2 X27.0249 Y3.2059 Z-0.5333 I-0.0125 J0.0
G2 Y3.2276 Z-0.5667 I0.0063 J0.0108
G2 X27.0436 Y3.2167 Z-0.6 I0.0063 J-0.0108
G2 X27.0249 Y3.2059 Z-0.6333 I-0.0125 J0.0
G2 Y3.2276 Z-0.6667 I0.0063 J0.0108
G2 X27.0436 Y3.2167 Z-0.7 I0.0063 J-0.0108
G2 X27.0249 Y3.2059 Z-0.7333 I-0.0125 J0.0
G2 Y3.2276 Z-0.7667 I0.0063 J0.0108
G2 X27.0436 Y3.2167 Z-0.8 I0.0063 J-0.0108
G2 X27.0249 Y3.2059 Z-0.8333 I-0.0125 J0.0
G2 Y3.2276 Z-0.8667 I0.0063 J0.0108
G2 X27.0436 Y3.2167 Z-0.9 I0.0063 J-0.0108
G2 X27.0249 Y3.2059 Z-0.9333 I-0.0125 J0.0
G2 Y3.2276 Z-0.9667 I0.0063 J0.0108
G2 X27.0436 Y3.2167 Z-1.0 I0.0063 J-0.0108
G2 X27.0249 Y3.2059 Z-1.0333 I-0.0125 J0.0
G2 Y3.2276 Z-1.0667 I0.0063 J0.0108
G2 X27.0436 Y3.2167 Z-1.1 I0.0063 J-0.0108
G2 X27.0249 Y3.2059 Z-1.1333 I-0.0125 J0.0
G2 Y3.2276 Z-1.1667 I0.0063 J0.0108
G2 X27.0436 Y3.2167 Z-1.2 I0.0063 J-0.0108
G2 X27.0249 Y3.2059 Z-1.2333 I-0.0125 J0.0
G2 Y3.2276 Z-1.2667 I0.0062 J0.0108
G2 X27.0436 Y3.2167 Z-1.3 I0.0063 J-0.0108
G2 X27.0249 Y3.2059 Z-1.3333 I-0.0125 J0.0
G2 Y3.2276 Z-1.3667 I0.0062 J0.0108
G2 X27.0436 Y3.2167 Z-1.4 I0.0063 J-0.0108
G2 X27.0249 Y3.2059 Z-1.4333 I-0.0125 J0.0
G2 Y3.2276 Z-1.4667 I0.0062 J0.0108
G2 X27.0436 Y3.2167 Z-1.5 I0.0063 J-0.0108
G2 X27.0249 Y3.2059 Z-1.5333 I-0.0125 J0.0
G2 Y3.2276 Z-1.5667 I0.0062 J0.0108
G2 X27.0436 Y3.2167 Z-1.6 I0.0063 J-0.0108
G2 X27.0249 Y3.2059 Z-1.6333 I-0.0125 J0.0
G2 Y3.2276 Z-1.6667 I0.0062 J0.0108
G2 X27.0436 Y3.2167 Z-1.7 I0.0063 J-0.0108
G2 X27.0249 Y3.2059 Z-1.7333 I-0.0125 J0.0
G2 Y3.2276 Z-1.7667 I0.0062 J0.0108
G2 X27.0436 Y3.2167 Z-1.8 I0.0063 J-0.0108
G2 X27.0249 Y3.2059 Z-1.8333 I-0.0125 J0.0
G2 Y3.2276 Z-1.8667 I0.0062 J0.0108
G2 X27.0436 Y3.2167 Z-1.9 I0.0063 J-0.0108
G2 X27.0249 Y3.2059 Z-1.9333 I-0.0125 J0.0
G2 Y3.2276 Z-1.9667 I0.0062 J0.0108
G2 X27.0436 Y3.2167 Z-2.0 I0.0063 J-0.0108
G2 X27.0249 Y3.2059 Z-2.0333 I-0.0125 J0.0
G2 Y3.2276 Z-2.0667 I0.0062 J0.0108
G2 X27.0436 Y3.2167 Z-2.1 I0.0063 J-0.0108
G2 X27.0249 Y3.2059 Z-2.1333 I-0.0125 J0.0
G2 Y3.2276 Z-2.1667 I0.0062 J0.0108
G2 X27.0436 Y3.2167 Z-2.2 I0.0063 J-0.0108
G2 X27.0249 Y3.2059 Z-2.2333 I-0.0125 J0.0
G2 Y3.2276 Z-2.2667 I0.0063 J0.0108
G2 X27.0436 Y3.2167 Z-2.3 I0.0063 J-0.0108
G2 X27.0249 Y3.2059 Z-2.3333 I-0.0125 J0.0
G2 Y3.2276 Z-2.3667 I0.0063 J0.0108
G2 X27.0436 Y3.2167 Z-2.4 I0.0063 J-0.0108
G2 X27.0249 Y3.2059 Z-2.4333 I-0.0125 J0.0
G2 Y3.2276 Z-2.4667 I0.0063 J0.0108
G2 X27.0436 Y3.2167 Z-2.5 I0.0062 J-0.0108
G2 X27.0249 Y3.2059 Z-2.5333 I-0.0125 J0.0
G2 Y3.2276 Z-2.5667 I0.0063 J0.0108
G2 X27.0436 Y3.2167 Z-2.6 I0.0062 J-0.0108
G2 X27.0249 Y3.2059 Z-2.6333 I-0.0125 J0.0
G2 Y3.2276 Z-2.6667 I0.0063 J0.0108
G2 X27.0436 Y3.2167 Z-2.7 I0.0062 J-0.0108
G2 X27.0249 Y3.2059 Z-2.7333 I-0.0125 J0.0
G2 Y3.2276 Z-2.7667 I0.0063 J0.0108
G2 X27.0436 Y3.2167 Z-2.8 I0.0062 J-0.0108
G2 X27.0249 Y3.2059 Z-2.8333 I-0.0125 J0.0
G2 Y3.2276 Z-2.8667 I0.0063 J0.0108
G2 X27.0436 Y3.2167 Z-2.9 I0.0062 J-0.0108
G2 X27.0249 Y3.2059 Z-2.9333 I-0.0125 J0.0
G2 Y3.2276 Z-2.9667 I0.0063 J0.0108
G2 X27.0436 Y3.2167 Z-3.0 I0.0062 J-0.0108
G2 X27.0249 Y3.2059 Z-3.0333 I-0.0125 J0.0
G2 Y3.2276 Z-3.0667 I0.0063 J0.0108
G2 X27.0436 Y3.2167 Z-3.1 I0.0062 J-0.0108
G2 X27.0249 Y3.2059 Z-3.1333 I-0.0125 J0.0
G2 Y3.2276 Z-3.1667 I0.0063 J0.0108
G2 X27.0436 Y3.2167 Z-3.2 I0.0062 J-0.0108
G2 X27.0249 Y3.2059 I-0.0125 J0.0
G2 Y3.2276 I0.0063 J0.0108
G2 X27.0436 Y3.2167 I0.0062 J-0.0108
G0 Z3.0
G0 X15.6325 Y22.24
G0 Z0.05
G1 F1000.0 Z0.0
G2 F2000.0 X15.6138 Y22.2292 Z-0.0333 I-0.0125 J0.0
G2 Y22.2508 Z-0.0667 I0.0062 J0.0108
G2 X15.6325 Y22.24 Z-0.1 I0.0063 J-0.0108
G2 X15.6138 Y22.2292 Z-0.1333 I-0.0125 J0.0
G2 Y22.2508 Z-0.1667 I0.0062 J0.0108
G2 X15.6325 Y22.24 Z-0.2 I0.0063 J-0.0108
G2 X15.6138 Y22.2292 Z-0.2333 I-0.0125 J0.0
G2 Y22.2508 Z-0.2667 I0.0062 J0.0108
G2 X15.6325 Y22.24 Z-0.3 I0.0063 J-0.0108
G2 X15.6138 Y22.2292 Z-0.3333 I-0.0125 J0.0
G2 Y22.2508 Z-0.3667 I0.0062 J0.0108
G2 X15.6325 Y22.24 Z-0.4 I0.0063 J-0.0108
G2 X15.6138 Y22.2292 Z-0.4333 I-0.0125 J0.0
G2 Y22.2508 Z-0.4667 I0.0062 J0.0108
G2 X15.6325 Y22.24 Z-0.5 I0.0063 J-0.0108
G2 X15.6138 Y22.2292 Z-0.5333 I-0.0125 J0.0
G2 Y22.2508 Z-0.5667 I0.0062 J0.0108
G2 X15.6325 Y22.24 Z-0.6 I0.0063 J-0.0108
G2 X15.6138 Y22.2292 Z-0.6333 I-0.0125 J0.0
G2 Y22.2508 Z-0.6667 I0.0062 J0.0108
G2 X15.6325 Y22.24 Z-0.7 I0.0063 J-0.0108
G2 X15.6138 Y22.2292 Z-0.7333 I-0.0125 J0.0
G2 Y22.2508 Z-0.7667 I0.0062 J0.0108
G2 X15.6325 Y22.24 Z-0.8 I0.0063 J-0.0108
G2 X15.6138 Y22.2292 Z-0.8333 I-0.0125 J0.0
G2 Y22.2508 Z-0.8667 I0.0062 J0.0108
G2 X15.6325 Y22.24 Z-0.9 I0.0063 J-0.0108
G2 X15.6138 Y22.2292 Z-0.9333 I-0.0125 J0.0
G2 Y22.2508 Z-0.9667 I0.0062 J0.0108
G2 X15.6325 Y22.24 Z-1.0 I0.0063 J-0.0108
G2 X15.6138 Y22.2292 Z-1.0333 I-0.0125 J0.0
G2 Y22.2508 Z-1.0667 I0.0062 J0.0108
G2 X15.6325 Y22.24 Z-1.1 I0.0063 J-0.0108
G2 X15.6138 Y22.2292 Z-1.1333 I-0.0125 J0.0
G2 Y22.2508 Z-1.1667 I0.0062 J0.0108
G2 X15.6325 Y22.24 Z-1.2 I0.0063 J-0.0108
G2 X15.6138 Y22.2292 Z-1.2333 I-0.0125 J0.0
G2 Y22.2508 Z-1.2667 I0.0062 J0.0108
G2 X15.6325 Y22.24 Z-1.3 I0.0063 J-0.0108
G2 X15.6138 Y22.2292 Z-1.3333 I-0.0125 J0.0
G2 Y22.2508 Z-1.3667 I0.0062 J0.0108
G2 X15.6325 Y22.24 Z-1.4 I0.0063 J-0.0108
G2 X15.6138 Y22.2292 Z-1.4333 I-0.0125 J0.0
G2 Y22.2508 Z-1.4667 I0.0062 J0.0108
G2 X15.6325 Y22.24 Z-1.5 I0.0063 J-0.0108
G2 X15.6138 Y22.2292 Z-1.5333 I-0.0125 J0.0
G2 Y22.2508 Z-1.5667 I0.0062 J0.0108
G2 X15.6325 Y22.24 Z-1.6 I0.0063 J-0.0108
G2 X15.6138 Y22.2292 Z-1.6333 I-0.0125 J0.0
G2 Y22.2508 Z-1.6667 I0.0062 J0.0108
G2 X15.6325 Y22.24 Z-1.7 I0.0063 J-0.0108
G2 X15.6138 Y22.2292 Z-1.7333 I-0.0125 J0.0
G2 Y22.2508 Z-1.7667 I0.0062 J0.0108
G2 X15.6325 Y22.24 Z-1.8 I0.0063 J-0.0108
G2 X15.6138 Y22.2292 Z-1.8333 I-0.0125 J0.0
G2 Y22.2508 Z-1.8667 I0.0062 J0.0108
G2 X15.6325 Y22.24 Z-1.9 I0.0063 J-0.0108
G2 X15.6138 Y22.2292 Z-1.9333 I-0.0125 J0.0
G2 Y22.2508 Z-1.9667 I0.0062 J0.0108
G2 X15.6325 Y22.24 Z-2.0 I0.0063 J-0.0108
G2 X15.6138 Y22.2292 Z-2.0333 I-0.0125 J0.0
G2 Y22.2508 Z-2.0667 I0.0062 J0.0108
G2 X15.6325 Y22.24 Z-2.1 I0.0063 J-0.0108
G2 X15.6138 Y22.2292 Z-2.1333 I-0.0125 J0.0
G2 Y22.2508 Z-2.1667 I0.0062 J0.0108
G2 X15.6325 Y22.24 Z-2.2 I0.0063 J-0.0108
G2 X15.6138 Y22.2292 Z-2.2333 I-0.0125 J0.0
G2 Y22.2508 Z-2.2667 I0.0062 J0.0108
G2 X15.6325 Y22.24 Z-2.3 I0.0063 J-0.0108
G2 X15.6138 Y22.2292 Z-2.3333 I-0.0125 J0.0
G2 Y22.2508 Z-2.3667 I0.0062 J0.0108
G2 X15.6325 Y22.24 Z-2.4 I0.0063 J-0.0108
G2 X15.6138 Y22.2292 Z-2.4333 I-0.0125 J0.0
G2 Y22.2508 Z-2.4667 I0.0062 J0.0108
G2 X15.6325 Y22.24 Z-2.5 I0.0063 J-0.0108
G2 X15.6138 Y22.2292 Z-2.5333 I-0.0125 J0.0
G2 Y22.2508 Z-2.5667 I0.0062 J0.0108
G2 X15.6325 Y22.24 Z-2.6 I0.0063 J-0.0108
G2 X15.6138 Y22.2292 Z-2.6333 I-0.0125 J0.0
G2 Y22.2508 Z-2.6667 I0.0063 J0.0108
G2 X15.6325 Y22.24 Z-2.7 I0.0062 J-0.0108
G2 X15.6138 Y22.2292 Z-2.7333 I-0.0125 J0.0
G2 Y22.2508 Z-2.7667 I0.0063 J0.0108
G2 X15.6325 Y22.24 Z-2.8 I0.0062 J-0.0108
G2 X15.6138 Y22.2292 Z-2.8333 I-0.0125 J0.0
G2 Y22.2508 Z-2.8667 I0.0063 J0.0108
G2 X15.6325 Y22.24 Z-2.9 I0.0062 J-0.0108
G2 X15.6138 Y22.2292 Z-2.9333 I-0.0125 J0.0
G2 Y22.2508 Z-2.9667 I0.0063 J0.0108
G2 X15.6325 Y22.24 Z-3.0 I0.0062 J-0.0108
G2 X15.6138 Y22.2292 Z-3.0333 I-0.0125 J0.0
G2 Y22.2508 Z-3.0667 I0.0063 J0.0108
G2 X15.6325 Y22.24 Z-3.1 I0.0062 J-0.0108
G2 X15.6138 Y22.2292 Z-3.1333 I-0.0125 J0.0
G2 Y22.2508 Z-3.1667 I0.0063 J0.0108
G2 X15.6325 Y22.24 Z-3.2 I0.0062 J-0.0108
G2 X15.6138 Y22.2292 I-0.0125 J0.0
G2 Y22.2508 I0.0063 J0.0108
G2 X15.6325 Y22.24 I0.0062 J-0.0108
G0 Z3.0
G0 X19.2325 Y58.81
G0 Z0.05
G1 F1000.0 Z0.0
G2 F2000.0 X19.2138 Y58.7992 Z-0.0333 I-0.0125 J0.0
G2 Y58.8208 Z-0.0667 I0.0063 J0.0108
G2 X19.2325 Y58.81 Z-0.1 I0.0062 J-0.0108
G2 X19.2138 Y58.7992 Z-0.1333 I-0.0125 J0.0
G2 Y58.8208 Z-0.1667 I0.0063 J0.0108
G2 X19.2325 Y58.81 Z-0.2 I0.0062 J-0.0108
G2 X19.2138 Y58.7992 Z-0.2333 I-0.0125 J0.0
G2 Y58.8208 Z-0.2667 I0.0063 J0.0108
G2 X19.2325 Y58.81 Z-0.3 I0.0062 J-0.0108
G2 X19.2138 Y58.7992 Z-0.3333 I-0.0125 J0.0
G2 Y58.8208 Z-0.3667 I0.0063 J0.0108
G2 X19.2325 Y58.81 Z-0.4 I0.0062 J-0.0108
G2 X19.2138 Y58.7992 Z-0.4333 I-0.0125 J0.0
G2 Y58.8208 Z-0.4667 I0.0063 J0.0108
G2 X19.2325 Y58.81 Z-0.5 I0.0062 J-0.0108
G2 X19.2138 Y58.7992 Z-0.5333 I-0.0125 J0.0
G2 Y58.8208 Z-0.5667 I0.0063 J0.0108
G2 X19.2325 Y58.81 Z-0.6 I0.0062 J-0.0108
G2 X19.2138 Y58.7992 Z-0.6333 I-0.0125 J0.0
G2 Y58.8208 Z-0.6667 I0.0063 J0.0108
G2 X19.2325 Y58.81 Z-0.7 I0.0062 J-0.0108
G2 X19.2138 Y58.7992 Z-0.7333 I-0.0125 J0.0
G2 Y58.8208 Z-0.7667 I0.0063 J0.0108
G2 X19.2325 Y58.81 Z-0.8 I0.0062 J-0.0108
G2 X19.2138 Y58.7992 Z-0.8333 I-0.0125 J0.0
G2 Y58.8208 Z-0.8667 I0.0063 J0.0108
G2 X19.2325 Y58.81 Z-0.9 I0.0062 J-0.0108
G2 X19.2138 Y58.7992 Z-0.9333 I-0.0125 J0.0
G2 Y58.8208 Z-0.9667 I0.0063 J0.0108
G2 X19.2325 Y58.81 Z-1.0 I0.0062 J-0.0108
G2 X19.2138 Y58.7992 Z-1.0333 I-0.0125 J0.0
G2 Y58.8208 Z-1.0667 I0.0063 J0.0108
G2 X19.2325 Y58.81 Z-1.1 I0.0062 J-0.0108
G2 X19.2138 Y58.7992 Z-1.1333 I-0.0125 J0.0
G2 Y58.8208 Z-1.1667 I0.0063 J0.0108
G2 X19.2325 Y58.81 Z-1.2 I0.0062 J-0.0108
G2 X19.2138 Y58.7992 Z-1.2333 I-0.0125 J0.0
G2 Y58.8208 Z-1.2667 I0.0063 J0.0108
G2 X19.2325 Y58.81 Z-1.3 I0.0062 J-0.0108
G2 X19.2138 Y58.7992 Z-1.3333 I-0.0125 J0.0
G2 Y58.8208 Z-1.3667 I0.0063 J0.0108
G2 X19.2325 Y58.81 Z-1.4 I0.0062 J-0.0108
G2 X19.2138 Y58.7992 Z-1.4333 I-0.0125 J0.0
G2 Y58.8208 Z-1.4667 I0.0063 J0.0108
G2 X19.2325 Y58.81 Z-1.5 I0.0062 J-0.0108
G2 X19.2138 Y58.7992 Z-1.5333 I-0.0125 J0.0
G2 Y58.8208 Z-1.5667 I0.0063 J0.0108
G2 X19.2325 Y58.81 Z-1.6 I0.0062 J-0.0108
G2 X19.2138 Y58.7992 Z-1.6333 I-0.0125 J0.0
G2 Y58.8208 Z-1.6667 I0.0063 J0.0108
G2 X19.2325 Y58.81 Z-1.7 I0.0062 J-0.0108
G2 X19.2138 Y58.7992 Z-1.7333 I-0.0125 J0.0
G2 Y58.8208 Z-1.7667 I0.0063 J0.0108
G2 X19.2325 Y58.81 Z-1.8 I0.0062 J-0.0108
G2 X19.2138 Y58.7992 Z-1.8333 I-0.0125 J0.0
G2 Y58.8208 Z-1.8667 I0.0063 J0.0108
G2 X19.2325 Y58.81 Z-1.9 I0.0062 J-0.0108
G2 X19.2138 Y58.7992 Z-1.9333 I-0.0125 J0.0
G2 Y58.8208 Z-1.9667 I0.0063 J0.0108
G2 X19.2325 Y58.81 Z-2.0 I0.0062 J-0.0108
G2 X19.2138 Y58.7992 Z-2.0333 I-0.0125 J0.0
G2 Y58.8208 Z-2.0667 I0.0063 J0.0108
G2 X19.2325 Y58.81 Z-2.1 I0.0062 J-0.0108
G2 X19.2138 Y58.7992 Z-2.1333 I-0.0125 J0.0
G2 Y58.8208 Z-2.1667 I0.0063 J0.0108
G2 X19.2325 Y58.81 Z-2.2 I0.0062 J-0.0108
G2 X19.2138 Y58.7992 Z-2.2333 I-0.0125 J0.0
G2 Y58.8208 Z-2.2667 I0.0063 J0.0108
G2 X19.2325 Y58.81 Z-2.3 I0.0062 J-0.0108
G2 X19.2138 Y58.7992 Z-2.3333 I-0.0125 J0.0
G2 Y58.8208 Z-2.3667 I0.0063 J0.0108
G2 X19.2325 Y58.81 Z-2.4 I0.0062 J-0.0108
G2 X19.2138 Y58.7992 Z-2.4333 I-0.0125 J0.0
G2 Y58.8208 Z-2.4667 I0.0063 J0.0108
G2 X19.2325 Y58.81 Z-2.5 I0.0062 J-0.0108
G2 X19.2138 Y58.7992 Z-2.5333 I-0.0125 J0.0
G2 Y58.8208 Z-2.5667 I0.0063 J0.0108
G2 X19.2325 Y58.81 Z-2.6 I0.0062 J-0.0108
G2 X19.2138 Y58.7992 Z-2.6333 I-0.0125 J0.0
G2 Y58.8208 Z-2.6667 I0.0063 J0.0108
G2 X19.2325 Y58.81 Z-2.7 I0.0062 J-0.0108
G2 X19.2138 Y58.7992 Z-2.7333 I-0.0125 J0.0
G2 Y58.8208 Z-2.7667 I0.0063 J0.0108
G2 X19.2325 Y58.81 Z-2.8 I0.0062 J-0.0108
G2 X19.2138 Y58.7992 Z-2.8333 I-0.0125 J0.0
G2 Y58.8208 Z-2.8667 I0.0063 J0.0108
G2 X19.2325 Y58.81 Z-2.9 I0.0062 J-0.0108
G2 X19.2138 Y58.7992 Z-2.9333 I-0.0125 J0.0
G2 Y58.8208 Z-2.9667 I0.0063 J0.0108
G2 X19.2325 Y58.81 Z-3.0 I0.0062 J-0.0108
G2 X19.2138 Y58.7992 Z-3.0333 I-0.0125 J0.0
G2 Y58.8208 Z-3.0667 I0.0063 J0.0108
G2 X19.2325 Y58.81 Z-3.1 I0.0062 J-0.0108
G2 X19.2138 Y58.7992 Z-3.1333 I-0.0125 J0.0
G2 Y58.8208 Z-3.1667 I0.0063 J0.0108
G2 X19.2325 Y58.81 Z-3.2 I0.0062 J-0.0108
G2 X19.2138 Y58.7992 I-0.0125 J0.0
G2 Y58.8208 I0.0063 J0.0108
G2 X19.2325 Y58.81 I0.0062 J-0.0108
G0 Z3.0
G0 X34.9025
G0 Z0.05
G1 F1000.0 Z0.0
G2 F2000.0 X34.8838 Y58.7992 Z-0.0333 I-0.0125 J0.0
G2 Y58.8208 Z-0.0667 I0.0063 J0.0108
G2 X34.9025 Y58.81 Z-0.1 I0.0063 J-0.0108
G2 X34.8838 Y58.7992 Z-0.1333 I-0.0125 J0.0
G2 Y58.8208 Z-0.1667 I0.0063 J0.0108
G2 X34.9025 Y58.81 Z-0.2 I0.0063 J-0.0108
G2 X34.8838 Y58.7992 Z-0.2333 I-0.0125 J0.0
G2 Y58.8208 Z-0.2667 I0.0063 J0.0108
G2 X34.9025 Y58.81 Z-0.3 I0.0063 J-0.0108
G2 X34.8838 Y58.7992 Z-0.3333 I-0.0125 J0.0
G2 Y58.8208 Z-0.3667 I0.0063 J0.0108
G2 X34.9025 Y58.81 Z-0.4 I0.0063 J-0.0108
G2 X34.8838 Y58.7992 Z-0.4333 I-0.0125 J0.0
G2 Y58.8208 Z-0.4667 I0.0063 J0.0108
G2 X34.9025 Y58.81 Z-0.5 I0.0063 J-0.0108
G2 X34.8838 Y58.7992 Z-0.5333 I-0.0125 J0.0
G2 Y58.8208 Z-0.5667 I0.0063 J0.0108
G2 X34.9025 Y58.81 Z-0.6 I0.0063 J-0.0108
G2 X34.8838 Y58.7992 Z-0.6333 I-0.0125 J0.0
G2 Y58.8208 Z-0.6667 I0.0063 J0.0108
G2 X34.9025 Y58.81 Z-0.7 I0.0063 J-0.0108
G2 X34.8838 Y58.7992 Z-0.7333 I-0.0125 J0.0
G2 Y58.8208 Z-0.7667 I0.0063 J0.0108
G2 X34.9025 Y58.81 Z-0.8 I0.0063 J-0.0108
G2 X34.8838 Y58.7992 Z-0.8333 I-0.0125 J0.0
G2 Y58.8208 Z-0.8667 I0.0063 J0.0108
G2 X34.9025 Y58.81 Z-0.9 I0.0063 J-0.0108
G2 X34.8838 Y58.7992 Z-0.9333 I-0.0125 J0.0
G2 Y58.8208 Z-0.9667 I0.0063 J0.0108
G2 X34.9025 Y58.81 Z-1.0 I0.0063 J-0.0108
G2 X34.8838 Y58.7992 Z-1.0333 I-0.0125 J0.0
G2 Y58.8208 Z-1.0667 I0.0063 J0.0108
G2 X34.9025 Y58.81 Z-1.1 I0.0063 J-0.0108
G2 X34.8838 Y58.7992 Z-1.1333 I-0.0125 J0.0
G2 Y58.8208 Z-1.1667 I0.0063 J0.0108
G2 X34.9025 Y58.81 Z-1.2 I0.0063 J-0.0108
G2 X34.8838 Y58.7992 Z-1.2333 I-0.0125 J0.0
G2 Y58.8208 Z-1.2667 I0.0063 J0.0108
G2 X34.9025 Y58.81 Z-1.3 I0.0063 J-0.0108
G2 X34.8838 Y58.7992 Z-1.3333 I-0.0125 J0.0
G2 Y58.8208 Z-1.3667 I0.0063 J0.0108
G2 X34.9025 Y58.81 Z-1.4 I0.0063 J-0.0108
G2 X34.8838 Y58.7992 Z-1.4333 I-0.0125 J0.0
G2 Y58.8208 Z-1.4667 I0.0063 J0.0108
G2 X34.9025 Y58.81 Z-1.5 I0.0063 J-0.0108
G2 X34.8838 Y58.7992 Z-1.5333 I-0.0125 J0.0
G2 Y58.8208 Z-1.5667 I0.0063 J0.0108
G2 X34.9025 Y58.81 Z-1.6 I0.0063 J-0.0108
G2 X34.8838 Y58.7992 Z-1.6333 I-0.0125 J0.0
G2 Y58.8208 Z-1.6667 I0.0063 J0.0108
G2 X34.9025 Y58.81 Z-1.7 I0.0063 J-0.0108
G2 X34.8838 Y58.7992 Z-1.7333 I-0.0125 J0.0
G2 Y58.8208 Z-1.7667 I0.0063 J0.0108
G2 X34.9025 Y58.81 Z-1.8 I0.0063 J-0.0108
G2 X34.8838 Y58.7992 Z-1.8333 I-0.0125 J0.0
G2 Y58.8208 Z-1.8667 I0.0063 J0.0108
G2 X34.9025 Y58.81 Z-1.9 I0.0063 J-0.0108
G2 X34.8838 Y58.7992 Z-1.9333 I-0.0125 J0.0
G2 Y58.8208 Z-1.9667 I0.0063 J0.0108
G2 X34.9025 Y58.81 Z-2.0 I0.0063 J-0.0108
G2 X34.8838 Y58.7992 Z-2.0333 I-0.0125 J0.0
G2 Y58.8208 Z-2.0667 I0.0063 J0.0108
G2 X34.9025 Y58.81 Z-2.1 I0.0063 J-0.0108
G2 X34.8838 Y58.7992 Z-2.1333 I-0.0125 J0.0
G2 Y58.8208 Z-2.1667 I0.0063 J0.0108
G2 X34.9025 Y58.81 Z-2.2 I0.0063 J-0.0108
G2 X34.8838 Y58.7992 Z-2.2333 I-0.0125 J0.0
G2 Y58.8208 Z-2.2667 I0.0063 J0.0108
G2 X34.9025 Y58.81 Z-2.3 I0.0063 J-0.0108
G2 X34.8838 Y58.7992 Z-2.3333 I-0.0125 J0.0
G2 Y58.8208 Z-2.3667 I0.0063 J0.0108
G2 X34.9025 Y58.81 Z-2.4 I0.0063 J-0.0108
G2 X34.8838 Y58.7992 Z-2.4333 I-0.0125 J0.0
G2 Y58.8208 Z-2.4667 I0.0063 J0.0108
G2 X34.9025 Y58.81 Z-2.5 I0.0063 J-0.0108
G2 X34.8838 Y58.7992 Z-2.5333 I-0.0125 J0.0
G2 Y58.8208 Z-2.5667 I0.0063 J0.0108
G2 X34.9025 Y58.81 Z-2.6 I0.0063 J-0.0108
G2 X34.8838 Y58.7992 Z-2.6333 I-0.0125 J0.0
G2 Y58.8208 Z-2.6667 I0.0063 J0.0108
G2 X34.9025 Y58.81 Z-2.7 I0.0063 J-0.0108
G2 X34.8838 Y58.7992 Z-2.7333 I-0.0125 J0.0
G2 Y58.8208 Z-2.7667 I0.0063 J0.0108
G2 X34.9025 Y58.81 Z-2.8 I0.0063 J-0.0108
G2 X34.8838 Y58.7992 Z-2.8333 I-0.0125 J0.0
G2 Y58.8208 Z-2.8667 I0.0063 J0.0108
G2 X34.9025 Y58.81 Z-2.9 I0.0063 J-0.0108
G2 X34.8838 Y58.7992 Z-2.9333 I-0.0125 J0.0
G2 Y58.8208 Z-2.9667 I0.0063 J0.0108
G2 X34.9025 Y58.81 Z-3.0 I0.0062 J-0.0108
G2 X34.8838 Y58.7992 Z-3.0333 I-0.0125 J0.0
G2 Y58.8208 Z-3.0667 I0.0063 J0.0108
G2 X34.9025 Y58.81 Z-3.1 I0.0062 J-0.0108
G2 X34.8838 Y58.7992 Z-3.1333 I-0.0125 J0.0
G2 Y58.8208 Z-3.1667 I0.0063 J0.0108
G2 X34.9025 Y58.81 Z-3.2 I0.0062 J-0.0108
G2 X34.8838 Y58.7992 I-0.0125 J0.0
G2 Y58.8208 I0.0063 J0.0108
G2 X34.9025 Y58.81 I0.0062 J-0.0108
G0 Z3.0
G0 X50.5525
G0 Z0.05
G1 F1000.0 Z0.0
G2 F2000.0 X50.5337 Y58.7992 Z-0.0333 I-0.0125 J0.0
G2 Y58.8208 Z-0.0667 I0.0063 J0.0108
G2 X50.5525 Y58.81 Z-0.1 I0.0063 J-0.0108
G2 X50.5337 Y58.7992 Z-0.1333 I-0.0125 J0.0
G2 Y58.8208 Z-0.1667 I0.0063 J0.0108
G2 X50.5525 Y58.81 Z-0.2 I0.0063 J-0.0108
G2 X50.5337 Y58.7992 Z-0.2333 I-0.0125 J0.0
G2 Y58.8208 Z-0.2667 I0.0063 J0.0108
G2 X50.5525 Y58.81 Z-0.3 I0.0063 J-0.0108
G2 X50.5337 Y58.7992 Z-0.3333 I-0.0125 J0.0
G2 Y58.8208 Z-0.3667 I0.0063 J0.0108
G2 X50.5525 Y58.81 Z-0.4 I0.0063 J-0.0108
G2 X50.5337 Y58.7992 Z-0.4333 I-0.0125 J0.0
G2 Y58.8208 Z-0.4667 I0.0063 J0.0108
G2 X50.5525 Y58.81 Z-0.5 I0.0063 J-0.0108
G2 X50.5337 Y58.7992 Z-0.5333 I-0.0125 J0.0
G2 Y58.8208 Z-0.5667 I0.0063 J0.0108
G2 X50.5525 Y58.81 Z-0.6 I0.0063 J-0.0108
G2 X50.5337 Y58.7992 Z-0.6333 I-0.0125 J0.0
G2 Y58.8208 Z-0.6667 I0.0063 J0.0108
G2 X50.5525 Y58.81 Z-0.7 I0.0063 J-0.0108
G2 X50.5337 Y58.7992 Z-0.7333 I-0.0125 J0.0
G2 Y58.8208 Z-0.7667 I0.0063 J0.0108
G2 X50.5525 Y58.81 Z-0.8 I0.0063 J-0.0108
G2 X50.5337 Y58.7992 Z-0.8333 I-0.0125 J0.0
G2 Y58.8208 Z-0.8667 I0.0063 J0.0108
G2 X50.5525 Y58.81 Z-0.9 I0.0063 J-0.0108
G2 X50.5337 Y58.7992 Z-0.9333 I-0.0125 J0.0
G2 Y58.8208 Z-0.9667 I0.0063 J0.0108
G2 X50.5525 Y58.81 Z-1.0 I0.0063 J-0.0108
G2 X50.5337 Y58.7992 Z-1.0333 I-0.0125 J0.0
G2 Y58.8208 Z-1.0667 I0.0063 J0.0108
G2 X50.5525 Y58.81 Z-1.1 I0.0063 J-0.0108
G2 X50.5337 Y58.7992 Z-1.1333 I-0.0125 J0.0
G2 Y58.8208 Z-1.1667 I0.0063 J0.0108
G2 X50.5525 Y58.81 Z-1.2 I0.0063 J-0.0108
G2 X50.5337 Y58.7992 Z-1.2333 I-0.0125 J0.0
G2 Y58.8208 Z-1.2667 I0.0063 J0.0108
G2 X50.5525 Y58.81 Z-1.3 I0.0063 J-0.0108
G2 X50.5337 Y58.7992 Z-1.3333 I-0.0125 J0.0
G2 Y58.8208 Z-1.3667 I0.0063 J0.0108
G2 X50.5525 Y58.81 Z-1.4 I0.0063 J-0.0108
G2 X50.5337 Y58.7992 Z-1.4333 I-0.0125 J0.0
G2 Y58.8208 Z-1.4667 I0.0063 J0.0108
G2 X50.5525 Y58.81 Z-1.5 I0.0063 J-0.0108
G2 X50.5337 Y58.7992 Z-1.5333 I-0.0125 J0.0
G2 Y58.8208 Z-1.5667 I0.0063 J0.0108
G2 X50.5525 Y58.81 Z-1.6 I0.0063 J-0.0108
G2 X50.5337 Y58.7992 Z-1.6333 I-0.0125 J0.0
G2 Y58.8208 Z-1.6667 I0.0063 J0.0108
G2 X50.5525 Y58.81 Z-1.7 I0.0063 J-0.0108
G2 X50.5337 Y58.7992 Z-1.7333 I-0.0125 J0.0
G2 Y58.8208 Z-1.7667 I0.0063 J0.0108
G2 X50.5525 Y58.81 Z-1.8 I0.0063 J-0.0108
G2 X50.5337 Y58.7992 Z-1.8333 I-0.0125 J0.0
G2 Y58.8208 Z-1.8667 I0.0063 J0.0108
G2 X50.5525 Y58.81 Z-1.9 I0.0063 J-0.0108
G2 X50.5337 Y58.7992 Z-1.9333 I-0.0125 J0.0
G2 Y58.8208 Z-1.9667 I0.0063 J0.0108
G2 X50.5525 Y58.81 Z-2.0 I0.0063 J-0.0108
G2 X50.5337 Y58.7992 Z-2.0333 I-0.0125 J0.0
G2 Y58.8208 Z-2.0667 I0.0063 J0.0108
G2 X50.5525 Y58.81 Z-2.1 I0.0063 J-0.0108
G2 X50.5337 Y58.7992 Z-2.1333 I-0.0125 J0.0
G2 Y58.8208 Z-2.1667 I0.0063 J0.0108
G2 X50.5525 Y58.81 Z-2.2 I0.0063 J-0.0108
G2 X50.5337 Y58.7992 Z-2.2333 I-0.0125 J0.0
G2 Y58.8208 Z-2.2667 I0.0063 J0.0108
G2 X50.5525 Y58.81 Z-2.3 I0.0063 J-0.0108
G2 X50.5337 Y58.7992 Z-2.3333 I-0.0125 J0.0
G2 Y58.8208 Z-2.3667 I0.0063 J0.0108
G2 X50.5525 Y58.81 Z-2.4 I0.0063 J-0.0108
G2 X50.5337 Y58.7992 Z-2.4333 I-0.0125 J0.0
G2 Y58.8208 Z-2.4667 I0.0063 J0.0108
G2 X50.5525 Y58.81 Z-2.5 I0.0063 J-0.0108
G2 X50.5337 Y58.7992 Z-2.5333 I-0.0125 J0.0
G2 Y58.8208 Z-2.5667 I0.0063 J0.0108
G2 X50.5525 Y58.81 Z-2.6 I0.0063 J-0.0108
G2 X50.5337 Y58.7992 Z-2.6333 I-0.0125 J0.0
G2 Y58.8208 Z-2.6667 I0.0063 J0.0108
G2 X50.5525 Y58.81 Z-2.7 I0.0063 J-0.0108
G2 X50.5337 Y58.7992 Z-2.7333 I-0.0125 J0.0
G2 Y58.8208 Z-2.7667 I0.0063 J0.0108
G2 X50.5525 Y58.81 Z-2.8 I0.0063 J-0.0108
G2 X50.5337 Y58.7992 Z-2.8333 I-0.0125 J0.0
G2 Y58.8208 Z-2.8667 I0.0063 J0.0108
G2 X50.5525 Y58.81 Z-2.9 I0.0063 J-0.0108
G2 X50.5337 Y58.7992 Z-2.9333 I-0.0125 J0.0
G2 Y58.8208 Z-2.9667 I0.0063 J0.0108
G2 X50.5525 Y58.81 Z-3.0 I0.0062 J-0.0108
G2 X50.5337 Y58.7992 Z-3.0333 I-0.0125 J0.0
G2 Y58.8208 Z-3.0667 I0.0063 J0.0108
G2 X50.5525 Y58.81 Z-3.1 I0.0062 J-0.0108
G2 X50.5337 Y58.7992 Z-3.1333 I-0.0125 J0.0
G2 Y58.8208 Z-3.1667 I0.0063 J0.0108
G2 X50.5525 Y58.81 Z-3.2 I0.0062 J-0.0108
G2 X50.5337 Y58.7992 I-0.0125 J0.0
G2 Y58.8208 I0.0063 J0.0108
G2 X50.5525 Y58.81 I0.0062 J-0.0108
G0 Z3.0
G0 X66.2525
G0 Z0.05
G1 F1000.0 Z0.0
G2 F2000.0 X66.2337 Y58.7992 Z-0.0333 I-0.0125 J0.0
G2 Y58.8208 Z-0.0667 I0.0063 J0.0108
G2 X66.2525 Y58.81 Z-0.1 I0.0062 J-0.0108
G2 X66.2337 Y58.7992 Z-0.1333 I-0.0125 J0.0
G2 Y58.8208 Z-0.1667 I0.0063 J0.0108
G2 X66.2525 Y58.81 Z-0.2 I0.0062 J-0.0108
G2 X66.2337 Y58.7992 Z-0.2333 I-0.0125 J0.0
G2 Y58.8208 Z-0.2667 I0.0063 J0.0108
G2 X66.2525 Y58.81 Z-0.3 I0.0062 J-0.0108
G2 X66.2337 Y58.7992 Z-0.3333 I-0.0125 J0.0
G2 Y58.8208 Z-0.3667 I0.0063 J0.0108
G2 X66.2525 Y58.81 Z-0.4 I0.0062 J-0.0108
G2 X66.2337 Y58.7992 Z-0.4333 I-0.0125 J0.0
G2 Y58.8208 Z-0.4667 I0.0063 J0.0108
G2 X66.2525 Y58.81 Z-0.5 I0.0062 J-0.0108
G2 X66.2337 Y58.7992 Z-0.5333 I-0.0125 J0.0
G2 Y58.8208 Z-0.5667 I0.0063 J0.0108
G2 X66.2525 Y58.81 Z-0.6 I0.0062 J-0.0108
G2 X66.2337 Y58.7992 Z-0.6333 I-0.0125 J0.0
G2 Y58.8208 Z-0.6667 I0.0063 J0.0108
G2 X66.2525 Y58.81 Z-0.7 I0.0062 J-0.0108
G2 X66.2337 Y58.7992 Z-0.7333 I-0.0125 J0.0
G2 Y58.8208 Z-0.7667 I0.0063 J0.0108
G2 X66.2525 Y58.81 Z-0.8 I0.0062 J-0.0108
G2 X66.2337 Y58.7992 Z-0.8333 I-0.0125 J0.0
G2 Y58.8208 Z-0.8667 I0.0063 J0.0108
G2 X66.2525 Y58.81 Z-0.9 I0.0062 J-0.0108
G2 X66.2337 Y58.7992 Z-0.9333 I-0.0125 J0.0
G2 Y58.8208 Z-0.9667 I0.0063 J0.0108
G2 X66.2525 Y58.81 Z-1.0 I0.0062 J-0.0108
G2 X66.2337 Y58.7992 Z-1.0333 I-0.0125 J0.0
G2 Y58.8208 Z-1.0667 I0.0063 J0.0108
G2 X66.2525 Y58.81 Z-1.1 I0.0062 J-0.0108
G2 X66.2337 Y58.7992 Z-1.1333 I-0.0125 J0.0
G2 Y58.8208 Z-1.1667 I0.0063 J0.0108
G2 X66.2525 Y58.81 Z-1.2 I0.0062 J-0.0108
G2 X66.2337 Y58.7992 Z-1.2333 I-0.0125 J0.0
G2 Y58.8208 Z-1.2667 I0.0063 J0.0108
G2 X66.2525 Y58.81 Z-1.3 I0.0062 J-0.0108
G2 X66.2337 Y58.7992 Z-1.3333 I-0.0125 J0.0
G2 Y58.8208 Z-1.3667 I0.0063 J0.0108
G2 X66.2525 Y58.81 Z-1.4 I0.0062 J-0.0108
G2 X66.2337 Y58.7992 Z-1.4333 I-0.0125 J0.0
G2 Y58.8208 Z-1.4667 I0.0063 J0.0108
G2 X66.2525 Y58.81 Z-1.5 I0.0062 J-0.0108
G2 X66.2337 Y58.7992 Z-1.5333 I-0.0125 J0.0
G2 Y58.8208 Z-1.5667 I0.0063 J0.0108
G2 X66.2525 Y58.81 Z-1.6 I0.0062 J-0.0108
G2 X66.2337 Y58.7992 Z-1.6333 I-0.0125 J0.0
G2 Y58.8208 Z-1.6667 I0.0063 J0.0108
G2 X66.2525 Y58.81 Z-1.7 I0.0062 J-0.0108
G2 X66.2337 Y58.7992 Z-1.7333 I-0.0125 J0.0
G2 Y58.8208 Z-1.7667 I0.0063 J0.0108
G2 X66.2525 Y58.81 Z-1.8 I0.0062 J-0.0108
G2 X66.2337 Y58.7992 Z-1.8333 I-0.0125 J0.0
G2 Y58.8208 Z-1.8667 I0.0063 J0.0108
G2 X66.2525 Y58.81 Z-1.9 I0.0062 J-0.0108
G2 X66.2337 Y58.7992 Z-1.9333 I-0.0125 J0.0
G2 Y58.8208 Z-1.9667 I0.0063 J0.0108
G2 X66.2525 Y58.81 Z-2.0 I0.0062 J-0.0108
G2 X66.2337 Y58.7992 Z-2.0333 I-0.0125 J0.0
G2 Y58.8208 Z-2.0667 I0.0063 J0.0108
G2 X66.2525 Y58.81 Z-2.1 I0.0062 J-0.0108
G2 X66.2337 Y58.7992 Z-2.1333 I-0.0125 J0.0
G2 Y58.8208 Z-2.1667 I0.0063 J0.0108
G2 X66.2525 Y58.81 Z-2.2 I0.0062 J-0.0108
G2 X66.2337 Y58.7992 Z-2.2333 I-0.0125 J0.0
G2 Y58.8208 Z-2.2667 I0.0063 J0.0108
G2 X66.2525 Y58.81 Z-2.3 I0.0062 J-0.0108
G2 X66.2337 Y58.7992 Z-2.3333 I-0.0125 J0.0
G2 Y58.8208 Z-2.3667 I0.0063 J0.0108
G2 X66.2525 Y58.81 Z-2.4 I0.0062 J-0.0108
G2 X66.2337 Y58.7992 Z-2.4333 I-0.0125 J0.0
G2 Y58.8208 Z-2.4667 I0.0063 J0.0108
G2 X66.2525 Y58.81 Z-2.5 I0.0062 J-0.0108
G2 X66.2337 Y58.7992 Z-2.5333 I-0.0125 J0.0
G2 Y58.8208 Z-2.5667 I0.0063 J0.0108
G2 X66.2525 Y58.81 Z-2.6 I0.0062 J-0.0108
G2 X66.2337 Y58.7992 Z-2.6333 I-0.0125 J0.0
G2 Y58.8208 Z-2.6667 I0.0063 J0.0108
G2 X66.2525 Y58.81 Z-2.7 I0.0062 J-0.0108
G2 X66.2337 Y58.7992 Z-2.7333 I-0.0125 J0.0
G2 Y58.8208 Z-2.7667 I0.0063 J0.0108
G2 X66.2525 Y58.81 Z-2.8 I0.0062 J-0.0108
G2 X66.2337 Y58.7992 Z-2.8333 I-0.0125 J0.0
G2 Y58.8208 Z-2.8667 I0.0063 J0.0108
G2 X66.2525 Y58.81 Z-2.9 I0.0062 J-0.0108
G2 X66.2337 Y58.7992 Z-2.9333 I-0.0125 J0.0
G2 Y58.8208 Z-2.9667 I0.0063 J0.0108
G2 X66.2525 Y58.81 Z-3.0 I0.0062 J-0.0108
G2 X66.2337 Y58.7992 Z-3.0333 I-0.0125 J0.0
G2 Y58.8208 Z-3.0667 I0.0063 J0.0108
G2 X66.2525 Y58.81 Z-3.1 I0.0062 J-0.0108
G2 X66.2337 Y58.7992 Z-3.1333 I-0.0125 J0.0
G2 Y58.8208 Z-3.1667 I0.0063 J0.0108
G2 X66.2525 Y58.81 Z-3.2 I0.0062 J-0.0108
G2 X66.2337 Y58.7992 I-0.0125 J0.0
G2 Y58.8208 I0.0063 J0.0108
G2 X66.2525 Y58.81 I0.0062 J-0.0108
G0 Z3.0
G0 X81.8525
G0 Z0.05
G1 F1000.0 Z0.0
G2 F2000.0 X81.8337 Y58.7992 Z-0.0333 I-0.0125 J0.0
G2 Y58.8208 Z-0.0667 I0.0063 J0.0108
G2 X81.8525 Y58.81 Z-0.1 I0.0062 J-0.0108
G2 X81.8337 Y58.7992 Z-0.1333 I-0.0125 J0.0
G2 Y58.8208 Z-0.1667 I0.0063 J0.0108
G2 X81.8525 Y58.81 Z-0.2 I0.0062 J-0.0108
G2 X81.8337 Y58.7992 Z-0.2333 I-0.0125 J0.0
G2 Y58.8208 Z-0.2667 I0.0063 J0.0108
G2 X81.8525 Y58.81 Z-0.3 I0.0062 J-0.0108
G2 X81.8337 Y58.7992 Z-0.3333 I-0.0125 J0.0
G2 Y58.8208 Z-0.3667 I0.0063 J0.0108
G2 X81.8525 Y58.81 Z-0.4 I0.0062 J-0.0108
G2 X81.8337 Y58.7992 Z-0.4333 I-0.0125 J0.0
G2 Y58.8208 Z-0.4667 I0.0063 J0.0108
G2 X81.8525 Y58.81 Z-0.5 I0.0062 J-0.0108
G2 X81.8337 Y58.7992 Z-0.5333 I-0.0125 J0.0
G2 Y58.8208 Z-0.5667 I0.0063 J0.0108
G2 X81.8525 Y58.81 Z-0.6 I0.0062 J-0.0108
G2 X81.8337 Y58.7992 Z-0.6333 I-0.0125 J0.0
G2 Y58.8208 Z-0.6667 I0.0063 J0.0108
G2 X81.8525 Y58.81 Z-0.7 I0.0062 J-0.0108
G2 X81.8337 Y58.7992 Z-0.7333 I-0.0125 J0.0
G2 Y58.8208 Z-0.7667 I0.0063 J0.0108
G2 X81.8525 Y58.81 Z-0.8 I0.0062 J-0.0108
G2 X81.8337 Y58.7992 Z-0.8333 I-0.0125 J0.0
G2 Y58.8208 Z-0.8667 I0.0063 J0.0108
G2 X81.8525 Y58.81 Z-0.9 I0.0062 J-0.0108
G2 X81.8337 Y58.7992 Z-0.9333 I-0.0125 J0.0
G2 Y58.8208 Z-0.9667 I0.0063 J0.0108
G2 X81.8525 Y58.81 Z-1.0 I0.0062 J-0.0108
G2 X81.8337 Y58.7992 Z-1.0333 I-0.0125 J0.0
G2 Y58.8208 Z-1.0667 I0.0063 J0.0108
G2 X81.8525 Y58.81 Z-1.1 I0.0062 J-0.0108
G2 X81.8337 Y58.7992 Z-1.1333 I-0.0125 J0.0
G2 Y58.8208 Z-1.1667 I0.0063 J0.0108
G2 X81.8525 Y58.81 Z-1.2 I0.0062 J-0.0108
G2 X81.8337 Y58.7992 Z-1.2333 I-0.0125 J0.0
G2 Y58.8208 Z-1.2667 I0.0063 J0.0108
G2 X81.8525 Y58.81 Z-1.3 I0.0062 J-0.0108
G2 X81.8337 Y58.7992 Z-1.3333 I-0.0125 J0.0
G2 Y58.8208 Z-1.3667 I0.0063 J0.0108
G2 X81.8525 Y58.81 Z-1.4 I0.0062 J-0.0108
G2 X81.8337 Y58.7992 Z-1.4333 I-0.0125 J0.0
G2 Y58.8208 Z-1.4667 I0.0063 J0.0108
G2 X81.8525 Y58.81 Z-1.5 I0.0062 J-0.0108
G2 X81.8337 Y58.7992 Z-1.5333 I-0.0125 J0.0
G2 Y58.8208 Z-1.5667 I0.0063 J0.0108
G2 X81.8525 Y58.81 Z-1.6 I0.0062 J-0.0108
G2 X81.8337 Y58.7992 Z-1.6333 I-0.0125 J0.0
G2 Y58.8208 Z-1.6667 I0.0063 J0.0108
G2 X81.8525 Y58.81 Z-1.7 I0.0062 J-0.0108
G2 X81.8337 Y58.7992 Z-1.7333 I-0.0125 J0.0
G2 Y58.8208 Z-1.7667 I0.0063 J0.0108
G2 X81.8525 Y58.81 Z-1.8 I0.0062 J-0.0108
G2 X81.8337 Y58.7992 Z-1.8333 I-0.0125 J0.0
G2 Y58.8208 Z-1.8667 I0.0063 J0.0108
G2 X81.8525 Y58.81 Z-1.9 I0.0062 J-0.0108
G2 X81.8337 Y58.7992 Z-1.9333 I-0.0125 J0.0
G2 Y58.8208 Z-1.9667 I0.0063 J0.0108
G2 X81.8525 Y58.81 Z-2.0 I0.0062 J-0.0108
G2 X81.8337 Y58.7992 Z-2.0333 I-0.0125 J0.0
G2 Y58.8208 Z-2.0667 I0.0063 J0.0108
G2 X81.8525 Y58.81 Z-2.1 I0.0062 J-0.0108
G2 X81.8337 Y58.7992 Z-2.1333 I-0.0125 J0.0
G2 Y58.8208 Z-2.1667 I0.0063 J0.0108
G2 X81.8525 Y58.81 Z-2.2 I0.0062 J-0.0108
G2 X81.8337 Y58.7992 Z-2.2333 I-0.0125 J0.0
G2 Y58.8208 Z-2.2667 I0.0063 J0.0108
G2 X81.8525 Y58.81 Z-2.3 I0.0062 J-0.0108
G2 X81.8337 Y58.7992 Z-2.3333 I-0.0125 J0.0
G2 Y58.8208 Z-2.3667 I0.0063 J0.0108
G2 X81.8525 Y58.81 Z-2.4 I0.0062 J-0.0108
G2 X81.8337 Y58.7992 Z-2.4333 I-0.0125 J0.0
G2 Y58.8208 Z-2.4667 I0.0063 J0.0108
G2 X81.8525 Y58.81 Z-2.5 I0.0062 J-0.0108
G2 X81.8337 Y58.7992 Z-2.5333 I-0.0125 J0.0
G2 Y58.8208 Z-2.5667 I0.0063 J0.0108
G2 X81.8525 Y58.81 Z-2.6 I0.0062 J-0.0108
G2 X81.8337 Y58.7992 Z-2.6333 I-0.0125 J0.0
G2 Y58.8208 Z-2.6667 I0.0063 J0.0108
G2 X81.8525 Y58.81 Z-2.7 I0.0062 J-0.0108
G2 X81.8337 Y58.7992 Z-2.7333 I-0.0125 J0.0
G2 Y58.8208 Z-2.7667 I0.0063 J0.0108
G2 X81.8525 Y58.81 Z-2.8 I0.0062 J-0.0108
G2 X81.8337 Y58.7992 Z-2.8333 I-0.0125 J0.0
G2 Y58.8208 Z-2.8667 I0.0063 J0.0108
G2 X81.8525 Y58.81 Z-2.9 I0.0062 J-0.0108
G2 X81.8337 Y58.7992 Z-2.9333 I-0.0125 J0.0
G2 Y58.8208 Z-2.9667 I0.0063 J0.0108
G2 X81.8525 Y58.81 Z-3.0 I0.0062 J-0.0108
G2 X81.8337 Y58.7992 Z-3.0333 I-0.0125 J0.0
G2 Y58.8208 Z-3.0667 I0.0063 J0.0108
G2 X81.8525 Y58.81 Z-3.1 I0.0062 J-0.0108
G2 X81.8337 Y58.7992 Z-3.1333 I-0.0125 J0.0
G2 Y58.8208 Z-3.1667 I0.0063 J0.0108
G2 X81.8525 Y58.81 Z-3.2 I0.0062 J-0.0108
G2 X81.8337 Y58.7992 I-0.0125 J0.0
G2 Y58.8208 I0.0063 J0.0108
G2 X81.8525 Y58.81 I0.0062 J-0.0108
G0 Z3.0
G0 X97.5525
G0 Z0.05
G1 F1000.0 Z0.0
G2 F2000.0 X97.5337 Y58.7992 Z-0.0333 I-0.0125 J0.0
G2 Y58.8208 Z-0.0667 I0.0063 J0.0108
G2 X97.5525 Y58.81 Z-0.1 I0.0062 J-0.0108
G2 X97.5337 Y58.7992 Z-0.1333 I-0.0125 J0.0
G2 Y58.8208 Z-0.1667 I0.0063 J0.0108
G2 X97.5525 Y58.81 Z-0.2 I0.0062 J-0.0108
G2 X97.5337 Y58.7992 Z-0.2333 I-0.0125 J0.0
G2 Y58.8208 Z-0.2667 I0.0063 J0.0108
G2 X97.5525 Y58.81 Z-0.3 I0.0062 J-0.0108
G2 X97.5337 Y58.7992 Z-0.3333 I-0.0125 J0.0
G2 Y58.8208 Z-0.3667 I0.0063 J0.0108
G2 X97.5525 Y58.81 Z-0.4 I0.0062 J-0.0108
G2 X97.5337 Y58.7992 Z-0.4333 I-0.0125 J0.0
G2 Y58.8208 Z-0.4667 I0.0063 J0.0108
G2 X97.5525 Y58.81 Z-0.5 I0.0062 J-0.0108
G2 X97.5337 Y58.7992 Z-0.5333 I-0.0125 J0.0
G2 Y58.8208 Z-0.5667 I0.0063 J0.0108
G2 X97.5525 Y58.81 Z-0.6 I0.0062 J-0.0108
G2 X97.5337 Y58.7992 Z-0.6333 I-0.0125 J0.0
G2 Y58.8208 Z-0.6667 I0.0063 J0.0108
G2 X97.5525 Y58.81 Z-0.7 I0.0062 J-0.0108
G2 X97.5337 Y58.7992 Z-0.7333 I-0.0125 J0.0
G2 Y58.8208 Z-0.7667 I0.0063 J0.0108
G2 X97.5525 Y58.81 Z-0.8 I0.0062 J-0.0108
G2 X97.5337 Y58.7992 Z-0.8333 I-0.0125 J0.0
G2 Y58.8208 Z-0.8667 I0.0063 J0.0108
G2 X97.5525 Y58.81 Z-0.9 I0.0062 J-0.0108
G2 X97.5337 Y58.7992 Z-0.9333 I-0.0125 J0.0
G2 Y58.8208 Z-0.9667 I0.0063 J0.0108
G2 X97.5525 Y58.81 Z-1.0 I0.0062 J-0.0108
G2 X97.5337 Y58.7992 Z-1.0333 I-0.0125 J0.0
G2 Y58.8208 Z-1.0667 I0.0063 J0.0108
G2 X97.5525 Y58.81 Z-1.1 I0.0062 J-0.0108
G2 X97.5337 Y58.7992 Z-1.1333 I-0.0125 J0.0
G2 Y58.8208 Z-1.1667 I0.0063 J0.0108
G2 X97.5525 Y58.81 Z-1.2 I0.0062 J-0.0108
G2 X97.5337 Y58.7992 Z-1.2333 I-0.0125 J0.0
G2 Y58.8208 Z-1.2667 I0.0063 J0.0108
G2 X97.5525 Y58.81 Z-1.3 I0.0062 J-0.0108
G2 X97.5337 Y58.7992 Z-1.3333 I-0.0125 J0.0
G2 Y58.8208 Z-1.3667 I0.0063 J0.0108
G2 X97.5525 Y58.81 Z-1.4 I0.0062 J-0.0108
G2 X97.5337 Y58.7992 Z-1.4333 I-0.0125 J0.0
G2 Y58.8208 Z-1.4667 I0.0063 J0.0108
G2 X97.5525 Y58.81 Z-1.5 I0.0062 J-0.0108
G2 X97.5337 Y58.7992 Z-1.5333 I-0.0125 J0.0
G2 Y58.8208 Z-1.5667 I0.0063 J0.0108
G2 X97.5525 Y58.81 Z-1.6 I0.0062 J-0.0108
G2 X97.5337 Y58.7992 Z-1.6333 I-0.0125 J0.0
G2 Y58.8208 Z-1.6667 I0.0063 J0.0108
G2 X97.5525 Y58.81 Z-1.7 I0.0062 J-0.0108
G2 X97.5337 Y58.7992 Z-1.7333 I-0.0125 J0.0
G2 Y58.8208 Z-1.7667 I0.0063 J0.0108
G2 X97.5525 Y58.81 Z-1.8 I0.0062 J-0.0108
G2 X97.5337 Y58.7992 Z-1.8333 I-0.0125 J0.0
G2 Y58.8208 Z-1.8667 I0.0063 J0.0108
G2 X97.5525 Y58.81 Z-1.9 I0.0062 J-0.0108
G2 X97.5337 Y58.7992 Z-1.9333 I-0.0125 J0.0
G2 Y58.8208 Z-1.9667 I0.0063 J0.0108
G2 X97.5525 Y58.81 Z-2.0 I0.0062 J-0.0108
G2 X97.5337 Y58.7992 Z-2.0333 I-0.0125 J0.0
G2 Y58.8208 Z-2.0667 I0.0063 J0.0108
G2 X97.5525 Y58.81 Z-2.1 I0.0062 J-0.0108
G2 X97.5337 Y58.7992 Z-2.1333 I-0.0125 J0.0
G2 Y58.8208 Z-2.1667 I0.0063 J0.0108
G2 X97.5525 Y58.81 Z-2.2 I0.0062 J-0.0108
G2 X97.5337 Y58.7992 Z-2.2333 I-0.0125 J0.0
G2 Y58.8208 Z-2.2667 I0.0063 J0.0108
G2 X97.5525 Y58.81 Z-2.3 I0.0062 J-0.0108
G2 X97.5337 Y58.7992 Z-2.3333 I-0.0125 J0.0
G2 Y58.8208 Z-2.3667 I0.0063 J0.0108
G2 X97.5525 Y58.81 Z-2.4 I0.0062 J-0.0108
G2 X97.5337 Y58.7992 Z-2.4333 I-0.0125 J0.0
G2 Y58.8208 Z-2.4667 I0.0063 J0.0108
G2 X97.5525 Y58.81 Z-2.5 I0.0062 J-0.0108
G2 X97.5337 Y58.7992 Z-2.5333 I-0.0125 J0.0
G2 Y58.8208 Z-2.5667 I0.0063 J0.0108
G2 X97.5525 Y58.81 Z-2.6 I0.0062 J-0.0108
G2 X97.5337 Y58.7992 Z-2.6333 I-0.0125 J0.0
G2 Y58.8208 Z-2.6667 I0.0063 J0.0108
G2 X97.5525 Y58.81 Z-2.7 I0.0062 J-0.0108
G2 X97.5337 Y58.7992 Z-2.7333 I-0.0125 J0.0
G2 Y58.8208 Z-2.7667 I0.0063 J0.0108
G2 X97.5525 Y58.81 Z-2.8 I0.0062 J-0.0108
G2 X97.5337 Y58.7992 Z-2.8333 I-0.0125 J0.0
G2 Y58.8208 Z-2.8667 I0.0063 J0.0108
G2 X97.5525 Y58.81 Z-2.9 I0.0062 J-0.0108
G2 X97.5337 Y58.7992 Z-2.9333 I-0.0125 J0.0
G2 Y58.8208 Z-2.9667 I0.0063 J0.0108
G2 X97.5525 Y58.81 Z-3.0 I0.0062 J-0.0108
G2 X97.5337 Y58.7992 Z-3.0333 I-0.0125 J0.0
G2 Y58.8208 Z-3.0667 I0.0063 J0.0108
G2 X97.5525 Y58.81 Z-3.1 I0.0062 J-0.0108
G2 X97.5337 Y58.7992 Z-3.1333 I-0.0125 J0.0
G2 Y58.8208 Z-3.1667 I0.0063 J0.0108
G2 X97.5525 Y58.81 Z-3.2 I0.0062 J-0.0108
G2 X97.5337 Y58.7992 I-0.0125 J0.0
G2 Y58.8208 I0.0063 J0.0108
G2 X97.5525 Y58.81 I0.0062 J-0.0108
G0 Z3.0
G0 X113.2025
G0 Z0.05
G1 F1000.0 Z0.0
G2 F2000.0 X113.1838 Y58.7992 Z-0.0333 I-0.0125 J0.0
G2 Y58.8208 Z-0.0667 I0.0063 J0.0108
G2 X113.2025 Y58.81 Z-0.1 I0.0062 J-0.0108
G2 X113.1838 Y58.7992 Z-0.1333 I-0.0125 J0.0
G2 Y58.8208 Z-0.1667 I0.0063 J0.0108
G2 X113.2025 Y58.81 Z-0.2 I0.0062 J-0.0108
G2 X113.1838 Y58.7992 Z-0.2333 I-0.0125 J0.0
G2 Y58.8208 Z-0.2667 I0.0063 J0.0108
G2 X113.2025 Y58.81 Z-0.3 I0.0062 J-0.0108
G2 X113.1838 Y58.7992 Z-0.3333 I-0.0125 J0.0
G2 Y58.8208 Z-0.3667 I0.0063 J0.0108
G2 X113.2025 Y58.81 Z-0.4 I0.0062 J-0.0108
G2 X113.1838 Y58.7992 Z-0.4333 I-0.0125 J0.0
G2 Y58.8208 Z-0.4667 I0.0063 J0.0108
G2 X113.2025 Y58.81 Z-0.5 I0.0062 J-0.0108
G2 X113.1838 Y58.7992 Z-0.5333 I-0.0125 J0.0
G2 Y58.8208 Z-0.5667 I0.0063 J0.0108
G2 X113.2025 Y58.81 Z-0.6 I0.0062 J-0.0108
G2 X113.1838 Y58.7992 Z-0.6333 I-0.0125 J0.0
G2 Y58.8208 Z-0.6667 I0.0063 J0.0108
G2 X113.2025 Y58.81 Z-0.7 I0.0062 J-0.0108
G2 X113.1838 Y58.7992 Z-0.7333 I-0.0125 J0.0
G2 Y58.8208 Z-0.7667 I0.0063 J0.0108
G2 X113.2025 Y58.81 Z-0.8 I0.0062 J-0.0108
G2 X113.1838 Y58.7992 Z-0.8333 I-0.0125 J0.0
G2 Y58.8208 Z-0.8667 I0.0063 J0.0108
G2 X113.2025 Y58.81 Z-0.9 I0.0062 J-0.0108
G2 X113.1838 Y58.7992 Z-0.9333 I-0.0125 J0.0
G2 Y58.8208 Z-0.9667 I0.0063 J0.0108
G2 X113.2025 Y58.81 Z-1.0 I0.0062 J-0.0108
G2 X113.1838 Y58.7992 Z-1.0333 I-0.0125 J0.0
G2 Y58.8208 Z-1.0667 I0.0063 J0.0108
G2 X113.2025 Y58.81 Z-1.1 I0.0062 J-0.0108
G2 X113.1838 Y58.7992 Z-1.1333 I-0.0125 J0.0
G2 Y58.8208 Z-1.1667 I0.0063 J0.0108
G2 X113.2025 Y58.81 Z-1.2 I0.0062 J-0.0108
G2 X113.1838 Y58.7992 Z-1.2333 I-0.0125 J0.0
G2 Y58.8208 Z-1.2667 I0.0063 J0.0108
G2 X113.2025 Y58.81 Z-1.3 I0.0062 J-0.0108
G2 X113.1838 Y58.7992 Z-1.3333 I-0.0125 J0.0
G2 Y58.8208 Z-1.3667 I0.0063 J0.0108
G2 X113.2025 Y58.81 Z-1.4 I0.0062 J-0.0108
G2 X113.1838 Y58.7992 Z-1.4333 I-0.0125 J0.0
G2 Y58.8208 Z-1.4667 I0.0063 J0.0108
G2 X113.2025 Y58.81 Z-1.5 I0.0062 J-0.0108
G2 X113.1838 Y58.7992 Z-1.5333 I-0.0125 J0.0
G2 Y58.8208 Z-1.5667 I0.0063 J0.0108
G2 X113.2025 Y58.81 Z-1.6 I0.0062 J-0.0108
G2 X113.1838 Y58.7992 Z-1.6333 I-0.0125 J0.0
G2 Y58.8208 Z-1.6667 I0.0063 J0.0108
G2 X113.2025 Y58.81 Z-1.7 I0.0062 J-0.0108
G2 X113.1838 Y58.7992 Z-1.7333 I-0.0125 J0.0
G2 Y58.8208 Z-1.7667 I0.0063 J0.0108
G2 X113.2025 Y58.81 Z-1.8 I0.0062 J-0.0108
G2 X113.1838 Y58.7992 Z-1.8333 I-0.0125 J0.0
G2 Y58.8208 Z-1.8667 I0.0063 J0.0108
G2 X113.2025 Y58.81 Z-1.9 I0.0062 J-0.0108
G2 X113.1838 Y58.7992 Z-1.9333 I-0.0125 J0.0
G2 Y58.8208 Z-1.9667 I0.0063 J0.0108
G2 X113.2025 Y58.81 Z-2.0 I0.0062 J-0.0108
G2 X113.1838 Y58.7992 Z-2.0333 I-0.0125 J0.0
G2 Y58.8208 Z-2.0667 I0.0063 J0.0108
G2 X113.2025 Y58.81 Z-2.1 I0.0062 J-0.0108
G2 X113.1838 Y58.7992 Z-2.1333 I-0.0125 J0.0
G2 Y58.8208 Z-2.1667 I0.0063 J0.0108
G2 X113.2025 Y58.81 Z-2.2 I0.0062 J-0.0108
G2 X113.1838 Y58.7992 Z-2.2333 I-0.0125 J0.0
G2 Y58.8208 Z-2.2667 I0.0063 J0.0108
G2 X113.2025 Y58.81 Z-2.3 I0.0062 J-0.0108
G2 X113.1838 Y58.7992 Z-2.3333 I-0.0125 J0.0
G2 Y58.8208 Z-2.3667 I0.0063 J0.0108
G2 X113.2025 Y58.81 Z-2.4 I0.0062 J-0.0108
G2 X113.1838 Y58.7992 Z-2.4333 I-0.0125 J0.0
G2 Y58.8208 Z-2.4667 I0.0063 J0.0108
G2 X113.2025 Y58.81 Z-2.5 I0.0062 J-0.0108
G2 X113.1838 Y58.7992 Z-2.5333 I-0.0125 J0.0
G2 Y58.8208 Z-2.5667 I0.0063 J0.0108
G2 X113.2025 Y58.81 Z-2.6 I0.0062 J-0.0108
G2 X113.1838 Y58.7992 Z-2.6333 I-0.0125 J0.0
G2 Y58.8208 Z-2.6667 I0.0063 J0.0108
G2 X113.2025 Y58.81 Z-2.7 I0.0062 J-0.0108
G2 X113.1838 Y58.7992 Z-2.7333 I-0.0125 J0.0
G2 Y58.8208 Z-2.7667 I0.0063 J0.0108
G2 X113.2025 Y58.81 Z-2.8 I0.0062 J-0.0108
G2 X113.1838 Y58.7992 Z-2.8333 I-0.0125 J0.0
G2 Y58.8208 Z-2.8667 I0.0063 J0.0108
G2 X113.2025 Y58.81 Z-2.9 I0.0062 J-0.0108
G2 X113.1838 Y58.7992 Z-2.9333 I-0.0125 J0.0
G2 Y58.8208 Z-2.9667 I0.0063 J0.0108
G2 X113.2025 Y58.81 Z-3.0 I0.0062 J-0.0108
G2 X113.1838 Y58.7992 Z-3.0333 I-0.0125 J0.0
G2 Y58.8208 Z-3.0667 I0.0063 J0.0108
G2 X113.2025 Y58.81 Z-3.1 I0.0062 J-0.0108
G2 X113.1838 Y58.7992 Z-3.1333 I-0.0125 J0.0
G2 Y58.8208 Z-3.1667 I0.0063 J0.0108
G2 X113.2025 Y58.81 Z-3.2 I0.0062 J-0.0108
G2 X113.1838 Y58.7992 I-0.0125 J0.0
G2 Y58.8208 I0.0063 J0.0108
G2 X113.2025 Y58.81 I0.0062 J-0.0108
G0 Z3.0
G0 X128.8525
G0 Z0.05
G1 F1000.0 Z0.0
G2 F2000.0 X128.8338 Y58.7992 Z-0.0333 I-0.0125 J0.0
G2 Y58.8208 Z-0.0667 I0.0062 J0.0108
G2 X128.8525 Y58.81 Z-0.1 I0.0062 J-0.0108
G2 X128.8338 Y58.7992 Z-0.1333 I-0.0125 J0.0
G2 Y58.8208 Z-0.1667 I0.0062 J0.0108
G2 X128.8525 Y58.81 Z-0.2 I0.0062 J-0.0108
G2 X128.8338 Y58.7992 Z-0.2333 I-0.0125 J0.0
G2 Y58.8208 Z-0.2667 I0.0062 J0.0108
G2 X128.8525 Y58.81 Z-0.3 I0.0062 J-0.0108
G2 X128.8338 Y58.7992 Z-0.3333 I-0.0125 J0.0
G2 Y58.8208 Z-0.3667 I0.0062 J0.0108
G2 X128.8525 Y58.81 Z-0.4 I0.0062 J-0.0108
G2 X128.8338 Y58.7992 Z-0.4333 I-0.0125 J0.0
G2 Y58.8208 Z-0.4667 I0.0062 J0.0108
G2 X128.8525 Y58.81 Z-0.5 I0.0062 J-0.0108
G2 X128.8338 Y58.7992 Z-0.5333 I-0.0125 J0.0
G2 Y58.8208 Z-0.5667 I0.0062 J0.0108
G2 X128.8525 Y58.81 Z-0.6 I0.0062 J-0.0108
G2 X128.8338 Y58.7992 Z-0.6333 I-0.0125 J0.0
G2 Y58.8208 Z-0.6667 I0.0062 J0.0108
G2 X128.8525 Y58.81 Z-0.7 I0.0062 J-0.0108
G2 X128.8338 Y58.7992 Z-0.7333 I-0.0125 J0.0
G2 Y58.8208 Z-0.7667 I0.0062 J0.0108
G2 X128.8525 Y58.81 Z-0.8 I0.0062 J-0.0108
G2 X128.8338 Y58.7992 Z-0.8333 I-0.0125 J0.0
G2 Y58.8208 Z-0.8667 I0.0062 J0.0108
G2 X128.8525 Y58.81 Z-0.9 I0.0062 J-0.0108
G2 X128.8338 Y58.7992 Z-0.9333 I-0.0125 J0.0
G2 Y58.8208 Z-0.9667 I0.0062 J0.0108
G2 X128.8525 Y58.81 Z-1.0 I0.0062 J-0.0108
G2 X128.8338 Y58.7992 Z-1.0333 I-0.0125 J0.0
G2 Y58.8208 Z-1.0667 I0.0062 J0.0108
G2 X128.8525 Y58.81 Z-1.1 I0.0062 J-0.0108
G2 X128.8338 Y58.7992 Z-1.1333 I-0.0125 J0.0
G2 Y58.8208 Z-1.1667 I0.0062 J0.0108
G2 X128.8525 Y58.81 Z-1.2 I0.0062 J-0.0108
G2 X128.8338 Y58.7992 Z-1.2333 I-0.0125 J0.0
G2 Y58.8208 Z-1.2667 I0.0062 J0.0108
G2 X128.8525 Y58.81 Z-1.3 I0.0062 J-0.0108
G2 X128.8338 Y58.7992 Z-1.3333 I-0.0125 J0.0
G2 Y58.8208 Z-1.3667 I0.0062 J0.0108
G2 X128.8525 Y58.81 Z-1.4 I0.0062 J-0.0108
G2 X128.8338 Y58.7992 Z-1.4333 I-0.0125 J0.0
G2 Y58.8208 Z-1.4667 I0.0062 J0.0108
G2 X128.8525 Y58.81 Z-1.5 I0.0062 J-0.0108
G2 X128.8338 Y58.7992 Z-1.5333 I-0.0125 J0.0
G2 Y58.8208 Z-1.5667 I0.0062 J0.0108
G2 X128.8525 Y58.81 Z-1.6 I0.0062 J-0.0108
G2 X128.8338 Y58.7992 Z-1.6333 I-0.0125 J0.0
G2 Y58.8208 Z-1.6667 I0.0062 J0.0108
G2 X128.8525 Y58.81 Z-1.7 I0.0062 J-0.0108
G2 X128.8338 Y58.7992 Z-1.7333 I-0.0125 J0.0
G2 Y58.8208 Z-1.7667 I0.0062 J0.0108
G2 X128.8525 Y58.81 Z-1.8 I0.0062 J-0.0108
G2 X128.8338 Y58.7992 Z-1.8333 I-0.0125 J0.0
G2 Y58.8208 Z-1.8667 I0.0062 J0.0108
G2 X128.8525 Y58.81 Z-1.9 I0.0062 J-0.0108
G2 X128.8338 Y58.7992 Z-1.9333 I-0.0125 J0.0
G2 Y58.8208 Z-1.9667 I0.0062 J0.0108
G2 X128.8525 Y58.81 Z-2.0 I0.0062 J-0.0108
G2 X128.8338 Y58.7992 Z-2.0333 I-0.0125 J0.0
G2 Y58.8208 Z-2.0667 I0.0062 J0.0108
G2 X128.8525 Y58.81 Z-2.1 I0.0062 J-0.0108
G2 X128.8338 Y58.7992 Z-2.1333 I-0.0125 J0.0
G2 Y58.8208 Z-2.1667 I0.0062 J0.0108
G2 X128.8525 Y58.81 Z-2.2 I0.0062 J-0.0108
G2 X128.8338 Y58.7992 Z-2.2333 I-0.0125 J0.0
G2 Y58.8208 Z-2.2667 I0.0062 J0.0108
G2 X128.8525 Y58.81 Z-2.3 I0.0062 J-0.0108
G2 X128.8338 Y58.7992 Z-2.3333 I-0.0125 J0.0
G2 Y58.8208 Z-2.3667 I0.0062 J0.0108
G2 X128.8525 Y58.81 Z-2.4 I0.0062 J-0.0108
G2 X128.8338 Y58.7992 Z-2.4333 I-0.0125 J0.0
G2 Y58.8208 Z-2.4667 I0.0062 J0.0108
G2 X128.8525 Y58.81 Z-2.5 I0.0062 J-0.0108
G2 X128.8338 Y58.7992 Z-2.5333 I-0.0125 J0.0
G2 Y58.8208 Z-2.5667 I0.0062 J0.0108
G2 X128.8525 Y58.81 Z-2.6 I0.0062 J-0.0108
G2 X128.8338 Y58.7992 Z-2.6333 I-0.0125 J0.0
G2 Y58.8208 Z-2.6667 I0.0062 J0.0108
G2 X128.8525 Y58.81 Z-2.7 I0.0062 J-0.0108
G2 X128.8338 Y58.7992 Z-2.7333 I-0.0125 J0.0
G2 Y58.8208 Z-2.7667 I0.0062 J0.0108
G2 X128.8525 Y58.81 Z-2.8 I0.0062 J-0.0108
G2 X128.8338 Y58.7992 Z-2.8333 I-0.0125 J0.0
G2 Y58.8208 Z-2.8667 I0.0062 J0.0108
G2 X128.8525 Y58.81 Z-2.9 I0.0062 J-0.0108
G2 X128.8338 Y58.7992 Z-2.9333 I-0.0125 J0.0
G2 Y58.8208 Z-2.9667 I0.0062 J0.0108
G2 X128.8525 Y58.81 Z-3.0 I0.0062 J-0.0108
G2 X128.8338 Y58.7992 Z-3.0333 I-0.0125 J0.0
G2 Y58.8208 Z-3.0667 I0.0062 J0.0108
G2 X128.8525 Y58.81 Z-3.1 I0.0062 J-0.0108
G2 X128.8338 Y58.7992 Z-3.1333 I-0.0125 J0.0
G2 Y58.8208 Z-3.1667 I0.0062 J0.0108
G2 X128.8525 Y58.81 Z-3.2 I0.0062 J-0.0108
G2 X128.8338 Y58.7992 I-0.0125 J0.0
G2 Y58.8208 I0.0062 J0.0108
G2 X128.8525 Y58.81 I0.0062 J-0.0108
G0 Z3.0
G0 X144.5525
G0 Z0.05
G1 F1000.0 Z0.0
G2 F2000.0 X144.5338 Y58.7992 Z-0.0333 I-0.0125 J0.0
G2 Y58.8208 Z-0.0667 I0.0062 J0.0108
G2 X144.5525 Y58.81 Z-0.1 I0.0062 J-0.0108
G2 X144.5338 Y58.7992 Z-0.1333 I-0.0125 J0.0
G2 Y58.8208 Z-0.1667 I0.0062 J0.0108
G2 X144.5525 Y58.81 Z-0.2 I0.0062 J-0.0108
G2 X144.5338 Y58.7992 Z-0.2333 I-0.0125 J0.0
G2 Y58.8208 Z-0.2667 I0.0062 J0.0108
G2 X144.5525 Y58.81 Z-0.3 I0.0062 J-0.0108
G2 X144.5338 Y58.7992 Z-0.3333 I-0.0125 J0.0
G2 Y58.8208 Z-0.3667 I0.0062 J0.0108
G2 X144.5525 Y58.81 Z-0.4 I0.0062 J-0.0108
G2 X144.5338 Y58.7992 Z-0.4333 I-0.0125 J0.0
G2 Y58.8208 Z-0.4667 I0.0062 J0.0108
G2 X144.5525 Y58.81 Z-0.5 I0.0062 J-0.0108
G2 X144.5338 Y58.7992 Z-0.5333 I-0.0125 J0.0
G2 Y58.8208 Z-0.5667 I0.0062 J0.0108
G2 X144.5525 Y58.81 Z-0.6 I0.0062 J-0.0108
G2 X144.5338 Y58.7992 Z-0.6333 I-0.0125 J0.0
G2 Y58.8208 Z-0.6667 I0.0062 J0.0108
G2 X144.5525 Y58.81 Z-0.7 I0.0062 J-0.0108
G2 X144.5338 Y58.7992 Z-0.7333 I-0.0125 J0.0
G2 Y58.8208 Z-0.7667 I0.0062 J0.0108
G2 X144.5525 Y58.81 Z-0.8 I0.0062 J-0.0108
G2 X144.5338 Y58.7992 Z-0.8333 I-0.0125 J0.0
G2 Y58.8208 Z-0.8667 I0.0062 J0.0108
G2 X144.5525 Y58.81 Z-0.9 I0.0062 J-0.0108
G2 X144.5338 Y58.7992 Z-0.9333 I-0.0125 J0.0
G2 Y58.8208 Z-0.9667 I0.0062 J0.0108
G2 X144.5525 Y58.81 Z-1.0 I0.0062 J-0.0108
G2 X144.5338 Y58.7992 Z-1.0333 I-0.0125 J0.0
G2 Y58.8208 Z-1.0667 I0.0062 J0.0108
G2 X144.5525 Y58.81 Z-1.1 I0.0062 J-0.0108
G2 X144.5338 Y58.7992 Z-1.1333 I-0.0125 J0.0
G2 Y58.8208 Z-1.1667 I0.0062 J0.0108
G2 X144.5525 Y58.81 Z-1.2 I0.0062 J-0.0108
G2 X144.5338 Y58.7992 Z-1.2333 I-0.0125 J0.0
G2 Y58.8208 Z-1.2667 I0.0062 J0.0108
G2 X144.5525 Y58.81 Z-1.3 I0.0062 J-0.0108
G2 X144.5338 Y58.7992 Z-1.3333 I-0.0125 J0.0
G2 Y58.8208 Z-1.3667 I0.0062 J0.0108
G2 X144.5525 Y58.81 Z-1.4 I0.0062 J-0.0108
G2 X144.5338 Y58.7992 Z-1.4333 I-0.0125 J0.0
G2 Y58.8208 Z-1.4667 I0.0062 J0.0108
G2 X144.5525 Y58.81 Z-1.5 I0.0062 J-0.0108
G2 X144.5338 Y58.7992 Z-1.5333 I-0.0125 J0.0
G2 Y58.8208 Z-1.5667 I0.0062 J0.0108
G2 X144.5525 Y58.81 Z-1.6 I0.0062 J-0.0108
G2 X144.5338 Y58.7992 Z-1.6333 I-0.0125 J0.0
G2 Y58.8208 Z-1.6667 I0.0062 J0.0108
G2 X144.5525 Y58.81 Z-1.7 I0.0062 J-0.0108
G2 X144.5338 Y58.7992 Z-1.7333 I-0.0125 J0.0
G2 Y58.8208 Z-1.7667 I0.0062 J0.0108
G2 X144.5525 Y58.81 Z-1.8 I0.0062 J-0.0108
G2 X144.5338 Y58.7992 Z-1.8333 I-0.0125 J0.0
G2 Y58.8208 Z-1.8667 I0.0062 J0.0108
G2 X144.5525 Y58.81 Z-1.9 I0.0062 J-0.0108
G2 X144.5338 Y58.7992 Z-1.9333 I-0.0125 J0.0
G2 Y58.8208 Z-1.9667 I0.0062 J0.0108
G2 X144.5525 Y58.81 Z-2.0 I0.0062 J-0.0108
G2 X144.5338 Y58.7992 Z-2.0333 I-0.0125 J0.0
G2 Y58.8208 Z-2.0667 I0.0062 J0.0108
G2 X144.5525 Y58.81 Z-2.1 I0.0062 J-0.0108
G2 X144.5338 Y58.7992 Z-2.1333 I-0.0125 J0.0
G2 Y58.8208 Z-2.1667 I0.0062 J0.0108
G2 X144.5525 Y58.81 Z-2.2 I0.0062 J-0.0108
G2 X144.5338 Y58.7992 Z-2.2333 I-0.0125 J0.0
G2 Y58.8208 Z-2.2667 I0.0062 J0.0108
G2 X144.5525 Y58.81 Z-2.3 I0.0062 J-0.0108
G2 X144.5338 Y58.7992 Z-2.3333 I-0.0125 J0.0
G2 Y58.8208 Z-2.3667 I0.0062 J0.0108
G2 X144.5525 Y58.81 Z-2.4 I0.0062 J-0.0108
G2 X144.5338 Y58.7992 Z-2.4333 I-0.0125 J0.0
G2 Y58.8208 Z-2.4667 I0.0062 J0.0108
G2 X144.5525 Y58.81 Z-2.5 I0.0062 J-0.0108
G2 X144.5338 Y58.7992 Z-2.5333 I-0.0125 J0.0
G2 Y58.8208 Z-2.5667 I0.0062 J0.0108
G2 X144.5525 Y58.81 Z-2.6 I0.0062 J-0.0108
G2 X144.5338 Y58.7992 Z-2.6333 I-0.0125 J0.0
G2 Y58.8208 Z-2.6667 I0.0062 J0.0108
G2 X144.5525 Y58.81 Z-2.7 I0.0062 J-0.0108
G2 X144.5338 Y58.7992 Z-2.7333 I-0.0125 J0.0
G2 Y58.8208 Z-2.7667 I0.0062 J0.0108
G2 X144.5525 Y58.81 Z-2.8 I0.0062 J-0.0108
G2 X144.5338 Y58.7992 Z-2.8333 I-0.0125 J0.0
G2 Y58.8208 Z-2.8667 I0.0062 J0.0108
G2 X144.5525 Y58.81 Z-2.9 I0.0062 J-0.0108
G2 X144.5338 Y58.7992 Z-2.9333 I-0.0125 J0.0
G2 Y58.8208 Z-2.9667 I0.0062 J0.0108
G2 X144.5525 Y58.81 Z-3.0 I0.0062 J-0.0108
G2 X144.5338 Y58.7992 Z-3.0333 I-0.0125 J0.0
G2 Y58.8208 Z-3.0667 I0.0062 J0.0108
G2 X144.5525 Y58.81 Z-3.1 I0.0062 J-0.0108
G2 X144.5338 Y58.7992 Z-3.1333 I-0.0125 J0.0
G2 Y58.8208 Z-3.1667 I0.0062 J0.0108
G2 X144.5525 Y58.81 Z-3.2 I0.0062 J-0.0108
G2 X144.5338 Y58.7992 I-0.0125 J0.0
G2 Y58.8208 I0.0062 J0.0108
G2 X144.5525 Y58.81 I0.0062 J-0.0108
G0 Z3.0
G0 X160.2025
G0 Z0.05
G1 F1000.0 Z0.0
G2 F2000.0 X160.1838 Y58.7992 Z-0.0333 I-0.0125 J0.0
G2 Y58.8208 Z-0.0667 I0.0062 J0.0108
G2 X160.2025 Y58.81 Z-0.1 I0.0062 J-0.0108
G2 X160.1838 Y58.7992 Z-0.1333 I-0.0125 J0.0
G2 Y58.8208 Z-0.1667 I0.0062 J0.0108
G2 X160.2025 Y58.81 Z-0.2 I0.0062 J-0.0108
G2 X160.1838 Y58.7992 Z-0.2333 I-0.0125 J0.0
G2 Y58.8208 Z-0.2667 I0.0062 J0.0108
G2 X160.2025 Y58.81 Z-0.3 I0.0062 J-0.0108
G2 X160.1838 Y58.7992 Z-0.3333 I-0.0125 J0.0
G2 Y58.8208 Z-0.3667 I0.0062 J0.0108
G2 X160.2025 Y58.81 Z-0.4 I0.0062 J-0.0108
G2 X160.1838 Y58.7992 Z-0.4333 I-0.0125 J0.0
G2 Y58.8208 Z-0.4667 I0.0062 J0.0108
G2 X160.2025 Y58.81 Z-0.5 I0.0062 J-0.0108
G2 X160.1838 Y58.7992 Z-0.5333 I-0.0125 J0.0
G2 Y58.8208 Z-0.5667 I0.0062 J0.0108
G2 X160.2025 Y58.81 Z-0.6 I0.0062 J-0.0108
G2 X160.1838 Y58.7992 Z-0.6333 I-0.0125 J0.0
G2 Y58.8208 Z-0.6667 I0.0062 J0.0108
G2 X160.2025 Y58.81 Z-0.7 I0.0062 J-0.0108
G2 X160.1838 Y58.7992 Z-0.7333 I-0.0125 J0.0
G2 Y58.8208 Z-0.7667 I0.0062 J0.0108
G2 X160.2025 Y58.81 Z-0.8 I0.0062 J-0.0108
G2 X160.1838 Y58.7992 Z-0.8333 I-0.0125 J0.0
G2 Y58.8208 Z-0.8667 I0.0062 J0.0108
G2 X160.2025 Y58.81 Z-0.9 I0.0062 J-0.0108
G2 X160.1838 Y58.7992 Z-0.9333 I-0.0125 J0.0
G2 Y58.8208 Z-0.9667 I0.0062 J0.0108
G2 X160.2025 Y58.81 Z-1.0 I0.0062 J-0.0108
G2 X160.1838 Y58.7992 Z-1.0333 I-0.0125 J0.0
G2 Y58.8208 Z-1.0667 I0.0062 J0.0108
G2 X160.2025 Y58.81 Z-1.1 I0.0062 J-0.0108
G2 X160.1838 Y58.7992 Z-1.1333 I-0.0125 J0.0
G2 Y58.8208 Z-1.1667 I0.0062 J0.0108
G2 X160.2025 Y58.81 Z-1.2 I0.0062 J-0.0108
G2 X160.1838 Y58.7992 Z-1.2333 I-0.0125 J0.0
G2 Y58.8208 Z-1.2667 I0.0062 J0.0108
G2 X160.2025 Y58.81 Z-1.3 I0.0062 J-0.0108
G2 X160.1838 Y58.7992 Z-1.3333 I-0.0125 J0.0
G2 Y58.8208 Z-1.3667 I0.0062 J0.0108
G2 X160.2025 Y58.81 Z-1.4 I0.0062 J-0.0108
G2 X160.1838 Y58.7992 Z-1.4333 I-0.0125 J0.0
G2 Y58.8208 Z-1.4667 I0.0062 J0.0108
G2 X160.2025 Y58.81 Z-1.5 I0.0062 J-0.0108
G2 X160.1838 Y58.7992 Z-1.5333 I-0.0125 J0.0
G2 Y58.8208 Z-1.5667 I0.0062 J0.0108
G2 X160.2025 Y58.81 Z-1.6 I0.0062 J-0.0108
G2 X160.1838 Y58.7992 Z-1.6333 I-0.0125 J0.0
G2 Y58.8208 Z-1.6667 I0.0062 J0.0108
G2 X160.2025 Y58.81 Z-1.7 I0.0062 J-0.0108
G2 X160.1838 Y58.7992 Z-1.7333 I-0.0125 J0.0
G2 Y58.8208 Z-1.7667 I0.0062 J0.0108
G2 X160.2025 Y58.81 Z-1.8 I0.0062 J-0.0108
G2 X160.1838 Y58.7992 Z-1.8333 I-0.0125 J0.0
G2 Y58.8208 Z-1.8667 I0.0062 J0.0108
G2 X160.2025 Y58.81 Z-1.9 I0.0062 J-0.0108
G2 X160.1838 Y58.7992 Z-1.9333 I-0.0125 J0.0
G2 Y58.8208 Z-1.9667 I0.0062 J0.0108
G2 X160.2025 Y58.81 Z-2.0 I0.0062 J-0.0108
G2 X160.1838 Y58.7992 Z-2.0333 I-0.0125 J0.0
G2 Y58.8208 Z-2.0667 I0.0062 J0.0108
G2 X160.2025 Y58.81 Z-2.1 I0.0062 J-0.0108
G2 X160.1838 Y58.7992 Z-2.1333 I-0.0125 J0.0
G2 Y58.8208 Z-2.1667 I0.0062 J0.0108
G2 X160.2025 Y58.81 Z-2.2 I0.0062 J-0.0108
G2 X160.1838 Y58.7992 Z-2.2333 I-0.0125 J0.0
G2 Y58.8208 Z-2.2667 I0.0062 J0.0108
G2 X160.2025 Y58.81 Z-2.3 I0.0062 J-0.0108
G2 X160.1838 Y58.7992 Z-2.3333 I-0.0125 J0.0
G2 Y58.8208 Z-2.3667 I0.0062 J0.0108
G2 X160.2025 Y58.81 Z-2.4 I0.0062 J-0.0108
G2 X160.1838 Y58.7992 Z-2.4333 I-0.0125 J0.0
G2 Y58.8208 Z-2.4667 I0.0062 J0.0108
G2 X160.2025 Y58.81 Z-2.5 I0.0062 J-0.0108
G2 X160.1838 Y58.7992 Z-2.5333 I-0.0125 J0.0
G2 Y58.8208 Z-2.5667 I0.0062 J0.0108
G2 X160.2025 Y58.81 Z-2.6 I0.0062 J-0.0108
G2 X160.1838 Y58.7992 Z-2.6333 I-0.0125 J0.0
G2 Y58.8208 Z-2.6667 I0.0062 J0.0108
G2 X160.2025 Y58.81 Z-2.7 I0.0062 J-0.0108
G2 X160.1838 Y58.7992 Z-2.7333 I-0.0125 J0.0
G2 Y58.8208 Z-2.7667 I0.0062 J0.0108
G2 X160.2025 Y58.81 Z-2.8 I0.0062 J-0.0108
G2 X160.1838 Y58.7992 Z-2.8333 I-0.0125 J0.0
G2 Y58.8208 Z-2.8667 I0.0062 J0.0108
G2 X160.2025 Y58.81 Z-2.9 I0.0062 J-0.0108
G2 X160.1838 Y58.7992 Z-2.9333 I-0.0125 J0.0
G2 Y58.8208 Z-2.9667 I0.0062 J0.0108
G2 X160.2025 Y58.81 Z-3.0 I0.0062 J-0.0108
G2 X160.1838 Y58.7992 Z-3.0333 I-0.0125 J0.0
G2 Y58.8208 Z-3.0667 I0.0062 J0.0108
G2 X160.2025 Y58.81 Z-3.1 I0.0062 J-0.0108
G2 X160.1838 Y58.7992 Z-3.1333 I-0.0125 J0.0
G2 Y58.8208 Z-3.1667 I0.0062 J0.0108
G2 X160.2025 Y58.81 Z-3.2 I0.0062 J-0.0108
G2 X160.1838 Y58.7992 I-0.0125 J0.0
G2 Y58.8208 I0.0062 J0.0108
G2 X160.2025 Y58.81 I0.0062 J-0.0108
G0 Z3.0
G0 X158.8125 Y22.3
G0 Z0.05
G1 F1000.0 Z0.0
G2 F2000.0 X158.7938 Y22.2892 Z-0.0333 I-0.0125 J0.0
G2 Y22.3108 Z-0.0667 I0.0062 J0.0108
G2 X158.8125 Y22.3 Z-0.1 I0.0062 J-0.0108
G2 X158.7938 Y22.2892 Z-0.1333 I-0.0125 J0.0
G2 Y22.3108 Z-0.1667 I0.0062 J0.0108
G2 X158.8125 Y22.3 Z-0.2 I0.0062 J-0.0108
G2 X158.7938 Y22.2892 Z-0.2333 I-0.0125 J0.0
G2 Y22.3108 Z-0.2667 I0.0062 J0.0108
G2 X158.8125 Y22.3 Z-0.3 I0.0062 J-0.0108
G2 X158.7938 Y22.2892 Z-0.3333 I-0.0125 J0.0
G2 Y22.3108 Z-0.3667 I0.0062 J0.0108
G2 X158.8125 Y22.3 Z-0.4 I0.0062 J-0.0108
G2 X158.7938 Y22.2892 Z-0.4333 I-0.0125 J0.0
G2 Y22.3108 Z-0.4667 I0.0062 J0.0108
G2 X158.8125 Y22.3 Z-0.5 I0.0062 J-0.0108
G2 X158.7938 Y22.2892 Z-0.5333 I-0.0125 J0.0
G2 Y22.3108 Z-0.5667 I0.0062 J0.0108
G2 X158.8125 Y22.3 Z-0.6 I0.0062 J-0.0108
G2 X158.7938 Y22.2892 Z-0.6333 I-0.0125 J0.0
G2 Y22.3108 Z-0.6667 I0.0062 J0.0108
G2 X158.8125 Y22.3 Z-0.7 I0.0062 J-0.0108
G2 X158.7938 Y22.2892 Z-0.7333 I-0.0125 J0.0
G2 Y22.3108 Z-0.7667 I0.0062 J0.0108
G2 X158.8125 Y22.3 Z-0.8 I0.0062 J-0.0108
G2 X158.7938 Y22.2892 Z-0.8333 I-0.0125 J0.0
G2 Y22.3108 Z-0.8667 I0.0062 J0.0108
G2 X158.8125 Y22.3 Z-0.9 I0.0062 J-0.0108
G2 X158.7938 Y22.2892 Z-0.9333 I-0.0125 J0.0
G2 Y22.3108 Z-0.9667 I0.0062 J0.0108
G2 X158.8125 Y22.3 Z-1.0 I0.0062 J-0.0108
G2 X158.7938 Y22.2892 Z-1.0333 I-0.0125 J0.0
G2 Y22.3108 Z-1.0667 I0.0062 J0.0108
G2 X158.8125 Y22.3 Z-1.1 I0.0062 J-0.0108
G2 X158.7938 Y22.2892 Z-1.1333 I-0.0125 J0.0
G2 Y22.3108 Z-1.1667 I0.0062 J0.0108
G2 X158.8125 Y22.3 Z-1.2 I0.0062 J-0.0108
G2 X158.7938 Y22.2892 Z-1.2333 I-0.0125 J0.0
G2 Y22.3108 Z-1.2667 I0.0062 J0.0108
G2 X158.8125 Y22.3 Z-1.3 I0.0062 J-0.0108
G2 X158.7938 Y22.2892 Z-1.3333 I-0.0125 J0.0
G2 Y22.3108 Z-1.3667 I0.0062 J0.0108
G2 X158.8125 Y22.3 Z-1.4 I0.0062 J-0.0108
G2 X158.7938 Y22.2892 Z-1.4333 I-0.0125 J0.0
G2 Y22.3108 Z-1.4667 I0.0062 J0.0108
G2 X158.8125 Y22.3 Z-1.5 I0.0062 J-0.0108
G2 X158.7938 Y22.2892 Z-1.5333 I-0.0125 J0.0
G2 Y22.3108 Z-1.5667 I0.0062 J0.0108
G2 X158.8125 Y22.3 Z-1.6 I0.0062 J-0.0108
G2 X158.7938 Y22.2892 Z-1.6333 I-0.0125 J0.0
G2 Y22.3108 Z-1.6667 I0.0062 J0.0108
G2 X158.8125 Y22.3 Z-1.7 I0.0062 J-0.0108
G2 X158.7938 Y22.2892 Z-1.7333 I-0.0125 J0.0
G2 Y22.3108 Z-1.7667 I0.0062 J0.0108
G2 X158.8125 Y22.3 Z-1.8 I0.0062 J-0.0108
G2 X158.7938 Y22.2892 Z-1.8333 I-0.0125 J0.0
G2 Y22.3108 Z-1.8667 I0.0062 J0.0108
G2 X158.8125 Y22.3 Z-1.9 I0.0062 J-0.0108
G2 X158.7938 Y22.2892 Z-1.9333 I-0.0125 J0.0
G2 Y22.3108 Z-1.9667 I0.0062 J0.0108
G2 X158.8125 Y22.3 Z-2.0 I0.0062 J-0.0108
G2 X158.7938 Y22.2892 Z-2.0333 I-0.0125 J0.0
G2 Y22.3108 Z-2.0667 I0.0062 J0.0108
G2 X158.8125 Y22.3 Z-2.1 I0.0062 J-0.0108
G2 X158.7938 Y22.2892 Z-2.1333 I-0.0125 J0.0
G2 Y22.3108 Z-2.1667 I0.0062 J0.0108
G2 X158.8125 Y22.3 Z-2.2 I0.0062 J-0.0108
G2 X158.7938 Y22.2892 Z-2.2333 I-0.0125 J0.0
G2 Y22.3108 Z-2.2667 I0.0062 J0.0108
G2 X158.8125 Y22.3 Z-2.3 I0.0062 J-0.0108
G2 X158.7938 Y22.2892 Z-2.3333 I-0.0125 J0.0
G2 Y22.3108 Z-2.3667 I0.0062 J0.0108
G2 X158.8125 Y22.3 Z-2.4 I0.0062 J-0.0108
G2 X158.7938 Y22.2892 Z-2.4333 I-0.0125 J0.0
G2 Y22.3108 Z-2.4667 I0.0062 J0.0108
G2 X158.8125 Y22.3 Z-2.5 I0.0062 J-0.0108
G2 X158.7938 Y22.2892 Z-2.5333 I-0.0125 J0.0
G2 Y22.3108 Z-2.5667 I0.0062 J0.0108
G2 X158.8125 Y22.3 Z-2.6 I0.0062 J-0.0108
G2 X158.7938 Y22.2892 Z-2.6333 I-0.0125 J0.0
G2 Y22.3108 Z-2.6667 I0.0062 J0.0108
G2 X158.8125 Y22.3 Z-2.7 I0.0062 J-0.0108
G2 X158.7938 Y22.2892 Z-2.7333 I-0.0125 J0.0
G2 Y22.3108 Z-2.7667 I0.0062 J0.0108
G2 X158.8125 Y22.3 Z-2.8 I0.0062 J-0.0108
G2 X158.7938 Y22.2892 Z-2.8333 I-0.0125 J0.0
G2 Y22.3108 Z-2.8667 I0.0062 J0.0108
G2 X158.8125 Y22.3 Z-2.9 I0.0062 J-0.0108
G2 X158.7938 Y22.2892 Z-2.9333 I-0.0125 J0.0
G2 Y22.3108 Z-2.9667 I0.0062 J0.0108
G2 X158.8125 Y22.3 Z-3.0 I0.0062 J-0.0108
G2 X158.7938 Y22.2892 Z-3.0333 I-0.0125 J0.0
G2 Y22.3108 Z-3.0667 I0.0062 J0.0108
G2 X158.8125 Y22.3 Z-3.1 I0.0062 J-0.0108
G2 X158.7938 Y22.2892 Z-3.1333 I-0.0125 J0.0
G2 Y22.3108 Z-3.1667 I0.0062 J0.0108
G2 X158.8125 Y22.3 Z-3.2 I0.0062 J-0.0108
G2 X158.7938 Y22.2892 I-0.0125 J0.0
G2 Y22.3108 I0.0062 J0.0108
G2 X158.8125 Y22.3 I0.0062 J-0.0108
G0 Z3.0
G0 X151.8857 Y3.2167
G0 Z0.05
G1 F1000.0 Z0.0
G2 F2000.0 X151.8669 Y3.2059 Z-0.0333 I-0.0125 J0.0
G2 Y3.2276 Z-0.0667 I0.0062 J0.0108
G2 X151.8857 Y3.2167 Z-0.1 I0.0062 J-0.0108
G2 X151.8669 Y3.2059 Z-0.1333 I-0.0125 J0.0
G2 Y3.2276 Z-0.1667 I0.0062 J0.0108
G2 X151.8857 Y3.2167 Z-0.2 I0.0062 J-0.0108
G2 X151.8669 Y3.2059 Z-0.2333 I-0.0125 J0.0
G2 Y3.2276 Z-0.2667 I0.0062 J0.0108
G2 X151.8857 Y3.2167 Z-0.3 I0.0062 J-0.0108
G2 X151.8669 Y3.2059 Z-0.3333 I-0.0125 J0.0
G2 Y3.2276 Z-0.3667 I0.0062 J0.0108
G2 X151.8857 Y3.2167 Z-0.4 I0.0062 J-0.0108
G2 X151.8669 Y3.2059 Z-0.4333 I-0.0125 J0.0
G2 Y3.2276 Z-0.4667 I0.0062 J0.0108
G2 X151.8857 Y3.2167 Z-0.5 I0.0062 J-0.0108
G2 X151.8669 Y3.2059 Z-0.5333 I-0.0125 J0.0
G2 Y3.2276 Z-0.5667 I0.0062 J0.0108
G2 X151.8857 Y3.2167 Z-0.6 I0.0062 J-0.0108
G2 X151.8669 Y3.2059 Z-0.6333 I-0.0125 J0.0
G2 Y3.2276 Z-0.6667 I0.0062 J0.0108
G2 X151.8857 Y3.2167 Z-0.7 I0.0062 J-0.0108
G2 X151.8669 Y3.2059 Z-0.7333 I-0.0125 J0.0
G2 Y3.2276 Z-0.7667 I0.0062 J0.0108
G2 X151.8857 Y3.2167 Z-0.8 I0.0062 J-0.0108
G2 X151.8669 Y3.2059 Z-0.8333 I-0.0125 J0.0
G2 Y3.2276 Z-0.8667 I0.0062 J0.0108
G2 X151.8857 Y3.2167 Z-0.9 I0.0062 J-0.0108
G2 X151.8669 Y3.2059 Z-0.9333 I-0.0125 J0.0
G2 Y3.2276 Z-0.9667 I0.0062 J0.0108
G2 X151.8857 Y3.2167 Z-1.0 I0.0062 J-0.0108
G2 X151.8669 Y3.2059 Z-1.0333 I-0.0125 J0.0
G2 Y3.2276 Z-1.0667 I0.0062 J0.0108
G2 X151.8857 Y3.2167 Z-1.1 I0.0062 J-0.0108
G2 X151.8669 Y3.2059 Z-1.1333 I-0.0125 J0.0
G2 Y3.2276 Z-1.1667 I0.0062 J0.0108
G2 X151.8857 Y3.2167 Z-1.2 I0.0062 J-0.0108
G2 X151.8669 Y3.2059 Z-1.2333 I-0.0125 J0.0
G2 Y3.2276 Z-1.2667 I0.0062 J0.0108
G2 X151.8857 Y3.2167 Z-1.3 I0.0062 J-0.0108
G2 X151.8669 Y3.2059 Z-1.3333 I-0.0125 J0.0
G2 Y3.2276 Z-1.3667 I0.0062 J0.0108
G2 X151.8857 Y3.2167 Z-1.4 I0.0062 J-0.0108
G2 X151.8669 Y3.2059 Z-1.4333 I-0.0125 J0.0
G2 Y3.2276 Z-1.4667 I0.0062 J0.0108
G2 X151.8857 Y3.2167 Z-1.5 I0.0062 J-0.0108
G2 X151.8669 Y3.2059 Z-1.5333 I-0.0125 J0.0
G2 Y3.2276 Z-1.5667 I0.0062 J0.0108
G2 X151.8857 Y3.2167 Z-1.6 I0.0062 J-0.0108
G2 X151.8669 Y3.2059 Z-1.6333 I-0.0125 J0.0
G2 Y3.2276 Z-1.6667 I0.0062 J0.0108
G2 X151.8857 Y3.2167 Z-1.7 I0.0062 J-0.0108
G2 X151.8669 Y3.2059 Z-1.7333 I-0.0125 J0.0
G2 Y3.2276 Z-1.7667 I0.0062 J0.0108
G2 X151.8857 Y3.2167 Z-1.8 I0.0062 J-0.0108
G2 X151.8669 Y3.2059 Z-1.8333 I-0.0125 J0.0
G2 Y3.2276 Z-1.8667 I0.0062 J0.0108
G2 X151.8857 Y3.2167 Z-1.9 I0.0062 J-0.0108
G2 X151.8669 Y3.2059 Z-1.9333 I-0.0125 J0.0
G2 Y3.2276 Z-1.9667 I0.0062 J0.0108
G2 X151.8857 Y3.2167 Z-2.0 I0.0062 J-0.0108
G2 X151.8669 Y3.2059 Z-2.0333 I-0.0125 J0.0
G2 Y3.2276 Z-2.0667 I0.0062 J0.0108
G2 X151.8857 Y3.2167 Z-2.1 I0.0062 J-0.0108
G2 X151.8669 Y3.2059 Z-2.1333 I-0.0125 J0.0
G2 Y3.2276 Z-2.1667 I0.0062 J0.0108
G2 X151.8857 Y3.2167 Z-2.2 I0.0062 J-0.0108
G2 X151.8669 Y3.2059 Z-2.2333 I-0.0125 J0.0
G2 Y3.2276 Z-2.2667 I0.0062 J0.0108
G2 X151.8857 Y3.2167 Z-2.3 I0.0062 J-0.0108
G2 X151.8669 Y3.2059 Z-2.3333 I-0.0125 J0.0
G2 Y3.2276 Z-2.3667 I0.0062 J0.0108
G2 X151.8857 Y3.2167 Z-2.4 I0.0062 J-0.0108
G2 X151.8669 Y3.2059 Z-2.4333 I-0.0125 J0.0
G2 Y3.2276 Z-2.4667 I0.0062 J0.0108
G2 X151.8857 Y3.2167 Z-2.5 I0.0062 J-0.0108
G2 X151.8669 Y3.2059 Z-2.5333 I-0.0125 J0.0
G2 Y3.2276 Z-2.5667 I0.0062 J0.0108
G2 X151.8857 Y3.2167 Z-2.6 I0.0062 J-0.0108
G2 X151.8669 Y3.2059 Z-2.6333 I-0.0125 J0.0
G2 Y3.2276 Z-2.6667 I0.0062 J0.0108
G2 X151.8857 Y3.2167 Z-2.7 I0.0062 J-0.0108
G2 X151.8669 Y3.2059 Z-2.7333 I-0.0125 J0.0
G2 Y3.2276 Z-2.7667 I0.0062 J0.0108
G2 X151.8857 Y3.2167 Z-2.8 I0.0062 J-0.0108
G2 X151.8669 Y3.2059 Z-2.8333 I-0.0125 J0.0
G2 Y3.2276 Z-2.8667 I0.0062 J0.0108
G2 X151.8857 Y3.2167 Z-2.9 I0.0062 J-0.0108
G2 X151.8669 Y3.2059 Z-2.9333 I-0.0125 J0.0
G2 Y3.2276 Z-2.9667 I0.0062 J0.0108
G2 X151.8857 Y3.2167 Z-3.0 I0.0062 J-0.0108
G2 X151.8669 Y3.2059 Z-3.0333 I-0.0125 J0.0
G2 Y3.2276 Z-3.0667 I0.0062 J0.0108
G2 X151.8857 Y3.2167 Z-3.1 I0.0062 J-0.0108
G2 X151.8669 Y3.2059 Z-3.1333 I-0.0125 J0.0
G2 Y3.2276 Z-3.1667 I0.0062 J0.0108
G2 X151.8857 Y3.2167 Z-3.2 I0.0062 J-0.0108
G2 X151.8669 Y3.2059 I-0.0125 J0.0
G2 Y3.2276 I0.0062 J0.0108
G2 X151.8857 Y3.2167 I0.0062 J-0.0108
G0 Z3.0
G0 X130.0125 Y22.6
G0 Z0.05
G1 F1000.0 Z0.0
G2 F2000.0 X129.9938 Y22.5892 Z-0.0333 I-0.0125 J0.0
G2 Y22.6108 Z-0.0667 I0.0062 J0.0108
G2 X130.0125 Y22.6 Z-0.1 I0.0062 J-0.0108
G2 X129.9938 Y22.5892 Z-0.1333 I-0.0125 J0.0
G2 Y22.6108 Z-0.1667 I0.0062 J0.0108
G2 X130.0125 Y22.6 Z-0.2 I0.0062 J-0.0108
G2 X129.9938 Y22.5892 Z-0.2333 I-0.0125 J0.0
G2 Y22.6108 Z-0.2667 I0.0062 J0.0108
G2 X130.0125 Y22.6 Z-0.3 I0.0062 J-0.0108
G2 X129.9938 Y22.5892 Z-0.3333 I-0.0125 J0.0
G2 Y22.6108 Z-0.3667 I0.0062 J0.0108
G2 X130.0125 Y22.6 Z-0.4 I0.0062 J-0.0108
G2 X129.9938 Y22.5892 Z-0.4333 I-0.0125 J0.0
G2 Y22.6108 Z-0.4667 I0.0062 J0.0108
G2 X130.0125 Y22.6 Z-0.5 I0.0062 J-0.0108
G2 X129.9938 Y22.5892 Z-0.5333 I-0.0125 J0.0
G2 Y22.6108 Z-0.5667 I0.0062 J0.0108
G2 X130.0125 Y22.6 Z-0.6 I0.0062 J-0.0108
G2 X129.9938 Y22.5892 Z-0.6333 I-0.0125 J0.0
G2 Y22.6108 Z-0.6667 I0.0062 J0.0108
G2 X130.0125 Y22.6 Z-0.7 I0.0062 J-0.0108
G2 X129.9938 Y22.5892 Z-0.7333 I-0.0125 J0.0
G2 Y22.6108 Z-0.7667 I0.0062 J0.0108
G2 X130.0125 Y22.6 Z-0.8 I0.0062 J-0.0108
G2 X129.9938 Y22.5892 Z-0.8333 I-0.0125 J0.0
G2 Y22.6108 Z-0.8667 I0.0062 J0.0108
G2 X130.0125 Y22.6 Z-0.9 I0.0062 J-0.0108
G2 X129.9938 Y22.5892 Z-0.9333 I-0.0125 J0.0
G2 Y22.6108 Z-0.9667 I0.0062 J0.0108
G2 X130.0125 Y22.6 Z-1.0 I0.0062 J-0.0108
G2 X129.9938 Y22.5892 Z-1.0333 I-0.0125 J0.0
G2 Y22.6108 Z-1.0667 I0.0062 J0.0108
G2 X130.0125 Y22.6 Z-1.1 I0.0062 J-0.0108
G2 X129.9938 Y22.5892 Z-1.1333 I-0.0125 J0.0
G2 Y22.6108 Z-1.1667 I0.0062 J0.0108
G2 X130.0125 Y22.6 Z-1.2 I0.0062 J-0.0108
G2 X129.9938 Y22.5892 Z-1.2333 I-0.0125 J0.0
G2 Y22.6108 Z-1.2667 I0.0062 J0.0108
G2 X130.0125 Y22.6 Z-1.3 I0.0062 J-0.0108
G2 X129.9938 Y22.5892 Z-1.3333 I-0.0125 J0.0
G2 Y22.6108 Z-1.3667 I0.0062 J0.0108
G2 X130.0125 Y22.6 Z-1.4 I0.0062 J-0.0108
G2 X129.9938 Y22.5892 Z-1.4333 I-0.0125 J0.0
G2 Y22.6108 Z-1.4667 I0.0062 J0.0108
G2 X130.0125 Y22.6 Z-1.5 I0.0062 J-0.0108
G2 X129.9938 Y22.5892 Z-1.5333 I-0.0125 J0.0
G2 Y22.6108 Z-1.5667 I0.0062 J0.0108
G2 X130.0125 Y22.6 Z-1.6 I0.0062 J-0.0108
G2 X129.9938 Y22.5892 Z-1.6333 I-0.0125 J0.0
G2 Y22.6108 Z-1.6667 I0.0062 J0.0108
G2 X130.0125 Y22.6 Z-1.7 I0.0062 J-0.0108
G2 X129.9938 Y22.5892 Z-1.7333 I-0.0125 J0.0
G2 Y22.6108 Z-1.7667 I0.0062 J0.0108
G2 X130.0125 Y22.6 Z-1.8 I0.0062 J-0.0108
G2 X129.9938 Y22.5892 Z-1.8333 I-0.0125 J0.0
G2 Y22.6108 Z-1.8667 I0.0062 J0.0108
G2 X130.0125 Y22.6 Z-1.9 I0.0062 J-0.0108
G2 X129.9938 Y22.5892 Z-1.9333 I-0.0125 J0.0
G2 Y22.6108 Z-1.9667 I0.0062 J0.0108
G2 X130.0125 Y22.6 Z-2.0 I0.0062 J-0.0108
G2 X129.9938 Y22.5892 Z-2.0333 I-0.0125 J0.0
G2 Y22.6108 Z-2.0667 I0.0062 J0.0108
G2 X130.0125 Y22.6 Z-2.1 I0.0062 J-0.0108
G2 X129.9938 Y22.5892 Z-2.1333 I-0.0125 J0.0
G2 Y22.6108 Z-2.1667 I0.0062 J0.0108
G2 X130.0125 Y22.6 Z-2.2 I0.0062 J-0.0108
G2 X129.9938 Y22.5892 Z-2.2333 I-0.0125 J0.0
G2 Y22.6108 Z-2.2667 I0.0062 J0.0108
G2 X130.0125 Y22.6 Z-2.3 I0.0062 J-0.0108
G2 X129.9938 Y22.5892 Z-2.3333 I-0.0125 J0.0
G2 Y22.6108 Z-2.3667 I0.0062 J0.0108
G2 X130.0125 Y22.6 Z-2.4 I0.0062 J-0.0108
G2 X129.9938 Y22.5892 Z-2.4333 I-0.0125 J0.0
G2 Y22.6108 Z-2.4667 I0.0062 J0.0108
G2 X130.0125 Y22.6 Z-2.5 I0.0062 J-0.0108
G2 X129.9938 Y22.5892 Z-2.5333 I-0.0125 J0.0
G2 Y22.6108 Z-2.5667 I0.0062 J0.0108
G2 X130.0125 Y22.6 Z-2.6 I0.0062 J-0.0108
G2 X129.9938 Y22.5892 Z-2.6333 I-0.0125 J0.0
G2 Y22.6108 Z-2.6667 I0.0062 J0.0108
G2 X130.0125 Y22.6 Z-2.7 I0.0062 J-0.0108
G2 X129.9938 Y22.5892 Z-2.7333 I-0.0125 J0.0
G2 Y22.6108 Z-2.7667 I0.0062 J0.0108
G2 X130.0125 Y22.6 Z-2.8 I0.0062 J-0.0108
G2 X129.9938 Y22.5892 Z-2.8333 I-0.0125 J0.0
G2 Y22.6108 Z-2.8667 I0.0062 J0.0108
G2 X130.0125 Y22.6 Z-2.9 I0.0062 J-0.0108
G2 X129.9938 Y22.5892 Z-2.9333 I-0.0125 J0.0
G2 Y22.6108 Z-2.9667 I0.0062 J0.0108
G2 X130.0125 Y22.6 Z-3.0 I0.0062 J-0.0108
G2 X129.9938 Y22.5892 Z-3.0333 I-0.0125 J0.0
G2 Y22.6108 Z-3.0667 I0.0062 J0.0108
G2 X130.0125 Y22.6 Z-3.1 I0.0062 J-0.0108
G2 X129.9938 Y22.5892 Z-3.1333 I-0.0125 J0.0
G2 Y22.6108 Z-3.1667 I0.0062 J0.0108
G2 X130.0125 Y22.6 Z-3.2 I0.0062 J-0.0108
G2 X129.9938 Y22.5892 I-0.0125 J0.0
G2 Y22.6108 I0.0062 J0.0108
G2 X130.0125 Y22.6 I0.0062 J-0.0108
G0 Z3.0
G0 X128.8525 Y103.55
G0 Z0.05
G1 F1000.0 Z0.0
G2 F2000.0 X128.8338 Y103.5392 Z-0.0333 I-0.0125 J0.0
G2 Y103.5608 Z-0.0667 I0.0062 J0.0108
G2 X128.8525 Y103.55 Z-0.1 I0.0062 J-0.0108
G2 X128.8338 Y103.5392 Z-0.1333 I-0.0125 J0.0
G2 Y103.5608 Z-0.1667 I0.0062 J0.0108
G2 X128.8525 Y103.55 Z-0.2 I0.0062 J-0.0108
G2 X128.8338 Y103.5392 Z-0.2333 I-0.0125 J0.0
G2 Y103.5608 Z-0.2667 I0.0062 J0.0108
G2 X128.8525 Y103.55 Z-0.3 I0.0062 J-0.0108
G2 X128.8338 Y103.5392 Z-0.3333 I-0.0125 J0.0
G2 Y103.5608 Z-0.3667 I0.0062 J0.0108
G2 X128.8525 Y103.55 Z-0.4 I0.0062 J-0.0108
G2 X128.8338 Y103.5392 Z-0.4333 I-0.0125 J0.0
G2 Y103.5608 Z-0.4667 I0.0062 J0.0108
G2 X128.8525 Y103.55 Z-0.5 I0.0062 J-0.0108
G2 X128.8338 Y103.5392 Z-0.5333 I-0.0125 J0.0
G2 Y103.5608 Z-0.5667 I0.0062 J0.0108
G2 X128.8525 Y103.55 Z-0.6 I0.0062 J-0.0108
G2 X128.8338 Y103.5392 Z-0.6333 I-0.0125 J0.0
G2 Y103.5608 Z-0.6667 I0.0062 J0.0108
G2 X128.8525 Y103.55 Z-0.7 I0.0062 J-0.0108
G2 X128.8338 Y103.5392 Z-0.7333 I-0.0125 J0.0
G2 Y103.5608 Z-0.7667 I0.0062 J0.0108
G2 X128.8525 Y103.55 Z-0.8 I0.0062 J-0.0108
G2 X128.8338 Y103.5392 Z-0.8333 I-0.0125 J0.0
G2 Y103.5608 Z-0.8667 I0.0062 J0.0108
G2 X128.8525 Y103.55 Z-0.9 I0.0062 J-0.0108
G2 X128.8338 Y103.5392 Z-0.9333 I-0.0125 J0.0
G2 Y103.5608 Z-0.9667 I0.0062 J0.0108
G2 X128.8525 Y103.55 Z-1.0 I0.0062 J-0.0108
G2 X128.8338 Y103.5392 Z-1.0333 I-0.0125 J0.0
G2 Y103.5608 Z-1.0667 I0.0062 J0.0108
G2 X128.8525 Y103.55 Z-1.1 I0.0062 J-0.0108
G2 X128.8338 Y103.5392 Z-1.1333 I-0.0125 J0.0
G2 Y103.5608 Z-1.1667 I0.0062 J0.0108
G2 X128.8525 Y103.55 Z-1.2 I0.0062 J-0.0108
G2 X128.8338 Y103.5392 Z-1.2333 I-0.0125 J0.0
G2 Y103.5608 Z-1.2667 I0.0062 J0.0108
G2 X128.8525 Y103.55 Z-1.3 I0.0062 J-0.0108
G2 X128.8338 Y103.5392 Z-1.3333 I-0.0125 J0.0
G2 Y103.5608 Z-1.3667 I0.0062 J0.0108
G2 X128.8525 Y103.55 Z-1.4 I0.0062 J-0.0108
G2 X128.8338 Y103.5392 Z-1.4333 I-0.0125 J0.0
G2 Y103.5608 Z-1.4667 I0.0062 J0.0108
G2 X128.8525 Y103.55 Z-1.5 I0.0062 J-0.0108
G2 X128.8338 Y103.5392 Z-1.5333 I-0.0125 J0.0
G2 Y103.5608 Z-1.5667 I0.0062 J0.0108
G2 X128.8525 Y103.55 Z-1.6 I0.0062 J-0.0108
G2 X128.8338 Y103.5392 Z-1.6333 I-0.0125 J0.0
G2 Y103.5608 Z-1.6667 I0.0062 J0.0108
G2 X128.8525 Y103.55 Z-1.7 I0.0062 J-0.0108
G2 X128.8338 Y103.5392 Z-1.7333 I-0.0125 J0.0
G2 Y103.5608 Z-1.7667 I0.0062 J0.0108
G2 X128.8525 Y103.55 Z-1.8 I0.0062 J-0.0108
G2 X128.8338 Y103.5392 Z-1.8333 I-0.0125 J0.0
G2 Y103.5608 Z-1.8667 I0.0062 J0.0108
G2 X128.8525 Y103.55 Z-1.9 I0.0062 J-0.0108
G2 X128.8338 Y103.5392 Z-1.9333 I-0.0125 J0.0
G2 Y103.5608 Z-1.9667 I0.0062 J0.0108
G2 X128.8525 Y103.55 Z-2.0 I0.0062 J-0.0108
G2 X128.8338 Y103.5392 Z-2.0333 I-0.0125 J0.0
G2 Y103.5608 Z-2.0667 I0.0062 J0.0108
G2 X128.8525 Y103.55 Z-2.1 I0.0062 J-0.0108
G2 X128.8338 Y103.5392 Z-2.1333 I-0.0125 J0.0
G2 Y103.5608 Z-2.1667 I0.0062 J0.0108
G2 X128.8525 Y103.55 Z-2.2 I0.0062 J-0.0108
G2 X128.8338 Y103.5392 Z-2.2333 I-0.0125 J0.0
G2 Y103.5608 Z-2.2667 I0.0062 J0.0108
G2 X128.8525 Y103.55 Z-2.3 I0.0062 J-0.0108
G2 X128.8338 Y103.5392 Z-2.3333 I-0.0125 J0.0
G2 Y103.5608 Z-2.3667 I0.0062 J0.0108
G2 X128.8525 Y103.55 Z-2.4 I0.0062 J-0.0108
G2 X128.8338 Y103.5392 Z-2.4333 I-0.0125 J0.0
G2 Y103.5608 Z-2.4667 I0.0062 J0.0108
G2 X128.8525 Y103.55 Z-2.5 I0.0062 J-0.0108
G2 X128.8338 Y103.5392 Z-2.5333 I-0.0125 J0.0
G2 Y103.5608 Z-2.5667 I0.0062 J0.0108
G2 X128.8525 Y103.55 Z-2.6 I0.0062 J-0.0108
G2 X128.8338 Y103.5392 Z-2.6333 I-0.0125 J0.0
G2 Y103.5608 Z-2.6667 I0.0062 J0.0108
G2 X128.8525 Y103.55 Z-2.7 I0.0062 J-0.0108
G2 X128.8338 Y103.5392 Z-2.7333 I-0.0125 J0.0
G2 Y103.5608 Z-2.7667 I0.0062 J0.0108
G2 X128.8525 Y103.55 Z-2.8 I0.0062 J-0.0108
G2 X128.8338 Y103.5392 Z-2.8333 I-0.0125 J0.0
G2 Y103.5608 Z-2.8667 I0.0062 J0.0108
G2 X128.8525 Y103.55 Z-2.9 I0.0062 J-0.0108
G2 X128.8338 Y103.5392 Z-2.9333 I-0.0125 J0.0
G2 Y103.5608 Z-2.9667 I0.0062 J0.0108
G2 X128.8525 Y103.55 Z-3.0 I0.0062 J-0.0108
G2 X128.8338 Y103.5392 Z-3.0333 I-0.0125 J0.0
G2 Y103.5608 Z-3.0667 I0.0062 J0.0108
G2 X128.8525 Y103.55 Z-3.1 I0.0062 J-0.0108
G2 X128.8338 Y103.5392 Z-3.1333 I-0.0125 J0.0
G2 Y103.5608 Z-3.1667 I0.0062 J0.0108
G2 X128.8525 Y103.55 Z-3.2 I0.0062 J-0.0108
G2 X128.8338 Y103.5392 I-0.0125 J0.0
G2 Y103.5608 I0.0062 J0.0108
G2 X128.8525 Y103.55 I0.0062 J-0.0108
G0 Z3.0
G0 X113.2025
G0 Z0.05
G1 F1000.0 Z0.0
G2 F2000.0 X113.1838 Y103.5392 Z-0.0333 I-0.0125 J0.0
G2 Y103.5608 Z-0.0667 I0.0062 J0.0108
G2 X113.2025 Y103.55 Z-0.1 I0.0062 J-0.0108
G2 X113.1838 Y103.5392 Z-0.1333 I-0.0125 J0.0
G2 Y103.5608 Z-0.1667 I0.0062 J0.0108
G2 X113.2025 Y103.55 Z-0.2 I0.0062 J-0.0108
G2 X113.1838 Y103.5392 Z-0.2333 I-0.0125 J0.0
G2 Y103.5608 Z-0.2667 I0.0062 J0.0108
G2 X113.2025 Y103.55 Z-0.3 I0.0062 J-0.0108
G2 X113.1838 Y103.5392 Z-0.3333 I-0.0125 J0.0
G2 Y103.5608 Z-0.3667 I0.0062 J0.0108
G2 X113.2025 Y103.55 Z-0.4 I0.0062 J-0.0108
G2 X113.1838 Y103.5392 Z-0.4333 I-0.0125 J0.0
G2 Y103.5608 Z-0.4667 I0.0062 J0.0108
G2 X113.2025 Y103.55 Z-0.5 I0.0062 J-0.0108
G2 X113.1838 Y103.5392 Z-0.5333 I-0.0125 J0.0
G2 Y103.5608 Z-0.5667 I0.0062 J0.0108
G2 X113.2025 Y103.55 Z-0.6 I0.0062 J-0.0108
G2 X113.1838 Y103.5392 Z-0.6333 I-0.0125 J0.0
G2 Y103.5608 Z-0.6667 I0.0062 J0.0108
G2 X113.2025 Y103.55 Z-0.7 I0.0062 J-0.0108
G2 X113.1838 Y103.5392 Z-0.7333 I-0.0125 J0.0
G2 Y103.5608 Z-0.7667 I0.0062 J0.0108
G2 X113.2025 Y103.55 Z-0.8 I0.0062 J-0.0108
G2 X113.1838 Y103.5392 Z-0.8333 I-0.0125 J0.0
G2 Y103.5608 Z-0.8667 I0.0062 J0.0108
G2 X113.2025 Y103.55 Z-0.9 I0.0062 J-0.0108
G2 X113.1838 Y103.5392 Z-0.9333 I-0.0125 J0.0
G2 Y103.5608 Z-0.9667 I0.0062 J0.0108
G2 X113.2025 Y103.55 Z-1.0 I0.0062 J-0.0108
G2 X113.1838 Y103.5392 Z-1.0333 I-0.0125 J0.0
G2 Y103.5608 Z-1.0667 I0.0062 J0.0108
G2 X113.2025 Y103.55 Z-1.1 I0.0062 J-0.0108
G2 X113.1838 Y103.5392 Z-1.1333 I-0.0125 J0.0
G2 Y103.5608 Z-1.1667 I0.0062 J0.0108
G2 X113.2025 Y103.55 Z-1.2 I0.0062 J-0.0108
G2 X113.1838 Y103.5392 Z-1.2333 I-0.0125 J0.0
G2 Y103.5608 Z-1.2667 I0.0062 J0.0108
G2 X113.2025 Y103.55 Z-1.3 I0.0062 J-0.0108
G2 X113.1838 Y103.5392 Z-1.3333 I-0.0125 J0.0
G2 Y103.5608 Z-1.3667 I0.0062 J0.0108
G2 X113.2025 Y103.55 Z-1.4 I0.0062 J-0.0108
G2 X113.1838 Y103.5392 Z-1.4333 I-0.0125 J0.0
G2 Y103.5608 Z-1.4667 I0.0062 J0.0108
G2 X113.2025 Y103.55 Z-1.5 I0.0062 J-0.0108
G2 X113.1838 Y103.5392 Z-1.5333 I-0.0125 J0.0
G2 Y103.5608 Z-1.5667 I0.0062 J0.0108
G2 X113.2025 Y103.55 Z-1.6 I0.0062 J-0.0108
G2 X113.1838 Y103.5392 Z-1.6333 I-0.0125 J0.0
G2 Y103.5608 Z-1.6667 I0.0062 J0.0108
G2 X113.2025 Y103.55 Z-1.7 I0.0062 J-0.0108
G2 X113.1838 Y103.5392 Z-1.7333 I-0.0125 J0.0
G2 Y103.5608 Z-1.7667 I0.0062 J0.0108
G2 X113.2025 Y103.55 Z-1.8 I0.0062 J-0.0108
G2 X113.1838 Y103.5392 Z-1.8333 I-0.0125 J0.0
G2 Y103.5608 Z-1.8667 I0.0062 J0.0108
G2 X113.2025 Y103.55 Z-1.9 I0.0062 J-0.0108
G2 X113.1838 Y103.5392 Z-1.9333 I-0.0125 J0.0
G2 Y103.5608 Z-1.9667 I0.0062 J0.0108
G2 X113.2025 Y103.55 Z-2.0 I0.0062 J-0.0108
G2 X113.1838 Y103.5392 Z-2.0333 I-0.0125 J0.0
G2 Y103.5608 Z-2.0667 I0.0062 J0.0108
G2 X113.2025 Y103.55 Z-2.1 I0.0062 J-0.0108
G2 X113.1838 Y103.5392 Z-2.1333 I-0.0125 J0.0
G2 Y103.5608 Z-2.1667 I0.0062 J0.0108
G2 X113.2025 Y103.55 Z-2.2 I0.0062 J-0.0108
G2 X113.1838 Y103.5392 Z-2.2333 I-0.0125 J0.0
G2 Y103.5608 Z-2.2667 I0.0062 J0.0108
G2 X113.2025 Y103.55 Z-2.3 I0.0062 J-0.0108
G2 X113.1838 Y103.5392 Z-2.3333 I-0.0125 J0.0
G2 Y103.5608 Z-2.3667 I0.0062 J0.0108
G2 X113.2025 Y103.55 Z-2.4 I0.0062 J-0.0108
G2 X113.1838 Y103.5392 Z-2.4333 I-0.0125 J0.0
G2 Y103.5608 Z-2.4667 I0.0062 J0.0108
G2 X113.2025 Y103.55 Z-2.5 I0.0062 J-0.0108
G2 X113.1838 Y103.5392 Z-2.5333 I-0.0125 J0.0
G2 Y103.5608 Z-2.5667 I0.0062 J0.0108
G2 X113.2025 Y103.55 Z-2.6 I0.0062 J-0.0108
G2 X113.1838 Y103.5392 Z-2.6333 I-0.0125 J0.0
G2 Y103.5608 Z-2.6667 I0.0062 J0.0108
G2 X113.2025 Y103.55 Z-2.7 I0.0062 J-0.0108
G2 X113.1838 Y103.5392 Z-2.7333 I-0.0125 J0.0
G2 Y103.5608 Z-2.7667 I0.0063 J0.0108
G2 X113.2025 Y103.55 Z-2.8 I0.0062 J-0.0108
G2 X113.1838 Y103.5392 Z-2.8333 I-0.0125 J0.0
G2 Y103.5608 Z-2.8667 I0.0063 J0.0108
G2 X113.2025 Y103.55 Z-2.9 I0.0062 J-0.0108
G2 X113.1838 Y103.5392 Z-2.9333 I-0.0125 J0.0
G2 Y103.5608 Z-2.9667 I0.0063 J0.0108
G2 X113.2025 Y103.55 Z-3.0 I0.0062 J-0.0108
G2 X113.1838 Y103.5392 Z-3.0333 I-0.0125 J0.0
G2 Y103.5608 Z-3.0667 I0.0063 J0.0108
G2 X113.2025 Y103.55 Z-3.1 I0.0062 J-0.0108
G2 X113.1838 Y103.5392 Z-3.1333 I-0.0125 J0.0
G2 Y103.5608 Z-3.1667 I0.0063 J0.0108
G2 X113.2025 Y103.55 Z-3.2 I0.0062 J-0.0108
G2 X113.1838 Y103.5392 I-0.0125 J0.0
G2 Y103.5608 I0.0063 J0.0108
G2 X113.2025 Y103.55 I0.0062 J-0.0108
G0 Z3.0
G0 X97.5525
G0 Z0.05
G1 F1000.0 Z0.0
G2 F2000.0 X97.5337 Y103.5392 Z-0.0333 I-0.0125 J0.0
G2 Y103.5608 Z-0.0667 I0.0062 J0.0108
G2 X97.5525 Y103.55 Z-0.1 I0.0062 J-0.0108
G2 X97.5337 Y103.5392 Z-0.1333 I-0.0125 J0.0
G2 Y103.5608 Z-0.1667 I0.0062 J0.0108
G2 X97.5525 Y103.55 Z-0.2 I0.0062 J-0.0108
G2 X97.5337 Y103.5392 Z-0.2333 I-0.0125 J0.0
G2 Y103.5608 Z-0.2667 I0.0062 J0.0108
G2 X97.5525 Y103.55 Z-0.3 I0.0062 J-0.0108
G2 X97.5337 Y103.5392 Z-0.3333 I-0.0125 J0.0
G2 Y103.5608 Z-0.3667 I0.0062 J0.0108
G2 X97.5525 Y103.55 Z-0.4 I0.0062 J-0.0108
G2 X97.5337 Y103.5392 Z-0.4333 I-0.0125 J0.0
G2 Y103.5608 Z-0.4667 I0.0062 J0.0108
G2 X97.5525 Y103.55 Z-0.5 I0.0062 J-0.0108
G2 X97.5337 Y103.5392 Z-0.5333 I-0.0125 J0.0
G2 Y103.5608 Z-0.5667 I0.0062 J0.0108
G2 X97.5525 Y103.55 Z-0.6 I0.0062 J-0.0108
G2 X97.5337 Y103.5392 Z-0.6333 I-0.0125 J0.0
G2 Y103.5608 Z-0.6667 I0.0062 J0.0108
G2 X97.5525 Y103.55 Z-0.7 I0.0062 J-0.0108
G2 X97.5337 Y103.5392 Z-0.7333 I-0.0125 J0.0
G2 Y103.5608 Z-0.7667 I0.0062 J0.0108
G2 X97.5525 Y103.55 Z-0.8 I0.0062 J-0.0108
G2 X97.5337 Y103.5392 Z-0.8333 I-0.0125 J0.0
G2 Y103.5608 Z-0.8667 I0.0062 J0.0108
G2 X97.5525 Y103.55 Z-0.9 I0.0062 J-0.0108
G2 X97.5337 Y103.5392 Z-0.9333 I-0.0125 J0.0
G2 Y103.5608 Z-0.9667 I0.0062 J0.0108
G2 X97.5525 Y103.55 Z-1.0 I0.0062 J-0.0108
G2 X97.5337 Y103.5392 Z-1.0333 I-0.0125 J0.0
G2 Y103.5608 Z-1.0667 I0.0062 J0.0108
G2 X97.5525 Y103.55 Z-1.1 I0.0062 J-0.0108
G2 X97.5337 Y103.5392 Z-1.1333 I-0.0125 J0.0
G2 Y103.5608 Z-1.1667 I0.0062 J0.0108
G2 X97.5525 Y103.55 Z-1.2 I0.0062 J-0.0108
G2 X97.5337 Y103.5392 Z-1.2333 I-0.0125 J0.0
G2 Y103.5608 Z-1.2667 I0.0062 J0.0108
G2 X97.5525 Y103.55 Z-1.3 I0.0062 J-0.0108
G2 X97.5337 Y103.5392 Z-1.3333 I-0.0125 J0.0
G2 Y103.5608 Z-1.3667 I0.0062 J0.0108
G2 X97.5525 Y103.55 Z-1.4 I0.0062 J-0.0108
G2 X97.5337 Y103.5392 Z-1.4333 I-0.0125 J0.0
G2 Y103.5608 Z-1.4667 I0.0062 J0.0108
G2 X97.5525 Y103.55 Z-1.5 I0.0062 J-0.0108
G2 X97.5337 Y103.5392 Z-1.5333 I-0.0125 J0.0
G2 Y103.5608 Z-1.5667 I0.0062 J0.0108
G2 X97.5525 Y103.55 Z-1.6 I0.0062 J-0.0108
G2 X97.5337 Y103.5392 Z-1.6333 I-0.0125 J0.0
G2 Y103.5608 Z-1.6667 I0.0062 J0.0108
G2 X97.5525 Y103.55 Z-1.7 I0.0062 J-0.0108
G2 X97.5337 Y103.5392 Z-1.7333 I-0.0125 J0.0
G2 Y103.5608 Z-1.7667 I0.0062 J0.0108
G2 X97.5525 Y103.55 Z-1.8 I0.0062 J-0.0108
G2 X97.5337 Y103.5392 Z-1.8333 I-0.0125 J0.0
G2 Y103.5608 Z-1.8667 I0.0062 J0.0108
G2 X97.5525 Y103.55 Z-1.9 I0.0062 J-0.0108
G2 X97.5337 Y103.5392 Z-1.9333 I-0.0125 J0.0
G2 Y103.5608 Z-1.9667 I0.0062 J0.0108
G2 X97.5525 Y103.55 Z-2.0 I0.0062 J-0.0108
