(/Applications/pcbgcode.repo/pcb-gcode.ulp)
(Copyright 2005 - 2012 by John Johnson)
(See readme.txt for licensing terms.)
(This file generated from the board:)
(.../atmega_knobs_cntrl/eagle/midi_to_cv.brd)
(Current profile is .../pcbgcode.repo/profiles/mach.pp  )
(This file generated 5/29/15 11:56 PM)
(Settings from pcb-machine.h)
(spindle on time = 0.0000)
(  Tool Size)
(0.0100  )
(spindle speed = 30000.0000)
(tool change at 0.0000  0.0000  3.0000  )
(feed rate xy = F20    )
(feed rate z  = F10    )
(Z Axis Settings)
(  High     Up        Down     Drill)
(1.0000  	0.0500  	-0.0040 	-0.0730 )
(Settings from pcb-defaults.h)
(isolate min = 0.0010)
(isolate max = 0.0050)
(isolate step = 0.0010)
(Generated bottom outlines, bottom drill, )
(Unit of measure: inch)
(Inch Mode)
G20
(Absolute Coordinates)
G90
S30000
G00 Z1.0000  
G00 X0.0000  Y0.0000  
M03
G04 P0.000000
G00 Z0.0500  
G00 X-0.6604 Y0.1456  
G01 Z-0.0040 F10    
G01 X-0.6636 Y0.1424  F20    
G01 X-0.7406 Y0.0654  
G01 X-0.7444 Y0.0632  
G01 X-0.7488 Y0.0620  
G01 X-1.9662 Y0.0620  
G01 X-1.9706 Y0.0632  
G01 X-1.9744 Y0.0654  
G01 X-1.9776 Y0.0686  
G01 X-2.0860 Y0.1770  
G01 X-2.1078 Y0.1770  
G01 X-2.1328 Y0.2020  
G01 X-2.1472 Y0.2020  
G01 X-2.1722 Y0.1770  
G01 X-2.2078 Y0.1770  
G01 X-2.2328 Y0.2020  
G01 X-2.2472 Y0.2020  
G01 X-2.2722 Y0.1770  
G01 X-2.3078 Y0.1770  
G01 X-2.3330 Y0.2022  
G01 X-2.3330 Y0.2378  
G01 X-2.3078 Y0.2630  
G01 X-2.2722 Y0.2630  
G01 X-2.2470 Y0.2378  
G01 X-2.2470 Y0.2360  
G01 X-2.2330 Y0.2360  
G01 X-2.2330 Y0.2378  
G01 X-2.2078 Y0.2630  
G01 X-2.2050 Y0.2630  
G01 X-2.2050 Y0.2770  
G01 X-2.2078 Y0.2770  
G01 X-2.2330 Y0.3022  
G01 X-2.2330 Y0.3070  
G01 X-2.2470 Y0.3070  
G01 X-2.2470 Y0.3022  
G01 X-2.2722 Y0.2770  
G01 X-2.3078 Y0.2770  
G01 X-2.3330 Y0.3022  
G01 X-2.3330 Y0.3378  
G01 X-2.3078 Y0.3630  
G01 X-2.2722 Y0.3630  
G01 X-2.2502 Y0.3410  
G01 X-2.2298 Y0.3410  
G01 X-2.2078 Y0.3630  
G01 X-2.1722 Y0.3630  
G01 X-2.1470 Y0.3378  
G01 X-2.1470 Y0.3022  
G01 X-2.1710 Y0.2782  
G01 X-2.1710 Y0.2618  
G01 X-2.1470 Y0.2378  
G01 X-2.1470 Y0.2360  
G01 X-2.1330 Y0.2360  
G01 X-2.1330 Y0.2378  
G01 X-2.1078 Y0.2630  
G01 X-2.1000 Y0.2630  
G01 X-2.1000 Y0.2770  
G01 X-2.1078 Y0.2770  
G01 X-2.1330 Y0.3022  
G01 X-2.1330 Y0.3378  
G01 X-2.1078 Y0.3630  
G01 X-2.0722 Y0.3630  
G01 X-2.0470 Y0.3378  
G01 X-2.0470 Y0.3022  
G01 X-2.0660 Y0.2832  
G01 X-2.0660 Y0.2568  
G01 X-2.0470 Y0.2378  
G01 X-2.0470 Y0.2022  
G01 X-2.0551 Y0.1941  
G01 X-1.9570 Y0.0960  
G01 X-0.7580 Y0.0960  
G01 X-0.6910 Y0.1630  
G01 X-0.6910 Y1.3062  
G01 X-0.7479 Y1.3980  
G01 X-0.7633 Y1.3980  
G01 X-0.7820 Y1.4167  
G01 X-0.7820 Y1.4433  
G01 X-0.7770 Y1.4483  
G01 X-0.7770 Y1.4720  
G01 X-0.8440 Y1.5390  
G01 X-0.9596 Y1.4234  
G01 X-0.9634 Y1.4212  
G01 X-0.9678 Y1.4200  
G01 X-1.5392 Y1.4200  
G01 X-1.5436 Y1.4212  
G01 X-1.5474 Y1.4234  
G01 X-1.5506 Y1.4266  
G01 X-1.5883 Y1.4642  
G01 X-1.5907 Y1.4632  
G01 X-1.5968 Y1.4620  
G01 X-1.6032 Y1.4620  
G01 X-1.6093 Y1.4632  
G01 X-1.6117 Y1.4642  
G01 X-1.6670 Y1.4090  
G01 X-1.6670 Y1.2283  
G01 X-1.6669 Y1.2273  
G01 X-1.6670 Y1.2261  
G01 X-1.6670 Y1.2248  
G01 X-1.6672 Y1.2238  
G01 X-1.6674 Y1.2229  
G01 X-1.6678 Y1.2217  
G01 X-1.6680 Y1.2210  
G01 X-1.6680 Y1.1930  
G01 X-1.6074 Y1.1324  
G01 X-1.6052 Y1.1286  
G01 X-1.6040 Y1.1242  
G01 X-1.6040 Y0.9728  
G01 X-1.6052 Y0.9684  
G01 X-1.6074 Y0.9646  
G01 X-1.6106 Y0.9614  
G01 X-1.6584 Y0.9136  
G01 X-1.6580 Y0.9133  
G01 X-1.6580 Y0.8867  
G01 X-1.6670 Y0.8777  
G01 X-1.6670 Y0.6880  
G01 X-1.6541 Y0.6751  
G01 X-1.6532 Y0.6760  
G01 X-1.6068 Y0.6760  
G01 X-1.5740 Y0.6432  
G01 X-1.5740 Y0.6350  
G01 X-1.5120 Y0.6350  
G01 X-1.5120 Y0.6552  
G01 X-1.5108 Y0.6613  
G01 X-1.5084 Y0.6672  
G01 X-1.5049 Y0.6724  
G01 X-1.5004 Y0.6769  
G01 X-1.4952 Y0.6804  
G01 X-1.4893 Y0.6828  
G01 X-1.4832 Y0.6840  
G01 X-1.4768 Y0.6840  
G01 X-1.4707 Y0.6828  
G01 X-1.4648 Y0.6804  
G01 X-1.4596 Y0.6769  
G01 X-1.4551 Y0.6724  
G01 X-1.4516 Y0.6672  
G01 X-1.4492 Y0.6613  
G01 X-1.4480 Y0.6552  
G01 X-1.4480 Y0.5968  
G01 X-1.4492 Y0.5907  
G01 X-1.4516 Y0.5848  
G01 X-1.4551 Y0.5796  
G01 X-1.4596 Y0.5751  
G01 X-1.4648 Y0.5716  
G01 X-1.4707 Y0.5692  
G01 X-1.4768 Y0.5680  
G01 X-1.4832 Y0.5680  
G01 X-1.4893 Y0.5692  
G01 X-1.4952 Y0.5716  
G01 X-1.5004 Y0.5751  
G01 X-1.5049 Y0.5796  
G01 X-1.5084 Y0.5848  
G01 X-1.5108 Y0.5907  
G01 X-1.5120 Y0.5968  
G01 X-1.5120 Y0.6010  
G01 X-1.5740 Y0.6010  
G01 X-1.5740 Y0.5968  
G01 X-1.6068 Y0.5640  
G01 X-1.6532 Y0.5640  
G01 X-1.6860 Y0.5968  
G01 X-1.6860 Y0.6432  
G01 X-1.6781 Y0.6511  
G01 X-1.6840 Y0.6570  
G01 X-1.7576 Y0.5834  
G01 X-1.7614 Y0.5812  
G01 X-1.7658 Y0.5800  
G01 X-2.1640 Y0.5800  
G01 X-2.1640 Y0.5668  
G01 X-2.1968 Y0.5340  
G01 X-2.2432 Y0.5340  
G01 X-2.2760 Y0.5668  
G01 X-2.2760 Y0.6132  
G01 X-2.2731 Y0.6161  
G01 X-2.3486 Y0.6916  
G01 X-2.3508 Y0.6954  
G01 X-2.3520 Y0.6998  
G01 X-2.3520 Y0.7690  
G01 X-2.6580 Y0.7690  
G01 X-2.6580 Y0.7667  
G01 X-2.6767 Y0.7480  
G01 X-2.7033 Y0.7480  
G01 X-2.7220 Y0.7667  
G01 X-2.7220 Y0.7690  
G01 X-2.7782 Y0.7690  
G01 X-2.7826 Y0.7702  
G01 X-2.7864 Y0.7724  
G01 X-2.7896 Y0.7756  
G01 X-2.9217 Y0.9077  
G01 X-2.9248 Y0.9056  
G01 X-2.9307 Y0.9032  
G01 X-2.9368 Y0.9020  
G01 X-2.9432 Y0.9020  
G01 X-2.9493 Y0.9032  
G01 X-2.9552 Y0.9056  
G01 X-2.9604 Y0.9091  
G01 X-2.9649 Y0.9136  
G01 X-2.9684 Y0.9188  
G01 X-2.9708 Y0.9247  
G01 X-2.9720 Y0.9308  
G01 X-2.9720 Y0.9892  
G01 X-2.9708 Y0.9953  
G01 X-2.9684 Y1.0012  
G01 X-2.9649 Y1.0064  
G01 X-2.9604 Y1.0109  
G01 X-2.9552 Y1.0144  
G01 X-2.9493 Y1.0168  
G01 X-2.9432 Y1.0180  
G01 X-2.9368 Y1.0180  
G01 X-2.9307 Y1.0168  
G01 X-2.9248 Y1.0144  
G01 X-2.9196 Y1.0109  
G01 X-2.9151 Y1.0064  
G01 X-2.9116 Y1.0012  
G01 X-2.9092 Y0.9953  
G01 X-2.9080 Y0.9892  
G01 X-2.9080 Y0.9620  
G01 X-2.9079 Y0.9619  
G01 X-2.9072 Y0.9606  
G01 X-2.9070 Y0.9599  
G01 X-2.9067 Y0.9593  
G01 X-2.9064 Y0.9578  
G01 X-2.9060 Y0.9562  
G01 X-2.9060 Y0.9556  
G01 X-2.9059 Y0.9549  
G01 X-2.9060 Y0.9533  
G01 X-2.9060 Y0.9400  
G01 X-2.7690 Y0.8030  
G01 X-2.7123 Y0.8030  
G01 X-2.7033 Y0.8120  
G01 X-2.6767 Y0.8120  
G01 X-2.6677 Y0.8030  
G01 X-2.3520 Y0.8030  
G01 X-2.3520 Y0.8780  
G01 X-2.3533 Y0.8780  
G01 X-2.3720 Y0.8967  
G01 X-2.3720 Y0.9233  
G01 X-2.3533 Y0.9420  
G01 X-2.3267 Y0.9420  
G01 X-2.3080 Y0.9233  
G01 X-2.3080 Y0.8967  
G01 X-2.3180 Y0.8867  
G01 X-2.3180 Y0.7090  
G01 X-2.2491 Y0.6401  
G01 X-2.2432 Y0.6460  
G01 X-2.1968 Y0.6460  
G01 X-2.1648 Y0.6140  
G01 X-1.7750 Y0.6140  
G01 X-1.7010 Y0.6880  
G01 X-1.7010 Y0.8680  
G01 X-1.7033 Y0.8680  
G01 X-1.7220 Y0.8867  
G01 X-1.7220 Y0.9133  
G01 X-1.7033 Y0.9320  
G01 X-1.6880 Y0.9320  
G01 X-1.6380 Y0.9820  
G01 X-1.6380 Y1.1150  
G01 X-1.6876 Y1.1645  
G01 X-1.6907 Y1.1632  
G01 X-1.6968 Y1.1620  
G01 X-1.7032 Y1.1620  
G01 X-1.7093 Y1.1632  
G01 X-1.7152 Y1.1656  
G01 X-1.7204 Y1.1691  
G01 X-1.7249 Y1.1736  
G01 X-1.7284 Y1.1788  
G01 X-1.7308 Y1.1847  
G01 X-1.7320 Y1.1908  
G01 X-1.7320 Y1.2492  
G01 X-1.7308 Y1.2553  
G01 X-1.7284 Y1.2612  
G01 X-1.7249 Y1.2664  
G01 X-1.7204 Y1.2709  
G01 X-1.7152 Y1.2744  
G01 X-1.7093 Y1.2768  
G01 X-1.7032 Y1.2780  
G01 X-1.7010 Y1.2780  
G01 X-1.7010 Y1.3360  
G01 X-2.3792 Y1.3360  
G01 X-2.3836 Y1.3372  
G01 X-2.3874 Y1.3394  
G01 X-2.3906 Y1.3426  
G01 X-2.5730 Y1.5250  
G01 X-2.7092 Y1.5250  
G01 X-2.7092 Y1.5247  
G01 X-2.7116 Y1.5188  
G01 X-2.7151 Y1.5136  
G01 X-2.7196 Y1.5091  
G01 X-2.7248 Y1.5056  
G01 X-2.7307 Y1.5032  
G01 X-2.7368 Y1.5020  
G01 X-2.7432 Y1.5020  
G01 X-2.7493 Y1.5032  
G01 X-2.7552 Y1.5056  
G01 X-2.7604 Y1.5091  
G01 X-2.7649 Y1.5136  
G01 X-2.7684 Y1.5188  
G01 X-2.7708 Y1.5247  
G01 X-2.7720 Y1.5308  
G01 X-2.7720 Y1.5892  
G01 X-2.7708 Y1.5953  
G01 X-2.7684 Y1.6012  
G01 X-2.7649 Y1.6064  
G01 X-2.7604 Y1.6109  
G01 X-2.7552 Y1.6144  
G01 X-2.7493 Y1.6168  
G01 X-2.7432 Y1.6180  
G01 X-2.7368 Y1.6180  
G01 X-2.7307 Y1.6168  
G01 X-2.7248 Y1.6144  
G01 X-2.7196 Y1.6109  
G01 X-2.7151 Y1.6064  
G01 X-2.7116 Y1.6012  
G01 X-2.7092 Y1.5953  
G01 X-2.7080 Y1.5892  
G01 X-2.7080 Y1.5590  
G01 X-2.5638 Y1.5590  
G01 X-2.5594 Y1.5578  
G01 X-2.5556 Y1.5556  
G01 X-2.3700 Y1.3700  
G01 X-1.7010 Y1.3700  
G01 X-1.7010 Y1.4182  
G01 X-1.6998 Y1.4226  
G01 X-1.6976 Y1.4264  
G01 X-1.6320 Y1.4920  
G01 X-1.6320 Y1.5492  
G01 X-1.6319 Y1.5498  
G01 X-1.8590 Y1.7770  
G01 X-2.0760 Y1.7770  
G01 X-2.1356 Y1.7174  
G01 X-2.1394 Y1.7152  
G01 X-2.1438 Y1.7140  
G01 X-2.2470 Y1.7140  
G01 X-2.2470 Y1.7122  
G01 X-2.2722 Y1.6870  
G01 X-2.3078 Y1.6870  
G01 X-2.3330 Y1.7122  
G01 X-2.3330 Y1.7478  
G01 X-2.3078 Y1.7730  
G01 X-2.2722 Y1.7730  
G01 X-2.2472 Y1.7480  
G01 X-2.1530 Y1.7480  
G01 X-2.0966 Y1.8044  
G01 X-2.0934 Y1.8076  
G01 X-2.0896 Y1.8098  
G01 X-2.0852 Y1.8110  
G01 X-1.8498 Y1.8110  
G01 X-1.8454 Y1.8098  
G01 X-1.8416 Y1.8076  
G01 X-1.6103 Y1.5764  
G01 X-1.6093 Y1.5768  
G01 X-1.6032 Y1.5780  
G01 X-1.5968 Y1.5780  
G01 X-1.5907 Y1.5768  
G01 X-1.5897 Y1.5764  
G01 X-1.4424 Y1.7236  
G01 X-1.4386 Y1.7258  
G01 X-1.4342 Y1.7270  
G01 X-1.3960 Y1.7270  
G01 X-1.3960 Y1.7432  
G01 X-1.3632 Y1.7760  
G01 X-1.3168 Y1.7760  
G01 X-1.2840 Y1.7432  
G01 X-1.2840 Y1.6968  
G01 X-1.3168 Y1.6640  
G01 X-1.3632 Y1.6640  
G01 X-1.3922 Y1.6930  
G01 X-1.4250 Y1.6930  
G01 X-1.5681 Y1.5498  
G01 X-1.5680 Y1.5492  
G01 X-1.5680 Y1.4920  
G01 X-1.5300 Y1.4540  
G01 X-0.9770 Y1.4540  
G01 X-0.8680 Y1.5630  
G01 X-0.9790 Y1.6740  
G01 X-1.0232 Y1.6740  
G01 X-1.0560 Y1.7068  
G01 X-1.0560 Y1.7532  
G01 X-1.0232 Y1.7860  
G01 X-0.9768 Y1.7860  
G01 X-0.9440 Y1.7532  
G01 X-0.9440 Y1.7068  
G01 X-0.9539 Y1.6969  
G01 X-0.8336 Y1.5766  
G01 X-0.7464 Y1.4894  
G01 X-0.7442 Y1.4856  
G01 X-0.7430 Y1.4812  
G01 X-0.7430 Y1.4620  
G01 X-0.7367 Y1.4620  
G01 X-0.7180 Y1.4433  
G01 X-0.7180 Y1.4167  
G01 X-0.7189 Y1.4158  
G01 X-0.6606 Y1.3216  
G01 X-0.6604 Y1.3214  
G01 X-0.6594 Y1.3197  
G01 X-0.6584 Y1.3180  
G01 X-0.6583 Y1.3178  
G01 X-0.6582 Y1.3176  
G01 X-0.6576 Y1.3156  
G01 X-0.6571 Y1.3138  
G01 X-0.6571 Y1.3135  
G01 X-0.6570 Y1.3132  
G01 X-0.6570 Y1.3113  
G01 X-0.6569 Y1.3093  
G01 X-0.6570 Y1.3090  
G01 X-0.6570 Y0.1538  
G01 X-0.6582 Y0.1494  
G01 X-0.6604 Y0.1456  
G00 Z0.0500  
G00 X-0.7840 Y0.1468  
G01 Z-0.0040 F10    
G01 X-0.8168 Y0.1140  F20    
G01 X-0.8632 Y0.1140  
G01 X-0.8960 Y0.1468  
G01 X-0.8960 Y0.1839  
G01 X-0.9996 Y0.2464  
G01 X-1.0014 Y0.2474  
G01 X-1.0016 Y0.2475  
G01 X-1.0017 Y0.2476  
G01 X-1.0031 Y0.2491  
G01 X-1.0046 Y0.2506  
G01 X-1.0047 Y0.2507  
G01 X-1.0048 Y0.2508  
G01 X-1.0058 Y0.2526  
G01 X-1.0068 Y0.2544  
G01 X-1.0069 Y0.2546  
G01 X-1.0070 Y0.2547  
G01 X-1.0075 Y0.2568  
G01 X-1.0080 Y0.2588  
G01 X-1.0080 Y0.2589  
G01 X-1.0080 Y0.2591  
G01 X-1.0080 Y0.2612  
G01 X-1.0080 Y0.5480  
G01 X-1.0133 Y0.5480  
G01 X-1.0320 Y0.5667  
G01 X-1.0320 Y0.5933  
G01 X-1.0133 Y0.6120  
G01 X-0.9867 Y0.6120  
G01 X-0.9680 Y0.5933  
G01 X-0.9680 Y0.5667  
G01 X-0.9740 Y0.5607  
G01 X-0.9740 Y0.2706  
G01 X-0.8770 Y0.2122  
G01 X-0.8632 Y0.2260  
G01 X-0.8168 Y0.2260  
G01 X-0.7840 Y0.1932  
G01 X-0.7840 Y0.1468  
G00 Z0.0500  
G00 X-0.8480 Y0.2767  
G01 Z-0.0040 F10    
G01 X-0.8667 Y0.2580  F20    
G01 X-0.8933 Y0.2580  
G01 X-0.9120 Y0.2767  
G01 X-0.9120 Y0.3033  
G01 X-0.9030 Y0.3123  
G01 X-0.9030 Y0.5900  
G01 X-0.9804 Y0.6674  
G01 X-1.0436 Y0.6044  
G01 X-1.0474 Y0.6022  
G01 X-1.0518 Y0.6010  
G01 X-1.1480 Y0.6010  
G01 X-1.1480 Y0.5968  
G01 X-1.1492 Y0.5907  
G01 X-1.1516 Y0.5848  
G01 X-1.1551 Y0.5796  
G01 X-1.1596 Y0.5751  
G01 X-1.1648 Y0.5716  
G01 X-1.1707 Y0.5692  
G01 X-1.1768 Y0.5680  
G01 X-1.1832 Y0.5680  
G01 X-1.1847 Y0.5683  
G01 X-1.2714 Y0.4816  
G01 X-1.2746 Y0.4784  
G01 X-1.2784 Y0.4762  
G01 X-1.2828 Y0.4750  
G01 X-2.4650 Y0.4750  
G01 X-2.4650 Y0.3558  
G01 X-2.4470 Y0.3378  
G01 X-2.4470 Y0.3022  
G01 X-2.4650 Y0.2842  
G01 X-2.4650 Y0.2558  
G01 X-2.4470 Y0.2378  
G01 X-2.4470 Y0.2022  
G01 X-2.4722 Y0.1770  
G01 X-2.5078 Y0.1770  
G01 X-2.5330 Y0.2022  
G01 X-2.5330 Y0.2378  
G01 X-2.5078 Y0.2630  
G01 X-2.4990 Y0.2630  
G01 X-2.4990 Y0.2770  
G01 X-2.5078 Y0.2770  
G01 X-2.5330 Y0.3022  
G01 X-2.5330 Y0.3378  
G01 X-2.5078 Y0.3630  
G01 X-2.4990 Y0.3630  
G01 X-2.4990 Y0.5398  
G01 X-2.5160 Y0.5568  
G01 X-2.5160 Y0.6032  
G01 X-2.5036 Y0.6156  
G01 X-2.5474 Y0.6594  
G01 X-2.5520 Y0.6640  
G01 X-2.6607 Y0.6640  
G01 X-2.6767 Y0.6480  
G01 X-2.6798 Y0.6480  
G01 X-2.6806 Y0.6474  
G01 X-2.7236 Y0.6044  
G01 X-2.7274 Y0.6022  
G01 X-2.7318 Y0.6010  
G01 X-3.7652 Y0.6010  
G01 X-3.7696 Y0.6022  
G01 X-3.7734 Y0.6044  
G01 X-3.7766 Y0.6076  
G01 X-3.8396 Y0.6706  
G01 X-3.8418 Y0.6744  
G01 X-3.8430 Y0.6788  
G01 X-3.8430 Y0.9020  
G01 X-3.8432 Y0.9020  
G01 X-3.8493 Y0.9032  
G01 X-3.8552 Y0.9056  
G01 X-3.8604 Y0.9091  
G01 X-3.8649 Y0.9136  
G01 X-3.8684 Y0.9188  
G01 X-3.8708 Y0.9247  
G01 X-3.8720 Y0.9308  
G01 X-3.8720 Y0.9892  
G01 X-3.8708 Y0.9953  
G01 X-3.8684 Y1.0012  
G01 X-3.8649 Y1.0064  
G01 X-3.8604 Y1.0109  
G01 X-3.8552 Y1.0144  
G01 X-3.8493 Y1.0168  
G01 X-3.8432 Y1.0180  
G01 X-3.8368 Y1.0180  
G01 X-3.8307 Y1.0168  
G01 X-3.8248 Y1.0144  
G01 X-3.8196 Y1.0109  
G01 X-3.8151 Y1.0064  
G01 X-3.8116 Y1.0012  
G01 X-3.8092 Y0.9953  
G01 X-3.8080 Y0.9892  
G01 X-3.8080 Y0.9308  
G01 X-3.8090 Y0.9258  
G01 X-3.8090 Y0.6880  
G01 X-3.7560 Y0.6350  
G01 X-2.7410 Y0.6350  
G01 X-2.7156 Y0.6604  
G01 X-2.7220 Y0.6667  
G01 X-2.7220 Y0.6933  
G01 X-2.7033 Y0.7120  
G01 X-2.6767 Y0.7120  
G01 X-2.6627 Y0.6980  
G01 X-2.5428 Y0.6980  
G01 X-2.5397 Y0.6972  
G01 X-2.5397 Y0.7449  
G01 X-2.5388 Y0.7471  
G01 X-2.5371 Y0.7488  
G01 X-2.5349 Y0.7497  
G01 X-2.4851 Y0.7497  
G01 X-2.4829 Y0.7488  
G01 X-2.4812 Y0.7471  
G01 X-2.4803 Y0.7449  
G01 X-2.4803 Y0.6951  
G01 X-2.4812 Y0.6929  
G01 X-2.4829 Y0.6912  
G01 X-2.4851 Y0.6903  
G01 X-2.4960 Y0.6903  
G01 X-2.4964 Y0.6896  
G01 X-2.4996 Y0.6864  
G01 X-2.5130 Y0.6730  
G01 X-2.4760 Y0.6360  
G01 X-2.4368 Y0.6360  
G01 X-2.4040 Y0.6032  
G01 X-2.4040 Y0.5568  
G01 X-2.4368 Y0.5240  
G01 X-2.4650 Y0.5240  
G01 X-2.4650 Y0.5090  
G01 X-1.2920 Y0.5090  
G01 X-1.2107 Y0.5904  
G01 X-1.2108 Y0.5907  
G01 X-1.2120 Y0.5968  
G01 X-1.2120 Y0.6552  
G01 X-1.2108 Y0.6613  
G01 X-1.2084 Y0.6672  
G01 X-1.2049 Y0.6724  
G01 X-1.2004 Y0.6769  
G01 X-1.1952 Y0.6804  
G01 X-1.1893 Y0.6828  
G01 X-1.1832 Y0.6840  
G01 X-1.1768 Y0.6840  
G01 X-1.1707 Y0.6828  
G01 X-1.1648 Y0.6804  
G01 X-1.1596 Y0.6769  
G01 X-1.1551 Y0.6724  
G01 X-1.1516 Y0.6672  
G01 X-1.1492 Y0.6613  
G01 X-1.1480 Y0.6552  
G01 X-1.1480 Y0.6350  
G01 X-1.0610 Y0.6350  
G01 X-0.9870 Y0.7090  
G01 X-0.9870 Y0.7645  
G01 X-0.9871 Y0.7662  
G01 X-0.9870 Y0.7667  
G01 X-0.9870 Y0.7680  
G01 X-0.9933 Y0.7680  
G01 X-1.0120 Y0.7867  
G01 X-1.0120 Y0.8133  
G01 X-0.9933 Y0.8320  
G01 X-0.9667 Y0.8320  
G01 X-0.9490 Y0.8143  
G01 X-0.7530 Y1.0354  
G01 X-0.7530 Y1.0707  
G01 X-0.7559 Y1.1615  
G01 X-0.7560 Y1.1618  
G01 X-0.7560 Y1.1637  
G01 X-0.7561 Y1.1657  
G01 X-0.7560 Y1.1660  
G01 X-0.7560 Y1.2944  
G01 X-0.7571 Y1.2941  
G01 X-0.7574 Y1.2941  
G01 X-0.7578 Y1.2940  
G01 X-0.7597 Y1.2940  
G01 X-0.7616 Y1.2939  
G01 X-0.7619 Y1.2940  
G01 X-1.5090 Y1.2940  
G01 X-1.5680 Y1.2350  
G01 X-1.5680 Y1.1980  
G01 X-1.5024 Y1.1324  
G01 X-1.5002 Y1.1286  
G01 X-1.4990 Y1.1242  
G01 X-1.4990 Y0.9720  
G01 X-1.4967 Y0.9720  
G01 X-1.4780 Y0.9533  
G01 X-1.4780 Y0.9267  
G01 X-1.4967 Y0.9080  
G01 X-1.5233 Y0.9080  
G01 X-1.5420 Y0.9267  
G01 X-1.5420 Y0.9533  
G01 X-1.5330 Y0.9623  
G01 X-1.5330 Y1.1150  
G01 X-1.5841 Y1.1661  
G01 X-1.5848 Y1.1656  
G01 X-1.5907 Y1.1632  
G01 X-1.5968 Y1.1620  
G01 X-1.6032 Y1.1620  
G01 X-1.6093 Y1.1632  
G01 X-1.6152 Y1.1656  
G01 X-1.6204 Y1.1691  
G01 X-1.6249 Y1.1736  
G01 X-1.6284 Y1.1788  
G01 X-1.6308 Y1.1847  
G01 X-1.6320 Y1.1908  
G01 X-1.6320 Y1.2492  
G01 X-1.6308 Y1.2553  
G01 X-1.6284 Y1.2612  
G01 X-1.6249 Y1.2664  
G01 X-1.6204 Y1.2709  
G01 X-1.6152 Y1.2744  
G01 X-1.6093 Y1.2768  
G01 X-1.6032 Y1.2780  
G01 X-1.5968 Y1.2780  
G01 X-1.5907 Y1.2768  
G01 X-1.5848 Y1.2744  
G01 X-1.5800 Y1.2711  
G01 X-1.5296 Y1.3214  
G01 X-1.5264 Y1.3246  
G01 X-1.5226 Y1.3268  
G01 X-1.5182 Y1.3280  
G01 X-0.7820 Y1.3280  
G01 X-0.7820 Y1.3433  
G01 X-0.7633 Y1.3620  
G01 X-0.7367 Y1.3620  
G01 X-0.7180 Y1.3433  
G01 X-0.7180 Y1.3167  
G01 X-0.7220 Y1.3127  
G01 X-0.7220 Y1.3110  
G01 X-0.7220 Y1.3088  
G01 X-0.7220 Y1.1643  
G01 X-0.7191 Y1.0735  
G01 X-0.7190 Y1.0732  
G01 X-0.7190 Y1.0713  
G01 X-0.7189 Y1.0693  
G01 X-0.7190 Y1.0690  
G01 X-0.7190 Y1.0295  
G01 X-0.7189 Y1.0278  
G01 X-0.7190 Y1.0273  
G01 X-0.7190 Y1.0268  
G01 X-0.7194 Y1.0251  
G01 X-0.7198 Y1.0234  
G01 X-0.7200 Y1.0229  
G01 X-0.7202 Y1.0224  
G01 X-0.7210 Y1.0209  
G01 X-0.7218 Y1.0194  
G01 X-0.7221 Y1.0190  
G01 X-0.7224 Y1.0186  
G01 X-0.7236 Y1.0173  
G01 X-0.9530 Y0.7586  
G01 X-0.9530 Y0.6880  
G01 X-0.8724 Y0.6074  
G01 X-0.8702 Y0.6036  
G01 X-0.8690 Y0.5992  
G01 X-0.8690 Y0.3220  
G01 X-0.8667 Y0.3220  
G01 X-0.8480 Y0.3033  
G01 X-0.8480 Y0.2767  
G00 Z0.0500  
G00 X-0.9867 Y0.2120  
G01 Z-0.0040 F10    
G01 X-0.9680 Y0.1933  F20    
G01 X-0.9680 Y0.1667  
G01 X-0.9867 Y0.1480  
G01 X-1.0133 Y0.1480  
G01 X-1.0253 Y0.1600  
G01 X-1.0470 Y0.1600  
G01 X-1.0570 Y0.1500  
G01 X-1.0570 Y0.1466  
G01 X-1.0581 Y0.1399  
G01 X-1.0602 Y0.1335  
G01 X-1.0632 Y0.1275  
G01 X-1.0672 Y0.1220  
G01 X-1.0720 Y0.1172  
G01 X-1.0775 Y0.1132  
G01 X-1.0835 Y0.1102  
G01 X-1.0899 Y0.1081  
G01 X-1.0966 Y0.1070  
G01 X-1.1034 Y0.1070  
G01 X-1.1101 Y0.1081  
G01 X-1.1165 Y0.1102  
G01 X-1.1225 Y0.1132  
G01 X-1.1280 Y0.1172  
G01 X-1.1288 Y0.1180  
G01 X-1.1612 Y0.1180  
G01 X-1.1656 Y0.1192  
G01 X-1.1694 Y0.1214  
G01 X-1.1726 Y0.1246  
G01 X-1.2669 Y0.2188  
G01 X-1.2707 Y0.2172  
G01 X-1.2768 Y0.2160  
G01 X-1.2832 Y0.2160  
G01 X-1.2893 Y0.2172  
G01 X-1.2952 Y0.2196  
G01 X-1.3004 Y0.2231  
G01 X-1.3049 Y0.2276  
G01 X-1.3084 Y0.2328  
G01 X-1.3108 Y0.2387  
G01 X-1.3120 Y0.2448  
G01 X-1.3120 Y0.3032  
G01 X-1.3108 Y0.3093  
G01 X-1.3084 Y0.3152  
G01 X-1.3049 Y0.3204  
G01 X-1.3004 Y0.3249  
G01 X-1.2952 Y0.3284  
G01 X-1.2893 Y0.3308  
G01 X-1.2832 Y0.3320  
G01 X-1.2768 Y0.3320  
G01 X-1.2707 Y0.3308  
G01 X-1.2648 Y0.3284  
G01 X-1.2596 Y0.3249  
G01 X-1.2551 Y0.3204  
G01 X-1.2516 Y0.3152  
G01 X-1.2492 Y0.3093  
G01 X-1.2480 Y0.3032  
G01 X-1.2480 Y0.2880  
G01 X-1.2478 Y0.2876  
G01 X-1.2475 Y0.2859  
G01 X-1.2470 Y0.2842  
G01 X-1.2470 Y0.2837  
G01 X-1.2469 Y0.2832  
G01 X-1.2470 Y0.2815  
G01 X-1.2470 Y0.2470  
G01 X-1.1520 Y0.1520  
G01 X-1.1430 Y0.1520  
G01 X-1.1430 Y0.1534  
G01 X-1.1419 Y0.1601  
G01 X-1.1398 Y0.1665  
G01 X-1.1368 Y0.1725  
G01 X-1.1328 Y0.1780  
G01 X-1.1280 Y0.1828  
G01 X-1.1225 Y0.1868  
G01 X-1.1165 Y0.1898  
G01 X-1.1101 Y0.1919  
G01 X-1.1034 Y0.1930  
G01 X-1.0966 Y0.1930  
G01 X-1.0899 Y0.1919  
G01 X-1.0835 Y0.1898  
G01 X-1.0775 Y0.1868  
G01 X-1.0721 Y0.1829  
G01 X-1.0644 Y0.1906  
G01 X-1.0606 Y0.1928  
G01 X-1.0562 Y0.1940  
G01 X-1.0313 Y0.1940  
G01 X-1.0133 Y0.2120  
G01 X-0.9867 Y0.2120  
G00 Z0.0500  
G00 X-1.1551 Y0.2276  
G01 Z-0.0040 F10    
G01 X-1.1596 Y0.2231  F20    
G01 X-1.1648 Y0.2196  
G01 X-1.1707 Y0.2172  
G01 X-1.1768 Y0.2160  
G01 X-1.1832 Y0.2160  
G01 X-1.1893 Y0.2172  
G01 X-1.1952 Y0.2196  
G01 X-1.2004 Y0.2231  
G01 X-1.2049 Y0.2276  
G01 X-1.2084 Y0.2328  
G01 X-1.2108 Y0.2387  
G01 X-1.2120 Y0.2448  
G01 X-1.2120 Y0.3032  
G01 X-1.2108 Y0.3093  
G01 X-1.2084 Y0.3152  
G01 X-1.2049 Y0.3204  
G01 X-1.2004 Y0.3249  
G01 X-1.1952 Y0.3284  
G01 X-1.1893 Y0.3308  
G01 X-1.1832 Y0.3320  
G01 X-1.1768 Y0.3320  
G01 X-1.1707 Y0.3308  
G01 X-1.1648 Y0.3284  
G01 X-1.1596 Y0.3249  
G01 X-1.1551 Y0.3204  
G01 X-1.1516 Y0.3152  
G01 X-1.1492 Y0.3093  
G01 X-1.1480 Y0.3032  
G01 X-1.1480 Y0.2448  
G01 X-1.1492 Y0.2387  
G01 X-1.1516 Y0.2328  
G01 X-1.1551 Y0.2276  
G00 Z0.0500  
G00 X-1.3551 Y0.2276  
G01 Z-0.0040 F10    
G01 X-1.3596 Y0.2231  F20    
G01 X-1.3648 Y0.2196  
G01 X-1.3707 Y0.2172  
G01 X-1.3730 Y0.2168  
G01 X-1.3730 Y0.1835  
G01 X-1.3720 Y0.1828  
G01 X-1.3672 Y0.1780  
G01 X-1.3632 Y0.1725  
G01 X-1.3602 Y0.1665  
G01 X-1.3581 Y0.1601  
G01 X-1.3570 Y0.1534  
G01 X-1.3570 Y0.1466  
G01 X-1.3581 Y0.1399  
G01 X-1.3602 Y0.1335  
G01 X-1.3632 Y0.1275  
G01 X-1.3672 Y0.1220  
G01 X-1.3720 Y0.1172  
G01 X-1.3775 Y0.1132  
G01 X-1.3835 Y0.1102  
G01 X-1.3899 Y0.1081  
G01 X-1.3966 Y0.1070  
G01 X-1.4034 Y0.1070  
G01 X-1.4101 Y0.1081  
G01 X-1.4165 Y0.1102  
G01 X-1.4225 Y0.1132  
G01 X-1.4280 Y0.1172  
G01 X-1.4328 Y0.1220  
G01 X-1.4364 Y0.1270  
G01 X-1.5560 Y0.1270  
G01 X-1.5563 Y0.1269  
G01 X-1.5583 Y0.1270  
G01 X-1.5602 Y0.1270  
G01 X-1.5605 Y0.1271  
G01 X-1.5608 Y0.1271  
G01 X-1.5626 Y0.1276  
G01 X-1.5631 Y0.1278  
G01 X-1.5768 Y0.1140  
G01 X-1.6232 Y0.1140  
G01 X-1.6560 Y0.1468  
G01 X-1.6560 Y0.1932  
G01 X-1.6232 Y0.2260  
G01 X-1.5768 Y0.2260  
G01 X-1.5440 Y0.1932  
G01 X-1.5440 Y0.1610  
G01 X-1.4416 Y0.1610  
G01 X-1.4398 Y0.1665  
G01 X-1.4368 Y0.1725  
G01 X-1.4328 Y0.1780  
G01 X-1.4280 Y0.1828  
G01 X-1.4225 Y0.1868  
G01 X-1.4165 Y0.1898  
G01 X-1.4101 Y0.1919  
G01 X-1.4070 Y0.1924  
G01 X-1.4070 Y0.2308  
G01 X-1.4084 Y0.2328  
G01 X-1.4108 Y0.2387  
G01 X-1.4120 Y0.2448  
G01 X-1.4120 Y0.3032  
G01 X-1.4108 Y0.3093  
G01 X-1.4084 Y0.3152  
G01 X-1.4049 Y0.3204  
G01 X-1.4004 Y0.3249  
G01 X-1.3952 Y0.3284  
G01 X-1.3893 Y0.3308  
G01 X-1.3832 Y0.3320  
G01 X-1.3768 Y0.3320  
G01 X-1.3707 Y0.3308  
G01 X-1.3648 Y0.3284  
G01 X-1.3596 Y0.3249  
G01 X-1.3551 Y0.3204  
G01 X-1.3516 Y0.3152  
G01 X-1.3492 Y0.3093  
G01 X-1.3480 Y0.3032  
G01 X-1.3480 Y0.2448  
G01 X-1.3492 Y0.2387  
G01 X-1.3516 Y0.2328  
G01 X-1.3551 Y0.2276  
G00 Z0.0500  
G00 X-1.4551 Y0.2276  
G01 Z-0.0040 F10    
G01 X-1.4596 Y0.2231  F20    
G01 X-1.4648 Y0.2196  
G01 X-1.4707 Y0.2172  
G01 X-1.4768 Y0.2160  
G01 X-1.4832 Y0.2160  
G01 X-1.4893 Y0.2172  
G01 X-1.4952 Y0.2196  
G01 X-1.5004 Y0.2231  
G01 X-1.5049 Y0.2276  
G01 X-1.5084 Y0.2328  
G01 X-1.5108 Y0.2387  
G01 X-1.5120 Y0.2448  
G01 X-1.5120 Y0.3032  
G01 X-1.5108 Y0.3093  
G01 X-1.5084 Y0.3152  
G01 X-1.5049 Y0.3204  
G01 X-1.5004 Y0.3249  
G01 X-1.4952 Y0.3284  
G01 X-1.4893 Y0.3308  
G01 X-1.4832 Y0.3320  
G01 X-1.4768 Y0.3320  
G01 X-1.4707 Y0.3308  
G01 X-1.4648 Y0.3284  
G01 X-1.4596 Y0.3249  
G01 X-1.4551 Y0.3204  
G01 X-1.4516 Y0.3152  
G01 X-1.4492 Y0.3093  
G01 X-1.4480 Y0.3032  
G01 X-1.4480 Y0.2448  
G01 X-1.4492 Y0.2387  
G01 X-1.4516 Y0.2328  
G01 X-1.4551 Y0.2276  
G00 Z0.0500  
G00 X-1.4004 Y0.5751  
G01 Z-0.0040 F10    
G01 X-1.4049 Y0.5796  F20    
G01 X-1.4084 Y0.5848  
G01 X-1.4108 Y0.5907  
G01 X-1.4120 Y0.5968  
G01 X-1.4120 Y0.6552  
G01 X-1.4108 Y0.6613  
G01 X-1.4084 Y0.6672  
G01 X-1.4070 Y0.6692  
G01 X-1.4070 Y0.7817  
G01 X-1.4120 Y0.7867  
G01 X-1.4120 Y0.8133  
G01 X-1.3933 Y0.8320  
G01 X-1.3680 Y0.8320  
G01 X-1.1340 Y1.0660  
G01 X-1.1340 Y1.2046  
G01 X-1.1341 Y1.2054  
G01 X-1.1340 Y1.2068  
G01 X-1.1340 Y1.2082  
G01 X-1.1338 Y1.2090  
G01 X-1.1337 Y1.2099  
G01 X-1.1332 Y1.2112  
G01 X-1.1328 Y1.2126  
G01 X-1.1324 Y1.2133  
G01 X-1.1321 Y1.2141  
G01 X-1.1320 Y1.2142  
G01 X-1.1320 Y1.2492  
G01 X-1.1308 Y1.2553  
G01 X-1.1284 Y1.2612  
G01 X-1.1249 Y1.2664  
G01 X-1.1204 Y1.2709  
G01 X-1.1152 Y1.2744  
G01 X-1.1093 Y1.2768  
G01 X-1.1032 Y1.2780  
G01 X-1.0968 Y1.2780  
G01 X-1.0907 Y1.2768  
G01 X-1.0848 Y1.2744  
G01 X-1.0796 Y1.2709  
G01 X-1.0751 Y1.2664  
G01 X-1.0716 Y1.2612  
G01 X-1.0692 Y1.2553  
G01 X-1.0680 Y1.2492  
G01 X-1.0680 Y1.1908  
G01 X-1.0692 Y1.1847  
G01 X-1.0716 Y1.1788  
G01 X-1.0751 Y1.1736  
G01 X-1.0796 Y1.1691  
G01 X-1.0848 Y1.1656  
G01 X-1.0907 Y1.1632  
G01 X-1.0968 Y1.1620  
G01 X-1.1000 Y1.1620  
G01 X-1.1000 Y1.0568  
G01 X-1.1012 Y1.0524  
G01 X-1.1034 Y1.0486  
G01 X-1.3480 Y0.8040  
G01 X-1.3480 Y0.7867  
G01 X-1.3667 Y0.7680  
G01 X-1.3730 Y0.7680  
G01 X-1.3730 Y0.6832  
G01 X-1.3707 Y0.6828  
G01 X-1.3648 Y0.6804  
G01 X-1.3596 Y0.6769  
G01 X-1.3551 Y0.6724  
G01 X-1.3516 Y0.6672  
G01 X-1.3492 Y0.6613  
G01 X-1.3480 Y0.6552  
G01 X-1.3480 Y0.5968  
G01 X-1.3492 Y0.5907  
G01 X-1.3516 Y0.5848  
G01 X-1.3551 Y0.5796  
G01 X-1.3596 Y0.5751  
G01 X-1.3648 Y0.5716  
G01 X-1.3707 Y0.5692  
G01 X-1.3768 Y0.5680  
G01 X-1.3832 Y0.5680  
G01 X-1.3893 Y0.5692  
G01 X-1.3952 Y0.5716  
G01 X-1.4004 Y0.5751  
G00 Z0.0500  
G00 X-1.3004 Y0.5751  
G01 Z-0.0040 F10    
G01 X-1.3049 Y0.5796  F20    
G01 X-1.3084 Y0.5848  
G01 X-1.3108 Y0.5907  
G01 X-1.3120 Y0.5968  
G01 X-1.3120 Y0.6552  
G01 X-1.3108 Y0.6613  
G01 X-1.3084 Y0.6672  
G01 X-1.3049 Y0.6724  
G01 X-1.3004 Y0.6769  
G01 X-1.2952 Y0.6804  
G01 X-1.2893 Y0.6828  
G01 X-1.2832 Y0.6840  
G01 X-1.2768 Y0.6840  
G01 X-1.2707 Y0.6828  
G01 X-1.2648 Y0.6804  
G01 X-1.2596 Y0.6769  
G01 X-1.2551 Y0.6724  
G01 X-1.2516 Y0.6672  
G01 X-1.2492 Y0.6613  
G01 X-1.2480 Y0.6552  
G01 X-1.2480 Y0.5968  
G01 X-1.2492 Y0.5907  
G01 X-1.2516 Y0.5848  
G01 X-1.2551 Y0.5796  
G01 X-1.2596 Y0.5751  
G01 X-1.2648 Y0.5716  
G01 X-1.2707 Y0.5692  
G01 X-1.2768 Y0.5680  
G01 X-1.2832 Y0.5680  
G01 X-1.2893 Y0.5692  
G01 X-1.2952 Y0.5716  
G01 X-1.3004 Y0.5751  
G00 Z0.0500  
G00 X-1.3167 Y1.0380  
G01 Z-0.0040 F10    
G01 X-1.3433 Y1.0380  F20    
G01 X-1.3620 Y1.0567  
G01 X-1.3620 Y1.0833  
G01 X-1.3433 Y1.1020  
G01 X-1.3290 Y1.1020  
G01 X-1.2320 Y1.1990  
G01 X-1.2320 Y1.2492  
G01 X-1.2308 Y1.2553  
G01 X-1.2284 Y1.2612  
G01 X-1.2249 Y1.2664  
G01 X-1.2204 Y1.2709  
G01 X-1.2152 Y1.2744  
G01 X-1.2093 Y1.2768  
G01 X-1.2032 Y1.2780  
G01 X-1.1968 Y1.2780  
G01 X-1.1907 Y1.2768  
G01 X-1.1848 Y1.2744  
G01 X-1.1796 Y1.2709  
G01 X-1.1751 Y1.2664  
G01 X-1.1716 Y1.2612  
G01 X-1.1692 Y1.2553  
G01 X-1.1680 Y1.2492  
G01 X-1.1680 Y1.1908  
G01 X-1.1692 Y1.1847  
G01 X-1.1716 Y1.1788  
G01 X-1.1751 Y1.1736  
G01 X-1.1796 Y1.1691  
G01 X-1.1848 Y1.1656  
G01 X-1.1907 Y1.1632  
G01 X-1.1968 Y1.1620  
G01 X-1.2032 Y1.1620  
G01 X-1.2093 Y1.1632  
G01 X-1.2152 Y1.1656  
G01 X-1.2165 Y1.1665  
G01 X-1.2989 Y1.0841  
G01 X-1.2980 Y1.0833  
G01 X-1.2980 Y1.0567  
G01 X-1.3167 Y1.0380  
G00 Z0.0500  
G00 X-1.3152 Y1.1656  
G01 Z-0.0040 F10    
G01 X-1.3204 Y1.1691  F20    
G01 X-1.3249 Y1.1736  
G01 X-1.3284 Y1.1788  
G01 X-1.3308 Y1.1847  
G01 X-1.3320 Y1.1908  
G01 X-1.3320 Y1.2492  
G01 X-1.3308 Y1.2553  
G01 X-1.3284 Y1.2612  
G01 X-1.3249 Y1.2664  
G01 X-1.3204 Y1.2709  
G01 X-1.3152 Y1.2744  
G01 X-1.3093 Y1.2768  
G01 X-1.3032 Y1.2780  
G01 X-1.2968 Y1.2780  
G01 X-1.2907 Y1.2768  
G01 X-1.2848 Y1.2744  
G01 X-1.2796 Y1.2709  
G01 X-1.2751 Y1.2664  
G01 X-1.2716 Y1.2612  
G01 X-1.2692 Y1.2553  
G01 X-1.2680 Y1.2492  
G01 X-1.2680 Y1.1908  
G01 X-1.2692 Y1.1847  
G01 X-1.2716 Y1.1788  
G01 X-1.2751 Y1.1736  
G01 X-1.2796 Y1.1691  
G01 X-1.2848 Y1.1656  
G01 X-1.2907 Y1.1632  
G01 X-1.2968 Y1.1620  
G01 X-1.3032 Y1.1620  
G01 X-1.3093 Y1.1632  
G01 X-1.3152 Y1.1656  
G00 Z0.0500  
G00 X-1.3751 Y1.1736  
G01 Z-0.0040 F10    
G01 X-1.3796 Y1.1691  F20    
G01 X-1.3848 Y1.1656  
G01 X-1.3907 Y1.1632  
G01 X-1.3968 Y1.1620  
G01 X-1.4032 Y1.1620  
G01 X-1.4093 Y1.1632  
G01 X-1.4152 Y1.1656  
G01 X-1.4204 Y1.1691  
G01 X-1.4249 Y1.1736  
G01 X-1.4284 Y1.1788  
G01 X-1.4308 Y1.1847  
G01 X-1.4320 Y1.1908  
G01 X-1.4320 Y1.2492  
G01 X-1.4308 Y1.2553  
G01 X-1.4284 Y1.2612  
G01 X-1.4249 Y1.2664  
G01 X-1.4204 Y1.2709  
G01 X-1.4152 Y1.2744  
G01 X-1.4093 Y1.2768  
G01 X-1.4032 Y1.2780  
G01 X-1.3968 Y1.2780  
G01 X-1.3907 Y1.2768  
G01 X-1.3848 Y1.2744  
G01 X-1.3796 Y1.2709  
G01 X-1.3751 Y1.2664  
G01 X-1.3716 Y1.2612  
G01 X-1.3692 Y1.2553  
G01 X-1.3680 Y1.2492  
G01 X-1.3680 Y1.1908  
G01 X-1.3692 Y1.1847  
G01 X-1.3716 Y1.1788  
G01 X-1.3751 Y1.1736  
G00 Z0.0500  
G00 X-1.4751 Y1.1736  
G01 Z-0.0040 F10    
G01 X-1.4796 Y1.1691  F20    
G01 X-1.4848 Y1.1656  
G01 X-1.4907 Y1.1632  
G01 X-1.4968 Y1.1620  
G01 X-1.5032 Y1.1620  
G01 X-1.5093 Y1.1632  
G01 X-1.5152 Y1.1656  
G01 X-1.5204 Y1.1691  
G01 X-1.5249 Y1.1736  
G01 X-1.5284 Y1.1788  
G01 X-1.5308 Y1.1847  
G01 X-1.5320 Y1.1908  
G01 X-1.5320 Y1.2492  
G01 X-1.5308 Y1.2553  
G01 X-1.5284 Y1.2612  
G01 X-1.5249 Y1.2664  
G01 X-1.5204 Y1.2709  
G01 X-1.5152 Y1.2744  
G01 X-1.5093 Y1.2768  
G01 X-1.5032 Y1.2780  
G01 X-1.4968 Y1.2780  
G01 X-1.4907 Y1.2768  
G01 X-1.4848 Y1.2744  
G01 X-1.4796 Y1.2709  
G01 X-1.4751 Y1.2664  
G01 X-1.4716 Y1.2612  
G01 X-1.4692 Y1.2553  
G01 X-1.4680 Y1.2492  
G01 X-1.4680 Y1.1908  
G01 X-1.4692 Y1.1847  
G01 X-1.4716 Y1.1788  
G01 X-1.4751 Y1.1736  
G00 Z0.0500  
G00 X-1.7751 Y1.1736  
G01 Z-0.0040 F10    
G01 X-1.7796 Y1.1691  F20    
G01 X-1.7848 Y1.1656  
G01 X-1.7907 Y1.1632  
G01 X-1.7930 Y1.1628  
G01 X-1.7930 Y1.0130  
G01 X-1.7220 Y1.0130  
G01 X-1.7220 Y1.0133  
G01 X-1.7033 Y1.0320  
G01 X-1.6767 Y1.0320  
G01 X-1.6580 Y1.0133  
G01 X-1.6580 Y0.9867  
G01 X-1.6767 Y0.9680  
G01 X-1.7033 Y0.9680  
G01 X-1.7143 Y0.9790  
G01 X-1.7930 Y0.9790  
G01 X-1.7930 Y0.8283  
G01 X-1.7780 Y0.8133  
G01 X-1.7780 Y0.7867  
G01 X-1.7967 Y0.7680  
G01 X-1.8233 Y0.7680  
G01 X-1.8420 Y0.7867  
G01 X-1.8420 Y0.8133  
G01 X-1.8270 Y0.8283  
G01 X-1.8270 Y0.9790  
G01 X-1.8842 Y0.9790  
G01 X-1.8830 Y0.9732  
G01 X-1.8830 Y0.9668  
G01 X-1.8842 Y0.9607  
G01 X-1.8866 Y0.9548  
G01 X-1.8901 Y0.9496  
G01 X-1.8946 Y0.9451  
G01 X-1.8998 Y0.9416  
G01 X-1.9057 Y0.9392  
G01 X-1.9118 Y0.9380  
G01 X-1.9182 Y0.9380  
G01 X-1.9243 Y0.9392  
G01 X-1.9302 Y0.9416  
G01 X-1.9354 Y0.9451  
G01 X-1.9399 Y0.9496  
G01 X-1.9434 Y0.9548  
G01 X-1.9458 Y0.9607  
G01 X-1.9470 Y0.9668  
G01 X-1.9470 Y0.9732  
G01 X-1.9458 Y0.9793  
G01 X-1.9434 Y0.9852  
G01 X-1.9399 Y0.9904  
G01 X-1.9354 Y0.9949  
G01 X-1.9302 Y0.9984  
G01 X-1.9243 Y1.0008  
G01 X-1.9182 Y1.0020  
G01 X-1.9120 Y1.0020  
G01 X-1.9044 Y1.0096  
G01 X-1.9006 Y1.0118  
G01 X-1.8962 Y1.0130  
G01 X-1.8270 Y1.0130  
G01 X-1.8270 Y1.1768  
G01 X-1.8284 Y1.1788  
G01 X-1.8308 Y1.1847  
G01 X-1.8320 Y1.1908  
G01 X-1.8320 Y1.2492  
G01 X-1.8308 Y1.2553  
G01 X-1.8284 Y1.2612  
G01 X-1.8249 Y1.2664  
G01 X-1.8204 Y1.2709  
G01 X-1.8152 Y1.2744  
G01 X-1.8093 Y1.2768  
G01 X-1.8032 Y1.2780  
G01 X-1.7968 Y1.2780  
G01 X-1.7907 Y1.2768  
G01 X-1.7848 Y1.2744  
G01 X-1.7796 Y1.2709  
G01 X-1.7751 Y1.2664  
G01 X-1.7716 Y1.2612  
G01 X-1.7692 Y1.2553  
G01 X-1.7680 Y1.2492  
G01 X-1.7680 Y1.1908  
G01 X-1.7692 Y1.1847  
G01 X-1.7716 Y1.1788  
G01 X-1.7751 Y1.1736  
G00 Z0.0500  
G00 X-1.8751 Y1.1736  
G01 Z-0.0040 F10    
G01 X-1.8796 Y1.1691  F20    
G01 X-1.8848 Y1.1656  
G01 X-1.8907 Y1.1632  
G01 X-1.8968 Y1.1620  
G01 X-1.8980 Y1.1620  
G01 X-1.8980 Y1.1618  
G01 X-1.8992 Y1.1574  
G01 X-1.9014 Y1.1536  
G01 X-2.0746 Y0.9803  
G01 X-2.0742 Y0.9793  
G01 X-2.0730 Y0.9732  
G01 X-2.0730 Y0.9668  
G01 X-2.0742 Y0.9607  
G01 X-2.0766 Y0.9548  
G01 X-2.0801 Y0.9496  
G01 X-2.0846 Y0.9451  
G01 X-2.0898 Y0.9416  
G01 X-2.0957 Y0.9392  
G01 X-2.1018 Y0.9380  
G01 X-2.1082 Y0.9380  
G01 X-2.1143 Y0.9392  
G01 X-2.1153 Y0.9396  
G01 X-2.1920 Y0.8630  
G01 X-2.1920 Y0.8273  
G01 X-2.1780 Y0.8133  
G01 X-2.1780 Y0.7867  
G01 X-2.1967 Y0.7680  
G01 X-2.2233 Y0.7680  
G01 X-2.2420 Y0.7867  
G01 X-2.2420 Y0.8133  
G01 X-2.2260 Y0.8293  
G01 X-2.2260 Y0.8630  
G01 X-2.3410 Y0.9780  
G01 X-2.3533 Y0.9780  
G01 X-2.3720 Y0.9967  
G01 X-2.3720 Y1.0233  
G01 X-2.3533 Y1.0420  
G01 X-2.3267 Y1.0420  
G01 X-2.3080 Y1.0233  
G01 X-2.3080 Y0.9967  
G01 X-2.3099 Y0.9949  
G01 X-2.2090 Y0.8940  
G01 X-2.1379 Y0.9651  
G01 X-2.1374 Y0.9659  
G01 X-2.1369 Y0.9663  
G01 X-2.1370 Y0.9668  
G01 X-2.1370 Y0.9732  
G01 X-2.1358 Y0.9793  
G01 X-2.1334 Y0.9852  
G01 X-2.1299 Y0.9904  
G01 X-2.1254 Y0.9949  
G01 X-2.1202 Y0.9984  
G01 X-2.1143 Y1.0008  
G01 X-2.1082 Y1.0020  
G01 X-2.1018 Y1.0020  
G01 X-2.1012 Y1.0019  
G01 X-1.9320 Y1.1710  
G01 X-1.9320 Y1.2041  
G01 X-1.9321 Y1.2043  
G01 X-1.9320 Y1.2063  
G01 X-1.9320 Y1.2492  
G01 X-1.9308 Y1.2553  
G01 X-1.9284 Y1.2612  
G01 X-1.9249 Y1.2664  
G01 X-1.9204 Y1.2709  
G01 X-1.9152 Y1.2744  
G01 X-1.9093 Y1.2768  
G01 X-1.9032 Y1.2780  
G01 X-1.8968 Y1.2780  
G01 X-1.8907 Y1.2768  
G01 X-1.8848 Y1.2744  
G01 X-1.8796 Y1.2709  
G01 X-1.8751 Y1.2664  
G01 X-1.8716 Y1.2612  
G01 X-1.8692 Y1.2553  
G01 X-1.8680 Y1.2492  
G01 X-1.8680 Y1.1908  
G01 X-1.8692 Y1.1847  
G01 X-1.8716 Y1.1788  
G01 X-1.8751 Y1.1736  
G00 Z0.0500  
G00 X-1.9751 Y1.1736  
G01 Z-0.0040 F10    
G01 X-1.9796 Y1.1691  F20    
G01 X-1.9848 Y1.1656  
G01 X-1.9907 Y1.1632  
G01 X-1.9968 Y1.1620  
G01 X-2.0032 Y1.1620  
G01 X-2.0093 Y1.1632  
G01 X-2.0152 Y1.1656  
G01 X-2.1114 Y1.0696  
G01 X-2.1146 Y1.0664  
G01 X-2.1184 Y1.0642  
G01 X-2.1228 Y1.0630  
G01 X-2.6220 Y1.0630  
G01 X-2.7080 Y0.9770  
G01 X-2.7080 Y0.9308  
G01 X-2.7092 Y0.9247  
G01 X-2.7116 Y0.9188  
G01 X-2.7151 Y0.9136  
G01 X-2.7196 Y0.9091  
G01 X-2.7248 Y0.9056  
G01 X-2.7307 Y0.9032  
G01 X-2.7368 Y0.9020  
G01 X-2.7432 Y0.9020  
G01 X-2.7493 Y0.9032  
G01 X-2.7552 Y0.9056  
G01 X-2.7604 Y0.9091  
G01 X-2.7649 Y0.9136  
G01 X-2.7684 Y0.9188  
G01 X-2.7708 Y0.9247  
G01 X-2.7720 Y0.9308  
G01 X-2.7720 Y0.9892  
G01 X-2.7708 Y0.9953  
G01 X-2.7684 Y1.0012  
G01 X-2.7649 Y1.0064  
G01 X-2.7604 Y1.0109  
G01 X-2.7552 Y1.0144  
G01 X-2.7493 Y1.0168  
G01 X-2.7432 Y1.0180  
G01 X-2.7368 Y1.0180  
G01 X-2.7307 Y1.0168  
G01 X-2.7248 Y1.0144  
G01 X-2.7212 Y1.0119  
G01 X-2.6394 Y1.0936  
G01 X-2.6356 Y1.0958  
G01 X-2.6312 Y1.0970  
G01 X-2.1320 Y1.0970  
G01 X-2.0370 Y1.1920  
G01 X-2.0370 Y1.2053  
G01 X-2.0371 Y1.2068  
G01 X-2.0370 Y1.2075  
G01 X-2.0370 Y1.2082  
G01 X-2.0366 Y1.2097  
G01 X-2.0364 Y1.2112  
G01 X-2.0360 Y1.2118  
G01 X-2.0358 Y1.2126  
G01 X-2.0351 Y1.2139  
G01 X-2.0345 Y1.2152  
G01 X-2.0340 Y1.2158  
G01 X-2.0336 Y1.2164  
G01 X-2.0325 Y1.2175  
G01 X-2.0320 Y1.2181  
G01 X-2.0320 Y1.2492  
G01 X-2.0308 Y1.2553  
G01 X-2.0284 Y1.2612  
G01 X-2.0249 Y1.2664  
G01 X-2.0204 Y1.2709  
G01 X-2.0152 Y1.2744  
G01 X-2.0093 Y1.2768  
G01 X-2.0032 Y1.2780  
G01 X-1.9968 Y1.2780  
G01 X-1.9907 Y1.2768  
G01 X-1.9848 Y1.2744  
G01 X-1.9796 Y1.2709  
G01 X-1.9751 Y1.2664  
G01 X-1.9716 Y1.2612  
G01 X-1.9692 Y1.2553  
G01 X-1.9680 Y1.2492  
G01 X-1.9680 Y1.1908  
G01 X-1.9692 Y1.1847  
G01 X-1.9716 Y1.1788  
G01 X-1.9751 Y1.1736  
G00 Z0.0500  
G00 X-2.0751 Y1.1736  
G01 Z-0.0040 F10    
G01 X-2.0796 Y1.1691  F20    
G01 X-2.0848 Y1.1656  
G01 X-2.0907 Y1.1632  
G01 X-2.0968 Y1.1620  
G01 X-2.1032 Y1.1620  
G01 X-2.1093 Y1.1632  
G01 X-2.1152 Y1.1656  
G01 X-2.1183 Y1.1677  
G01 X-2.1776 Y1.1084  
G01 X-2.1814 Y1.1062  
G01 X-2.1858 Y1.1050  
G01 X-2.6850 Y1.1050  
G01 X-2.8080 Y0.9820  
G01 X-2.8080 Y0.9308  
G01 X-2.8092 Y0.9247  
G01 X-2.8116 Y0.9188  
G01 X-2.8151 Y0.9136  
G01 X-2.8196 Y0.9091  
G01 X-2.8248 Y0.9056  
G01 X-2.8307 Y0.9032  
G01 X-2.8368 Y0.9020  
G01 X-2.8432 Y0.9020  
G01 X-2.8493 Y0.9032  
G01 X-2.8552 Y0.9056  
G01 X-2.8604 Y0.9091  
G01 X-2.8649 Y0.9136  
G01 X-2.8684 Y0.9188  
G01 X-2.8708 Y0.9247  
G01 X-2.8720 Y0.9308  
G01 X-2.8720 Y0.9892  
G01 X-2.8708 Y0.9953  
G01 X-2.8684 Y1.0012  
G01 X-2.8649 Y1.0064  
G01 X-2.8604 Y1.0109  
G01 X-2.8552 Y1.0144  
G01 X-2.8493 Y1.0168  
G01 X-2.8432 Y1.0180  
G01 X-2.8368 Y1.0180  
G01 X-2.8307 Y1.0168  
G01 X-2.8248 Y1.0144  
G01 X-2.8241 Y1.0139  
G01 X-2.7024 Y1.1356  
G01 X-2.6986 Y1.1378  
G01 X-2.6942 Y1.1390  
G01 X-2.1950 Y1.1390  
G01 X-2.1320 Y1.2020  
G01 X-2.1320 Y1.2492  
G01 X-2.1308 Y1.2553  
G01 X-2.1284 Y1.2612  
G01 X-2.1249 Y1.2664  
G01 X-2.1204 Y1.2709  
G01 X-2.1152 Y1.2744  
G01 X-2.1093 Y1.2768  
G01 X-2.1032 Y1.2780  
G01 X-2.0968 Y1.2780  
G01 X-2.0907 Y1.2768  
G01 X-2.0848 Y1.2744  
G01 X-2.0796 Y1.2709  
G01 X-2.0751 Y1.2664  
G01 X-2.0716 Y1.2612  
G01 X-2.0692 Y1.2553  
G01 X-2.0680 Y1.2492  
G01 X-2.0680 Y1.1908  
G01 X-2.0692 Y1.1847  
G01 X-2.0716 Y1.1788  
G01 X-2.0751 Y1.1736  
G00 Z0.0500  
G00 X-2.1751 Y1.1736  
G01 Z-0.0040 F10    
G01 X-2.1796 Y1.1691  F20    
G01 X-2.1848 Y1.1656  
G01 X-2.1907 Y1.1632  
G01 X-2.1968 Y1.1620  
G01 X-2.2032 Y1.1620  
G01 X-2.2093 Y1.1632  
G01 X-2.2152 Y1.1656  
G01 X-2.2204 Y1.1691  
G01 X-2.2249 Y1.1736  
G01 X-2.2284 Y1.1788  
G01 X-2.2308 Y1.1847  
G01 X-2.2320 Y1.1908  
G01 X-2.2320 Y1.2470  
G01 X-2.2790 Y1.2940  
G01 X-2.6102 Y1.2940  
G01 X-2.6146 Y1.2952  
G01 X-2.6184 Y1.2974  
G01 X-2.8261 Y1.5051  
G01 X-2.8307 Y1.5032  
G01 X-2.8368 Y1.5020  
G01 X-2.8432 Y1.5020  
G01 X-2.8493 Y1.5032  
G01 X-2.8552 Y1.5056  
G01 X-2.8604 Y1.5091  
G01 X-2.8649 Y1.5136  
G01 X-2.8684 Y1.5188  
G01 X-2.8708 Y1.5247  
G01 X-2.8720 Y1.5308  
G01 X-2.8720 Y1.5892  
G01 X-2.8708 Y1.5953  
G01 X-2.8684 Y1.6012  
G01 X-2.8649 Y1.6064  
G01 X-2.8604 Y1.6109  
G01 X-2.8552 Y1.6144  
G01 X-2.8493 Y1.6168  
G01 X-2.8432 Y1.6180  
G01 X-2.8368 Y1.6180  
G01 X-2.8307 Y1.6168  
G01 X-2.8248 Y1.6144  
G01 X-2.8196 Y1.6109  
G01 X-2.8151 Y1.6064  
G01 X-2.8116 Y1.6012  
G01 X-2.8092 Y1.5953  
G01 X-2.8080 Y1.5892  
G01 X-2.8080 Y1.5350  
G01 X-2.6010 Y1.3280  
G01 X-2.2698 Y1.3280  
G01 X-2.2654 Y1.3268  
G01 X-2.2616 Y1.3246  
G01 X-2.2584 Y1.3214  
G01 X-2.2124 Y1.2755  
G01 X-2.2093 Y1.2768  
G01 X-2.2032 Y1.2780  
G01 X-2.1968 Y1.2780  
G01 X-2.1907 Y1.2768  
G01 X-2.1848 Y1.2744  
G01 X-2.1796 Y1.2709  
G01 X-2.1751 Y1.2664  
G01 X-2.1716 Y1.2612  
G01 X-2.1692 Y1.2553  
G01 X-2.1680 Y1.2492  
G01 X-2.1680 Y1.1908  
G01 X-2.1692 Y1.1847  
G01 X-2.1716 Y1.1788  
G01 X-2.1751 Y1.1736  
G00 Z0.0500  
G00 X-2.2751 Y1.1736  
G01 Z-0.0040 F10    
G01 X-2.2796 Y1.1691  F20    
G01 X-2.2848 Y1.1656  
G01 X-2.2907 Y1.1632  
G01 X-2.2968 Y1.1620  
G01 X-2.3032 Y1.1620  
G01 X-2.3093 Y1.1632  
G01 X-2.3152 Y1.1656  
G01 X-2.3204 Y1.1691  
G01 X-2.3249 Y1.1736  
G01 X-2.3284 Y1.1788  
G01 X-2.3308 Y1.1847  
G01 X-2.3320 Y1.1908  
G01 X-2.3320 Y1.2100  
G01 X-2.6312 Y1.2100  
G01 X-2.6356 Y1.2112  
G01 X-2.6394 Y1.2134  
G01 X-2.9297 Y1.5036  
G01 X-2.9307 Y1.5032  
G01 X-2.9368 Y1.5020  
G01 X-2.9432 Y1.5020  
G01 X-2.9493 Y1.5032  
G01 X-2.9552 Y1.5056  
G01 X-2.9604 Y1.5091  
G01 X-2.9649 Y1.5136  
G01 X-2.9684 Y1.5188  
G01 X-2.9708 Y1.5247  
G01 X-2.9720 Y1.5308  
G01 X-2.9720 Y1.5892  
G01 X-2.9708 Y1.5953  
G01 X-2.9684 Y1.6012  
G01 X-2.9649 Y1.6064  
G01 X-2.9604 Y1.6109  
G01 X-2.9552 Y1.6144  
G01 X-2.9493 Y1.6168  
G01 X-2.9432 Y1.6180  
G01 X-2.9368 Y1.6180  
G01 X-2.9307 Y1.6168  
G01 X-2.9248 Y1.6144  
G01 X-2.9196 Y1.6109  
G01 X-2.9151 Y1.6064  
G01 X-2.9116 Y1.6012  
G01 X-2.9092 Y1.5953  
G01 X-2.9080 Y1.5892  
G01 X-2.9080 Y1.5308  
G01 X-2.9081 Y1.5302  
G01 X-2.6220 Y1.2440  
G01 X-2.3320 Y1.2440  
G01 X-2.3320 Y1.2492  
G01 X-2.3308 Y1.2553  
G01 X-2.3284 Y1.2612  
G01 X-2.3249 Y1.2664  
G01 X-2.3204 Y1.2709  
G01 X-2.3152 Y1.2744  
G01 X-2.3093 Y1.2768  
G01 X-2.3032 Y1.2780  
G01 X-2.2968 Y1.2780  
G01 X-2.2907 Y1.2768  
G01 X-2.2848 Y1.2744  
G01 X-2.2796 Y1.2709  
G01 X-2.2751 Y1.2664  
G01 X-2.2716 Y1.2612  
G01 X-2.2692 Y1.2553  
G01 X-2.2680 Y1.2492  
G01 X-2.2680 Y1.1908  
G01 X-2.2692 Y1.1847  
G01 X-2.2716 Y1.1788  
G01 X-2.2751 Y1.1736  
G00 Z0.0500  
G00 X-2.3582 Y1.3780  
G01 Z-0.0040 F10    
G01 X-2.3626 Y1.3792  F20    
G01 X-2.3664 Y1.3814  
G01 X-2.3696 Y1.3846  
G01 X-2.6216 Y1.6366  
G01 X-2.6238 Y1.6404  
G01 X-2.6250 Y1.6448  
G01 X-2.6250 Y1.8382  
G01 X-2.6238 Y1.8426  
G01 X-2.6216 Y1.8464  
G01 X-2.6184 Y1.8496  
G01 X-2.5554 Y1.9126  
G01 X-2.5516 Y1.9148  
G01 X-2.5472 Y1.9160  
G01 X-2.4378 Y1.9160  
G01 X-2.4334 Y1.9148  
G01 X-2.4296 Y1.9126  
G01 X-2.4264 Y1.9094  
G01 X-2.3900 Y1.8730  
G01 X-2.3722 Y1.8730  
G01 X-2.3470 Y1.8478  
G01 X-2.3470 Y1.8122  
G01 X-2.3722 Y1.7870  
G01 X-2.4078 Y1.7870  
G01 X-2.4330 Y1.8122  
G01 X-2.4330 Y1.8478  
G01 X-2.4229 Y1.8579  
G01 X-2.4470 Y1.8820  
G01 X-2.5380 Y1.8820  
G01 X-2.5910 Y1.8290  
G01 X-2.5910 Y1.6540  
G01 X-2.3490 Y1.4120  
G01 X-2.0060 Y1.4120  
G01 X-1.9312 Y1.4868  
G01 X-1.9320 Y1.4908  
G01 X-1.9320 Y1.5193  
G01 X-1.9321 Y1.5199  
G01 X-1.9320 Y1.5216  
G01 X-1.9320 Y1.5560  
G01 X-2.0640 Y1.6880  
G01 X-2.0833 Y1.6880  
G01 X-2.1020 Y1.7067  
G01 X-2.1020 Y1.7333  
G01 X-2.0833 Y1.7520  
G01 X-2.0567 Y1.7520  
G01 X-2.0380 Y1.7333  
G01 X-2.0380 Y1.7100  
G01 X-1.9055 Y1.5775  
G01 X-1.9032 Y1.5780  
G01 X-1.8968 Y1.5780  
G01 X-1.8907 Y1.5768  
G01 X-1.8848 Y1.5744  
G01 X-1.8796 Y1.5709  
G01 X-1.8751 Y1.5664  
G01 X-1.8716 Y1.5612  
G01 X-1.8692 Y1.5553  
G01 X-1.8680 Y1.5492  
G01 X-1.8680 Y1.4908  
G01 X-1.8692 Y1.4847  
G01 X-1.8716 Y1.4788  
G01 X-1.8751 Y1.4736  
G01 X-1.8796 Y1.4691  
G01 X-1.8848 Y1.4656  
G01 X-1.8907 Y1.4632  
G01 X-1.8968 Y1.4620  
G01 X-1.9032 Y1.4620  
G01 X-1.9072 Y1.4628  
G01 X-1.9886 Y1.3814  
G01 X-1.9924 Y1.3792  
G01 X-1.9968 Y1.3780  
G01 X-2.3582 Y1.3780  
G00 Z0.0500  
G00 X-2.3454 Y1.4234  
G01 Z-0.0040 F10    
G01 X-2.5764 Y1.6544  F20    
G01 X-2.5796 Y1.6576  
G01 X-2.5818 Y1.6614  
G01 X-2.5830 Y1.6658  
G01 X-2.5830 Y1.7542  
G01 X-2.5818 Y1.7586  
G01 X-2.5796 Y1.7624  
G01 X-2.5330 Y1.8090  
G01 X-2.5330 Y1.8682  
G01 X-2.5321 Y1.8704  
G01 X-2.5304 Y1.8721  
G01 X-2.5282 Y1.8730  
G01 X-2.4518 Y1.8730  
G01 X-2.4496 Y1.8721  
G01 X-2.4479 Y1.8704  
G01 X-2.4470 Y1.8682  
G01 X-2.4470 Y1.7918  
G01 X-2.4479 Y1.7896  
G01 X-2.4496 Y1.7879  
G01 X-2.4518 Y1.7870  
G01 X-2.5070 Y1.7870  
G01 X-2.5490 Y1.7450  
G01 X-2.5490 Y1.6750  
G01 X-2.3280 Y1.4540  
G01 X-2.0690 Y1.4540  
G01 X-2.0370 Y1.4860  
G01 X-2.0370 Y1.5022  
G01 X-2.0358 Y1.5066  
G01 X-2.0336 Y1.5104  
G01 X-2.0320 Y1.5120  
G01 X-2.0320 Y1.5492  
G01 X-2.0308 Y1.5553  
G01 X-2.0284 Y1.5612  
G01 X-2.0249 Y1.5664  
G01 X-2.0204 Y1.5709  
G01 X-2.0152 Y1.5744  
G01 X-2.0093 Y1.5768  
G01 X-2.0032 Y1.5780  
G01 X-1.9968 Y1.5780  
G01 X-1.9907 Y1.5768  
G01 X-1.9848 Y1.5744  
G01 X-1.9796 Y1.5709  
G01 X-1.9751 Y1.5664  
G01 X-1.9716 Y1.5612  
G01 X-1.9692 Y1.5553  
G01 X-1.9680 Y1.5492  
G01 X-1.9680 Y1.4908  
G01 X-1.9692 Y1.4847  
G01 X-1.9716 Y1.4788  
G01 X-1.9751 Y1.4736  
G01 X-1.9796 Y1.4691  
G01 X-1.9848 Y1.4656  
G01 X-1.9907 Y1.4632  
G01 X-1.9968 Y1.4620  
G01 X-2.0032 Y1.4620  
G01 X-2.0093 Y1.4632  
G01 X-2.0110 Y1.4639  
G01 X-2.0516 Y1.4234  
G01 X-2.0554 Y1.4212  
G01 X-2.0598 Y1.4200  
G01 X-2.3372 Y1.4200  
G01 X-2.3416 Y1.4212  
G01 X-2.3454 Y1.4234  
G00 Z0.0500  
G00 X-2.3204 Y1.4691  
G01 Z-0.0040 F10    
G01 X-2.3249 Y1.4736  F20    
G01 X-2.3284 Y1.4788  
G01 X-2.3308 Y1.4847  
G01 X-2.3320 Y1.4908  
G01 X-2.3320 Y1.5492  
G01 X-2.3308 Y1.5553  
G01 X-2.3284 Y1.5612  
G01 X-2.3249 Y1.5664  
G01 X-2.3204 Y1.5709  
G01 X-2.3152 Y1.5744  
G01 X-2.3093 Y1.5768  
G01 X-2.3032 Y1.5780  
G01 X-2.2968 Y1.5780  
G01 X-2.2907 Y1.5768  
G01 X-2.2848 Y1.5744  
G01 X-2.2796 Y1.5709  
G01 X-2.2751 Y1.5664  
G01 X-2.2716 Y1.5612  
G01 X-2.2692 Y1.5553  
G01 X-2.2680 Y1.5492  
G01 X-2.2680 Y1.4908  
G01 X-2.2692 Y1.4847  
G01 X-2.2716 Y1.4788  
G01 X-2.2751 Y1.4736  
G01 X-2.2796 Y1.4691  
G01 X-2.2848 Y1.4656  
G01 X-2.2907 Y1.4632  
G01 X-2.2968 Y1.4620  
G01 X-2.3032 Y1.4620  
G01 X-2.3093 Y1.4632  
G01 X-2.3152 Y1.4656  
G01 X-2.3204 Y1.4691  
G00 Z0.0500  
G00 X-2.2204 Y1.4691  
G01 Z-0.0040 F10    
G01 X-2.2249 Y1.4736  F20    
G01 X-2.2284 Y1.4788  
G01 X-2.2308 Y1.4847  
G01 X-2.2320 Y1.4908  
G01 X-2.2320 Y1.5492  
G01 X-2.2308 Y1.5553  
G01 X-2.2284 Y1.5612  
G01 X-2.2249 Y1.5664  
G01 X-2.2204 Y1.5709  
G01 X-2.2152 Y1.5744  
G01 X-2.2093 Y1.5768  
G01 X-2.2032 Y1.5780  
G01 X-2.1968 Y1.5780  
G01 X-2.1907 Y1.5768  
G01 X-2.1848 Y1.5744  
G01 X-2.1796 Y1.5709  
G01 X-2.1751 Y1.5664  
G01 X-2.1716 Y1.5612  
G01 X-2.1692 Y1.5553  
G01 X-2.1680 Y1.5492  
G01 X-2.1680 Y1.4908  
G01 X-2.1692 Y1.4847  
G01 X-2.1716 Y1.4788  
G01 X-2.1751 Y1.4736  
G01 X-2.1796 Y1.4691  
G01 X-2.1848 Y1.4656  
G01 X-2.1907 Y1.4632  
G01 X-2.1968 Y1.4620  
G01 X-2.2032 Y1.4620  
G01 X-2.2093 Y1.4632  
G01 X-2.2152 Y1.4656  
G01 X-2.2204 Y1.4691  
G00 Z0.0500  
G00 X-2.1204 Y1.4691  
G01 Z-0.0040 F10    
G01 X-2.1249 Y1.4736  F20    
G01 X-2.1284 Y1.4788  
G01 X-2.1308 Y1.4847  
G01 X-2.1320 Y1.4908  
G01 X-2.1320 Y1.5460  
G01 X-2.2160 Y1.6300  
G01 X-2.3162 Y1.6300  
G01 X-2.3206 Y1.6312  
G01 X-2.3244 Y1.6334  
G01 X-2.3780 Y1.6870  
G01 X-2.4078 Y1.6870  
G01 X-2.4330 Y1.7122  
G01 X-2.4330 Y1.7478  
G01 X-2.4078 Y1.7730  
G01 X-2.3722 Y1.7730  
G01 X-2.3470 Y1.7478  
G01 X-2.3470 Y1.7122  
G01 X-2.3511 Y1.7081  
G01 X-2.3070 Y1.6640  
G01 X-2.2068 Y1.6640  
G01 X-2.2024 Y1.6628  
G01 X-2.1986 Y1.6606  
G01 X-2.1954 Y1.6574  
G01 X-2.1131 Y1.5752  
G01 X-2.1093 Y1.5768  
G01 X-2.1032 Y1.5780  
G01 X-2.0968 Y1.5780  
G01 X-2.0907 Y1.5768  
G01 X-2.0848 Y1.5744  
G01 X-2.0796 Y1.5709  
G01 X-2.0751 Y1.5664  
G01 X-2.0716 Y1.5612  
G01 X-2.0692 Y1.5553  
G01 X-2.0680 Y1.5492  
G01 X-2.0680 Y1.4908  
G01 X-2.0692 Y1.4847  
G01 X-2.0716 Y1.4788  
G01 X-2.0751 Y1.4736  
G01 X-2.0796 Y1.4691  
G01 X-2.0848 Y1.4656  
G01 X-2.0907 Y1.4632  
G01 X-2.0968 Y1.4620  
G01 X-2.1032 Y1.4620  
G01 X-2.1093 Y1.4632  
G01 X-2.1152 Y1.4656  
G01 X-2.1204 Y1.4691  
G00 Z0.0500  
G00 X-1.8204 Y1.4691  
G01 Z-0.0040 F10    
G01 X-1.8249 Y1.4736  F20    
G01 X-1.8284 Y1.4788  
G01 X-1.8308 Y1.4847  
G01 X-1.8320 Y1.4908  
G01 X-1.8320 Y1.5492  
G01 X-1.8308 Y1.5553  
G01 X-1.8284 Y1.5612  
G01 X-1.8249 Y1.5664  
G01 X-1.8204 Y1.5709  
G01 X-1.8152 Y1.5744  
G01 X-1.8093 Y1.5768  
G01 X-1.8032 Y1.5780  
G01 X-1.7968 Y1.5780  
G01 X-1.7907 Y1.5768  
G01 X-1.7848 Y1.5744  
G01 X-1.7796 Y1.5709  
G01 X-1.7751 Y1.5664  
G01 X-1.7716 Y1.5612  
G01 X-1.7692 Y1.5553  
G01 X-1.7680 Y1.5492  
G01 X-1.7680 Y1.4908  
G01 X-1.7692 Y1.4847  
G01 X-1.7716 Y1.4788  
G01 X-1.7751 Y1.4736  
G01 X-1.7796 Y1.4691  
G01 X-1.7848 Y1.4656  
G01 X-1.7907 Y1.4632  
G01 X-1.7968 Y1.4620  
G01 X-1.8032 Y1.4620  
G01 X-1.8093 Y1.4632  
G01 X-1.8152 Y1.4656  
G01 X-1.8204 Y1.4691  
G00 Z0.0500  
G00 X-1.7204 Y1.4691  
G01 Z-0.0040 F10    
G01 X-1.7249 Y1.4736  F20    
G01 X-1.7284 Y1.4788  
G01 X-1.7308 Y1.4847  
G01 X-1.7320 Y1.4908  
G01 X-1.7320 Y1.5492  
G01 X-1.7308 Y1.5553  
G01 X-1.7284 Y1.5612  
G01 X-1.7249 Y1.5664  
G01 X-1.7204 Y1.5709  
G01 X-1.7152 Y1.5744  
G01 X-1.7093 Y1.5768  
G01 X-1.7032 Y1.5780  
G01 X-1.6968 Y1.5780  
G01 X-1.6907 Y1.5768  
G01 X-1.6848 Y1.5744  
G01 X-1.6796 Y1.5709  
G01 X-1.6751 Y1.5664  
G01 X-1.6716 Y1.5612  
G01 X-1.6692 Y1.5553  
G01 X-1.6680 Y1.5492  
G01 X-1.6680 Y1.4908  
G01 X-1.6692 Y1.4847  
G01 X-1.6716 Y1.4788  
G01 X-1.6751 Y1.4736  
G01 X-1.6796 Y1.4691  
G01 X-1.6848 Y1.4656  
G01 X-1.6907 Y1.4632  
G01 X-1.6968 Y1.4620  
G01 X-1.7032 Y1.4620  
G01 X-1.7093 Y1.4632  
G01 X-1.7152 Y1.4656  
G01 X-1.7204 Y1.4691  
G00 Z0.0500  
G00 X-1.5204 Y1.4691  
G01 Z-0.0040 F10    
G01 X-1.5249 Y1.4736  F20    
G01 X-1.5284 Y1.4788  
G01 X-1.5308 Y1.4847  
G01 X-1.5320 Y1.4908  
G01 X-1.5320 Y1.5492  
G01 X-1.5308 Y1.5553  
G01 X-1.5284 Y1.5612  
G01 X-1.5249 Y1.5664  
G01 X-1.5204 Y1.5709  
G01 X-1.5152 Y1.5744  
G01 X-1.5093 Y1.5768  
G01 X-1.5032 Y1.5780  
G01 X-1.4968 Y1.5780  
G01 X-1.4907 Y1.5768  
G01 X-1.4861 Y1.5749  
G01 X-1.4246 Y1.6364  
G01 X-1.4214 Y1.6396  
G01 X-1.4176 Y1.6418  
G01 X-1.4132 Y1.6430  
G01 X-1.3130 Y1.6430  
G01 X-1.2600 Y1.6960  
G01 X-1.2600 Y1.7450  
G01 X-1.4390 Y1.9240  
G01 X-3.7350 Y1.9240  
G01 X-3.8090 Y1.8500  
G01 X-3.8090 Y1.5942  
G01 X-3.8080 Y1.5892  
G01 X-3.8080 Y1.5308  
G01 X-3.8092 Y1.5247  
G01 X-3.8116 Y1.5188  
G01 X-3.8151 Y1.5136  
G01 X-3.8196 Y1.5091  
G01 X-3.8248 Y1.5056  
G01 X-3.8307 Y1.5032  
G01 X-3.8368 Y1.5020  
G01 X-3.8432 Y1.5020  
G01 X-3.8493 Y1.5032  
G01 X-3.8552 Y1.5056  
G01 X-3.8604 Y1.5091  
G01 X-3.8649 Y1.5136  
G01 X-3.8684 Y1.5188  
G01 X-3.8708 Y1.5247  
G01 X-3.8720 Y1.5308  
G01 X-3.8720 Y1.5892  
G01 X-3.8708 Y1.5953  
G01 X-3.8684 Y1.6012  
G01 X-3.8649 Y1.6064  
G01 X-3.8604 Y1.6109  
G01 X-3.8552 Y1.6144  
G01 X-3.8493 Y1.6168  
G01 X-3.8432 Y1.6180  
G01 X-3.8430 Y1.6180  
G01 X-3.8430 Y1.8592  
G01 X-3.8418 Y1.8636  
G01 X-3.8396 Y1.8674  
G01 X-3.8364 Y1.8706  
G01 X-3.7524 Y1.9546  
G01 X-3.7486 Y1.9568  
G01 X-3.7442 Y1.9580  
G01 X-1.4298 Y1.9580  
G01 X-1.4254 Y1.9568  
G01 X-1.4216 Y1.9546  
G01 X-1.4184 Y1.9514  
G01 X-1.2294 Y1.7624  
G01 X-1.2272 Y1.7586  
G01 X-1.2260 Y1.7542  
G01 X-1.2260 Y1.6868  
G01 X-1.2272 Y1.6824  
G01 X-1.2294 Y1.6786  
G01 X-1.2326 Y1.6754  
G01 X-1.2956 Y1.6124  
G01 X-1.2994 Y1.6102  
G01 X-1.3038 Y1.6090  
G01 X-1.4040 Y1.6090  
G01 X-1.4680 Y1.5450  
G01 X-1.4680 Y1.4908  
G01 X-1.4692 Y1.4847  
G01 X-1.4716 Y1.4788  
G01 X-1.4751 Y1.4736  
G01 X-1.4796 Y1.4691  
G01 X-1.4848 Y1.4656  
G01 X-1.4907 Y1.4632  
G01 X-1.4968 Y1.4620  
G01 X-1.5032 Y1.4620  
G01 X-1.5093 Y1.4632  
G01 X-1.5152 Y1.4656  
G01 X-1.5204 Y1.4691  
G00 Z0.0500  
G00 X-1.4204 Y1.4691  
G01 Z-0.0040 F10    
G01 X-1.4249 Y1.4736  F20    
G01 X-1.4284 Y1.4788  
G01 X-1.4308 Y1.4847  
G01 X-1.4320 Y1.4908  
G01 X-1.4320 Y1.5492  
G01 X-1.4308 Y1.5553  
G01 X-1.4284 Y1.5612  
G01 X-1.4249 Y1.5664  
G01 X-1.4204 Y1.5709  
G01 X-1.4152 Y1.5744  
G01 X-1.4093 Y1.5768  
G01 X-1.4032 Y1.5780  
G01 X-1.3968 Y1.5780  
G01 X-1.3907 Y1.5768  
G01 X-1.3848 Y1.5744  
G01 X-1.3796 Y1.5709  
G01 X-1.3751 Y1.5664  
G01 X-1.3716 Y1.5612  
G01 X-1.3692 Y1.5553  
G01 X-1.3680 Y1.5492  
G01 X-1.3680 Y1.4908  
G01 X-1.3692 Y1.4847  
G01 X-1.3716 Y1.4788  
G01 X-1.3751 Y1.4736  
G01 X-1.3796 Y1.4691  
G01 X-1.3848 Y1.4656  
G01 X-1.3907 Y1.4632  
G01 X-1.3968 Y1.4620  
G01 X-1.4032 Y1.4620  
G01 X-1.4093 Y1.4632  
G01 X-1.4152 Y1.4656  
G01 X-1.4204 Y1.4691  
G00 Z0.0500  
G00 X-1.3204 Y1.4691  
G01 Z-0.0040 F10    
G01 X-1.3249 Y1.4736  F20    
G01 X-1.3284 Y1.4788  
G01 X-1.3308 Y1.4847  
G01 X-1.3320 Y1.4908  
G01 X-1.3320 Y1.5492  
G01 X-1.3308 Y1.5553  
G01 X-1.3284 Y1.5612  
G01 X-1.3249 Y1.5664  
G01 X-1.3204 Y1.5709  
G01 X-1.3152 Y1.5744  
G01 X-1.3093 Y1.5768  
G01 X-1.3032 Y1.5780  
G01 X-1.2968 Y1.5780  
G01 X-1.2907 Y1.5768  
G01 X-1.2848 Y1.5744  
G01 X-1.2796 Y1.5709  
G01 X-1.2751 Y1.5664  
G01 X-1.2716 Y1.5612  
G01 X-1.2692 Y1.5553  
G01 X-1.2680 Y1.5492  
G01 X-1.2680 Y1.4908  
G01 X-1.2692 Y1.4847  
G01 X-1.2716 Y1.4788  
G01 X-1.2751 Y1.4736  
G01 X-1.2796 Y1.4691  
G01 X-1.2848 Y1.4656  
G01 X-1.2907 Y1.4632  
G01 X-1.2968 Y1.4620  
G01 X-1.3032 Y1.4620  
G01 X-1.3093 Y1.4632  
G01 X-1.3152 Y1.4656  
G01 X-1.3204 Y1.4691  
G00 Z0.0500  
G00 X-1.2204 Y1.4691  
G01 Z-0.0040 F10    
G01 X-1.2249 Y1.4736  F20    
G01 X-1.2284 Y1.4788  
G01 X-1.2308 Y1.4847  
G01 X-1.2320 Y1.4908  
G01 X-1.2320 Y1.5492  
G01 X-1.2308 Y1.5553  
G01 X-1.2284 Y1.5612  
G01 X-1.2249 Y1.5664  
G01 X-1.2204 Y1.5709  
G01 X-1.2152 Y1.5744  
G01 X-1.2093 Y1.5768  
G01 X-1.2032 Y1.5780  
G01 X-1.1968 Y1.5780  
G01 X-1.1907 Y1.5768  
G01 X-1.1848 Y1.5744  
G01 X-1.1796 Y1.5709  
G01 X-1.1751 Y1.5664  
G01 X-1.1716 Y1.5612  
G01 X-1.1692 Y1.5553  
G01 X-1.1680 Y1.5492  
G01 X-1.1680 Y1.4908  
G01 X-1.1692 Y1.4847  
G01 X-1.1716 Y1.4788  
G01 X-1.1751 Y1.4736  
G01 X-1.1796 Y1.4691  
G01 X-1.1848 Y1.4656  
G01 X-1.1907 Y1.4632  
G01 X-1.1968 Y1.4620  
G01 X-1.2032 Y1.4620  
G01 X-1.2093 Y1.4632  
G01 X-1.2152 Y1.4656  
G01 X-1.2204 Y1.4691  
G00 Z0.0500  
G00 X-1.1204 Y1.4691  
G01 Z-0.0040 F10    
G01 X-1.1249 Y1.4736  F20    
G01 X-1.1284 Y1.4788  
G01 X-1.1308 Y1.4847  
G01 X-1.1320 Y1.4908  
G01 X-1.1320 Y1.5492  
G01 X-1.1308 Y1.5553  
G01 X-1.1284 Y1.5612  
G01 X-1.1249 Y1.5664  
G01 X-1.1204 Y1.5709  
G01 X-1.1152 Y1.5744  
G01 X-1.1093 Y1.5768  
G01 X-1.1032 Y1.5780  
G01 X-1.0968 Y1.5780  
G01 X-1.0907 Y1.5768  
G01 X-1.0848 Y1.5744  
G01 X-1.0796 Y1.5709  
G01 X-1.0751 Y1.5664  
G01 X-1.0716 Y1.5612  
G01 X-1.0692 Y1.5553  
G01 X-1.0680 Y1.5492  
G01 X-1.0680 Y1.4908  
G01 X-1.0692 Y1.4847  
G01 X-1.0716 Y1.4788  
G01 X-1.0751 Y1.4736  
G01 X-1.0796 Y1.4691  
G01 X-1.0848 Y1.4656  
G01 X-1.0907 Y1.4632  
G01 X-1.0968 Y1.4620  
G01 X-1.1032 Y1.4620  
G01 X-1.1093 Y1.4632  
G01 X-1.1152 Y1.4656  
G01 X-1.1204 Y1.4691  
G00 Z0.0500  
G00 X-1.0204 Y1.4691  
G01 Z-0.0040 F10    
G01 X-1.0249 Y1.4736  F20    
G01 X-1.0284 Y1.4788  
G01 X-1.0308 Y1.4847  
G01 X-1.0320 Y1.4908  
G01 X-1.0320 Y1.5492  
G01 X-1.0308 Y1.5553  
G01 X-1.0284 Y1.5612  
G01 X-1.0249 Y1.5664  
G01 X-1.0204 Y1.5709  
G01 X-1.0152 Y1.5744  
G01 X-1.0093 Y1.5768  
G01 X-1.0032 Y1.5780  
G01 X-0.9968 Y1.5780  
G01 X-0.9907 Y1.5768  
G01 X-0.9848 Y1.5744  
G01 X-0.9796 Y1.5709  
G01 X-0.9751 Y1.5664  
G01 X-0.9716 Y1.5612  
G01 X-0.9692 Y1.5553  
G01 X-0.9680 Y1.5492  
G01 X-0.9680 Y1.4908  
G01 X-0.9692 Y1.4847  
G01 X-0.9716 Y1.4788  
G01 X-0.9751 Y1.4736  
G01 X-0.9796 Y1.4691  
G01 X-0.9848 Y1.4656  
G01 X-0.9907 Y1.4632  
G01 X-0.9968 Y1.4620  
G01 X-1.0032 Y1.4620  
G01 X-1.0093 Y1.4632  
G01 X-1.0152 Y1.4656  
G01 X-1.0204 Y1.4691  
G00 Z0.0500  
G00 X-1.0204 Y1.2709  
G01 Z-0.0040 F10    
G01 X-1.0152 Y1.2744  F20    
G01 X-1.0093 Y1.2768  
G01 X-1.0032 Y1.2780  
G01 X-0.9968 Y1.2780  
G01 X-0.9907 Y1.2768  
G01 X-0.9848 Y1.2744  
G01 X-0.9796 Y1.2709  
G01 X-0.9751 Y1.2664  
G01 X-0.9716 Y1.2612  
G01 X-0.9692 Y1.2553  
G01 X-0.9680 Y1.2492  
G01 X-0.9680 Y1.2170  
G01 X-0.9197 Y1.2170  
G01 X-0.9197 Y1.2249  
G01 X-0.9188 Y1.2271  
G01 X-0.9171 Y1.2288  
G01 X-0.9149 Y1.2297  
G01 X-0.8651 Y1.2297  
G01 X-0.8629 Y1.2288  
G01 X-0.8612 Y1.2271  
G01 X-0.8603 Y1.2249  
G01 X-0.8603 Y1.1751  
G01 X-0.8612 Y1.1729  
G01 X-0.8629 Y1.1712  
G01 X-0.8651 Y1.1703  
G01 X-0.9149 Y1.1703  
G01 X-0.9171 Y1.1712  
G01 X-0.9188 Y1.1729  
G01 X-0.9197 Y1.1751  
G01 X-0.9197 Y1.1830  
G01 X-0.9699 Y1.1830  
G01 X-0.9716 Y1.1788  
G01 X-0.9751 Y1.1736  
G01 X-0.9796 Y1.1691  
G01 X-0.9848 Y1.1656  
G01 X-0.9907 Y1.1632  
G01 X-0.9950 Y1.1624  
G01 X-0.9950 Y0.9960  
G01 X-0.9668 Y0.9960  
G01 X-0.9340 Y0.9632  
G01 X-0.9340 Y0.9168  
G01 X-0.9668 Y0.8840  
G01 X-1.0132 Y0.8840  
G01 X-1.0460 Y0.9168  
G01 X-1.0460 Y0.9370  
G01 X-1.0780 Y0.9370  
G01 X-1.0780 Y0.9267  
G01 X-1.0967 Y0.9080  
G01 X-1.1233 Y0.9080  
G01 X-1.1420 Y0.9267  
G01 X-1.1420 Y0.9533  
G01 X-1.1233 Y0.9720  
G01 X-1.0967 Y0.9720  
G01 X-1.0957 Y0.9710  
G01 X-1.0382 Y0.9710  
G01 X-1.0290 Y0.9802  
G01 X-1.0290 Y1.1804  
G01 X-1.0308 Y1.1847  
G01 X-1.0320 Y1.1908  
G01 X-1.0320 Y1.2492  
G01 X-1.0308 Y1.2553  
G01 X-1.0284 Y1.2612  
G01 X-1.0249 Y1.2664  
G01 X-1.0204 Y1.2709  
G00 Z0.0500  
G00 X-0.9620 Y1.0833  
G01 Z-0.0040 F10    
G01 X-0.9433 Y1.1020  F20    
G01 X-0.9167 Y1.1020  
G01 X-0.9117 Y1.0970  
G01 X-0.8860 Y1.0970  
G01 X-0.8860 Y1.1032  
G01 X-0.8532 Y1.1360  
G01 X-0.8068 Y1.1360  
G01 X-0.7740 Y1.1032  
G01 X-0.7740 Y1.0568  
G01 X-0.8068 Y1.0240  
G01 X-0.8532 Y1.0240  
G01 X-0.8860 Y1.0568  
G01 X-0.8860 Y1.0630  
G01 X-0.8980 Y1.0630  
G01 X-0.8980 Y1.0567  
G01 X-0.9167 Y1.0380  
G01 X-0.9433 Y1.0380  
G01 X-0.9620 Y1.0567  
G01 X-0.9620 Y1.0833  
G00 Z0.0500  
G00 X-0.9120 Y0.7033  
G01 Z-0.0040 F10    
G01 X-0.8933 Y0.7220  F20    
G01 X-0.8667 Y0.7220  
G01 X-0.8637 Y0.7190  
G01 X-0.8160 Y0.7190  
G01 X-0.8160 Y0.7432  
G01 X-0.7832 Y0.7760  
G01 X-0.7368 Y0.7760  
G01 X-0.7040 Y0.7432  
G01 X-0.7040 Y0.6968  
G01 X-0.7368 Y0.6640  
G01 X-0.7832 Y0.6640  
G01 X-0.8042 Y0.6850  
G01 X-0.8480 Y0.6850  
G01 X-0.8480 Y0.6767  
G01 X-0.8667 Y0.6580  
G01 X-0.8933 Y0.6580  
G01 X-0.9120 Y0.6767  
G01 X-0.9120 Y0.7033  
G00 Z0.0500  
G00 X-1.9722 Y0.3630  
G01 Z-0.0040 F10    
G01 X-1.9470 Y0.3378  F20    
G01 X-1.9470 Y0.3022  
G01 X-1.9722 Y0.2770  
G01 X-1.9820 Y0.2770  
G01 X-1.9820 Y0.2630  
G01 X-1.9722 Y0.2630  
G01 X-1.9470 Y0.2378  
G01 X-1.9470 Y0.2022  
G01 X-1.9722 Y0.1770  
G01 X-2.0078 Y0.1770  
G01 X-2.0330 Y0.2022  
G01 X-2.0330 Y0.2378  
G01 X-2.0160 Y0.2548  
G01 X-2.0160 Y0.2852  
G01 X-2.0330 Y0.3022  
G01 X-2.0330 Y0.3378  
G01 X-2.0078 Y0.3630  
G01 X-1.9722 Y0.3630  
G00 Z0.0500  
G00 X-2.3722 Y0.3630  
G01 Z-0.0040 F10    
G01 X-2.3470 Y0.3378  F20    
G01 X-2.3470 Y0.3022  
G01 X-2.3722 Y0.2770  
G01 X-2.3810 Y0.2770  
G01 X-2.3810 Y0.2630  
G01 X-2.3722 Y0.2630  
G01 X-2.3470 Y0.2378  
G01 X-2.3470 Y0.2022  
G01 X-2.3722 Y0.1770  
G01 X-2.4078 Y0.1770  
G01 X-2.4330 Y0.2022  
G01 X-2.4330 Y0.2378  
G01 X-2.4150 Y0.2558  
G01 X-2.4150 Y0.2842  
G01 X-2.4330 Y0.3022  
G01 X-2.4330 Y0.3378  
G01 X-2.4078 Y0.3630  
G01 X-2.3722 Y0.3630  
G00 Z0.0500  
G00 X-2.5722 Y0.3630  
G01 Z-0.0040 F10    
G01 X-2.5470 Y0.3378  F20    
G01 X-2.5470 Y0.3022  
G01 X-2.5722 Y0.2770  
G01 X-2.6078 Y0.2770  
G01 X-2.6330 Y0.3022  
G01 X-2.6330 Y0.3378  
G01 X-2.6078 Y0.3630  
G01 X-2.5722 Y0.3630  
G00 Z0.0500  
G00 X-2.6722 Y0.3630  
G01 Z-0.0040 F10    
G01 X-2.6470 Y0.3378  F20    
G01 X-2.6470 Y0.3022  
G01 X-2.6722 Y0.2770  
G01 X-2.7078 Y0.2770  
G01 X-2.7330 Y0.3022  
G01 X-2.7330 Y0.3378  
G01 X-2.7078 Y0.3630  
G01 X-2.6722 Y0.3630  
G00 Z0.0500  
G00 X-2.6722 Y0.2630  
G01 Z-0.0040 F10    
G01 X-2.6470 Y0.2378  F20    
G01 X-2.6470 Y0.2022  
G01 X-2.6722 Y0.1770  
G01 X-2.7078 Y0.1770  
G01 X-2.7330 Y0.2022  
G01 X-2.7330 Y0.2378  
G01 X-2.7078 Y0.2630  
G01 X-2.6722 Y0.2630  
G00 Z0.0500  
G00 X-2.6330 Y0.2378  
G01 Z-0.0040 F10    
G01 X-2.6078 Y0.2630  F20    
G01 X-2.5722 Y0.2630  
G01 X-2.5470 Y0.2378  
G01 X-2.5470 Y0.2022  
G01 X-2.5722 Y0.1770  
G01 X-2.6078 Y0.1770  
G01 X-2.6330 Y0.2022  
G01 X-2.6330 Y0.2378  
G00 Z0.0500  
G00 X-2.9872 Y0.6750  
G01 Z-0.0040 F10    
G01 X-2.9920 Y0.6702  F20    
G01 X-2.9975 Y0.6662  
G01 X-3.0035 Y0.6632  
G01 X-3.0099 Y0.6611  
G01 X-3.0166 Y0.6600  
G01 X-3.0234 Y0.6600  
G01 X-3.0301 Y0.6611  
G01 X-3.0365 Y0.6632  
G01 X-3.0425 Y0.6662  
G01 X-3.0480 Y0.6702  
G01 X-3.0528 Y0.6750  
G01 X-3.0568 Y0.6805  
G01 X-3.0598 Y0.6865  
G01 X-3.0619 Y0.6929  
G01 X-3.0630 Y0.6996  
G01 X-3.0630 Y0.7804  
G01 X-3.0619 Y0.7871  
G01 X-3.0598 Y0.7935  
G01 X-3.0568 Y0.7995  
G01 X-3.0528 Y0.8050  
G01 X-3.0480 Y0.8098  
G01 X-3.0450 Y0.8120  
G01 X-3.0450 Y0.9024  
G01 X-3.0493 Y0.9032  
G01 X-3.0552 Y0.9056  
G01 X-3.0604 Y0.9091  
G01 X-3.0649 Y0.9136  
G01 X-3.0684 Y0.9188  
G01 X-3.0708 Y0.9247  
G01 X-3.0720 Y0.9308  
G01 X-3.0720 Y0.9892  
G01 X-3.0708 Y0.9953  
G01 X-3.0684 Y1.0012  
G01 X-3.0649 Y1.0064  
G01 X-3.0604 Y1.0109  
G01 X-3.0552 Y1.0144  
G01 X-3.0493 Y1.0168  
G01 X-3.0432 Y1.0180  
G01 X-3.0368 Y1.0180  
G01 X-3.0307 Y1.0168  
G01 X-3.0248 Y1.0144  
G01 X-3.0196 Y1.0109  
G01 X-3.0151 Y1.0064  
G01 X-3.0116 Y1.0012  
G01 X-3.0092 Y0.9953  
G01 X-3.0080 Y0.9892  
G01 X-3.0080 Y0.9308  
G01 X-3.0092 Y0.9247  
G01 X-3.0110 Y0.9204  
G01 X-3.0110 Y0.8191  
G01 X-3.0099 Y0.8189  
G01 X-3.0035 Y0.8168  
G01 X-2.9975 Y0.8138  
G01 X-2.9920 Y0.8098  
G01 X-2.9872 Y0.8050  
G01 X-2.9832 Y0.7995  
G01 X-2.9802 Y0.7935  
G01 X-2.9781 Y0.7871  
G01 X-2.9770 Y0.7804  
G01 X-2.9770 Y0.6996  
G01 X-2.9781 Y0.6929  
G01 X-2.9802 Y0.6865  
G01 X-2.9832 Y0.6805  
G01 X-2.9872 Y0.6750  
G00 Z0.0500  
G00 X-3.0872 Y0.6750  
G01 Z-0.0040 F10    
G01 X-3.0920 Y0.6702  F20    
G01 X-3.0975 Y0.6662  
G01 X-3.1035 Y0.6632  
G01 X-3.1099 Y0.6611  
G01 X-3.1166 Y0.6600  
G01 X-3.1234 Y0.6600  
G01 X-3.1301 Y0.6611  
G01 X-3.1365 Y0.6632  
G01 X-3.1425 Y0.6662  
G01 X-3.1480 Y0.6702  
G01 X-3.1528 Y0.6750  
G01 X-3.1568 Y0.6805  
G01 X-3.1598 Y0.6865  
G01 X-3.1619 Y0.6929  
G01 X-3.1630 Y0.6996  
G01 X-3.1630 Y0.7804  
G01 X-3.1619 Y0.7871  
G01 X-3.1598 Y0.7935  
G01 X-3.1568 Y0.7995  
G01 X-3.1528 Y0.8050  
G01 X-3.1500 Y0.8078  
G01 X-3.1500 Y0.9035  
G01 X-3.1552 Y0.9056  
G01 X-3.1604 Y0.9091  
G01 X-3.1649 Y0.9136  
G01 X-3.1684 Y0.9188  
G01 X-3.1708 Y0.9247  
G01 X-3.1720 Y0.9308  
G01 X-3.1720 Y0.9892  
G01 X-3.1708 Y0.9953  
G01 X-3.1684 Y1.0012  
G01 X-3.1649 Y1.0064  
G01 X-3.1604 Y1.0109  
G01 X-3.1552 Y1.0144  
G01 X-3.1493 Y1.0168  
G01 X-3.1432 Y1.0180  
G01 X-3.1368 Y1.0180  
G01 X-3.1307 Y1.0168  
G01 X-3.1248 Y1.0144  
G01 X-3.1196 Y1.0109  
G01 X-3.1151 Y1.0064  
G01 X-3.1116 Y1.0012  
G01 X-3.1092 Y0.9953  
G01 X-3.1080 Y0.9892  
G01 X-3.1080 Y0.9308  
G01 X-3.1092 Y0.9247  
G01 X-3.1116 Y0.9188  
G01 X-3.1151 Y0.9136  
G01 X-3.1160 Y0.9127  
G01 X-3.1160 Y0.8199  
G01 X-3.1099 Y0.8189  
G01 X-3.1035 Y0.8168  
G01 X-3.0975 Y0.8138  
G01 X-3.0920 Y0.8098  
G01 X-3.0872 Y0.8050  
G01 X-3.0832 Y0.7995  
G01 X-3.0802 Y0.7935  
G01 X-3.0781 Y0.7871  
G01 X-3.0770 Y0.7804  
G01 X-3.0770 Y0.6996  
G01 X-3.0781 Y0.6929  
G01 X-3.0802 Y0.6865  
G01 X-3.0832 Y0.6805  
G01 X-3.0872 Y0.6750  
G00 Z0.0500  
G00 X-3.1872 Y0.6750  
G01 Z-0.0040 F10    
G01 X-3.1920 Y0.6702  F20    
G01 X-3.1975 Y0.6662  
G01 X-3.2035 Y0.6632  
G01 X-3.2099 Y0.6611  
G01 X-3.2166 Y0.6600  
G01 X-3.2234 Y0.6600  
G01 X-3.2301 Y0.6611  
G01 X-3.2365 Y0.6632  
G01 X-3.2425 Y0.6662  
G01 X-3.2480 Y0.6702  
G01 X-3.2528 Y0.6750  
G01 X-3.2568 Y0.6805  
G01 X-3.2598 Y0.6865  
G01 X-3.2619 Y0.6929  
G01 X-3.2630 Y0.6996  
G01 X-3.2630 Y0.7804  
G01 X-3.2619 Y0.7871  
G01 X-3.2598 Y0.7935  
G01 X-3.2568 Y0.7995  
G01 X-3.2550 Y0.8020  
G01 X-3.2550 Y0.9056  
G01 X-3.2552 Y0.9056  
G01 X-3.2604 Y0.9091  
G01 X-3.2649 Y0.9136  
G01 X-3.2684 Y0.9188  
G01 X-3.2708 Y0.9247  
G01 X-3.2720 Y0.9308  
G01 X-3.2720 Y0.9892  
G01 X-3.2708 Y0.9953  
G01 X-3.2684 Y1.0012  
G01 X-3.2649 Y1.0064  
G01 X-3.2604 Y1.0109  
G01 X-3.2552 Y1.0144  
G01 X-3.2493 Y1.0168  
G01 X-3.2432 Y1.0180  
G01 X-3.2368 Y1.0180  
G01 X-3.2307 Y1.0168  
G01 X-3.2248 Y1.0144  
G01 X-3.2196 Y1.0109  
G01 X-3.2151 Y1.0064  
G01 X-3.2116 Y1.0012  
G01 X-3.2092 Y0.9953  
G01 X-3.2080 Y0.9892  
G01 X-3.2080 Y0.9308  
G01 X-3.2092 Y0.9247  
G01 X-3.2116 Y0.9188  
G01 X-3.2151 Y0.9136  
G01 X-3.2196 Y0.9091  
G01 X-3.2210 Y0.9082  
G01 X-3.2210 Y0.8200  
G01 X-3.2166 Y0.8200  
G01 X-3.2099 Y0.8189  
G01 X-3.2035 Y0.8168  
G01 X-3.1975 Y0.8138  
G01 X-3.1920 Y0.8098  
G01 X-3.1872 Y0.8050  
G01 X-3.1832 Y0.7995  
G01 X-3.1802 Y0.7935  
G01 X-3.1781 Y0.7871  
G01 X-3.1770 Y0.7804  
G01 X-3.1770 Y0.6996  
G01 X-3.1781 Y0.6929  
G01 X-3.1802 Y0.6865  
G01 X-3.1832 Y0.6805  
G01 X-3.1872 Y0.6750  
G00 Z0.0500  
G00 X-3.2872 Y0.6750  
G01 Z-0.0040 F10    
G01 X-3.2920 Y0.6702  F20    
G01 X-3.2975 Y0.6662  
G01 X-3.3035 Y0.6632  
G01 X-3.3099 Y0.6611  
G01 X-3.3166 Y0.6600  
G01 X-3.3234 Y0.6600  
G01 X-3.3301 Y0.6611  
G01 X-3.3365 Y0.6632  
G01 X-3.3425 Y0.6662  
G01 X-3.3480 Y0.6702  
G01 X-3.3528 Y0.6750  
G01 X-3.3568 Y0.6805  
G01 X-3.3598 Y0.6865  
G01 X-3.3619 Y0.6929  
G01 X-3.3630 Y0.6996  
G01 X-3.3630 Y0.7804  
G01 X-3.3619 Y0.7871  
G01 X-3.3598 Y0.7935  
G01 X-3.3568 Y0.7995  
G01 X-3.3528 Y0.8050  
G01 X-3.3480 Y0.8098  
G01 X-3.3425 Y0.8138  
G01 X-3.3390 Y0.8156  
G01 X-3.3390 Y0.9020  
G01 X-3.3432 Y0.9020  
G01 X-3.3493 Y0.9032  
G01 X-3.3552 Y0.9056  
G01 X-3.3604 Y0.9091  
G01 X-3.3649 Y0.9136  
G01 X-3.3684 Y0.9188  
G01 X-3.3708 Y0.9247  
G01 X-3.3720 Y0.9308  
G01 X-3.3720 Y0.9892  
G01 X-3.3708 Y0.9953  
G01 X-3.3684 Y1.0012  
G01 X-3.3649 Y1.0064  
G01 X-3.3604 Y1.0109  
G01 X-3.3552 Y1.0144  
G01 X-3.3493 Y1.0168  
G01 X-3.3432 Y1.0180  
G01 X-3.3368 Y1.0180  
G01 X-3.3307 Y1.0168  
G01 X-3.3248 Y1.0144  
G01 X-3.3196 Y1.0109  
G01 X-3.3151 Y1.0064  
G01 X-3.3116 Y1.0012  
G01 X-3.3092 Y0.9953  
G01 X-3.3080 Y0.9892  
G01 X-3.3080 Y0.9638  
G01 X-3.3078 Y0.9636  
G01 X-3.3070 Y0.9621  
G01 X-3.3062 Y0.9606  
G01 X-3.3060 Y0.9601  
G01 X-3.3058 Y0.9596  
G01 X-3.3054 Y0.9579  
G01 X-3.3050 Y0.9562  
G01 X-3.3050 Y0.9557  
G01 X-3.3049 Y0.9552  
G01 X-3.3050 Y0.9535  
G01 X-3.3050 Y0.8173  
G01 X-3.3035 Y0.8168  
G01 X-3.2975 Y0.8138  
G01 X-3.2920 Y0.8098  
G01 X-3.2872 Y0.8050  
G01 X-3.2832 Y0.7995  
G01 X-3.2802 Y0.7935  
G01 X-3.2781 Y0.7871  
G01 X-3.2770 Y0.7804  
G01 X-3.2770 Y0.6996  
G01 X-3.2781 Y0.6929  
G01 X-3.2802 Y0.6865  
G01 X-3.2832 Y0.6805  
G01 X-3.2872 Y0.6750  
G00 Z0.0500  
G00 X-3.4072 Y0.6750  
G01 Z-0.0040 F10    
G01 X-3.4120 Y0.6702  F20    
G01 X-3.4175 Y0.6662  
G01 X-3.4235 Y0.6632  
G01 X-3.4299 Y0.6611  
G01 X-3.4366 Y0.6600  
G01 X-3.4434 Y0.6600  
G01 X-3.4501 Y0.6611  
G01 X-3.4565 Y0.6632  
G01 X-3.4625 Y0.6662  
G01 X-3.4680 Y0.6702  
G01 X-3.4728 Y0.6750  
G01 X-3.4768 Y0.6805  
G01 X-3.4798 Y0.6865  
G01 X-3.4819 Y0.6929  
G01 X-3.4830 Y0.6996  
G01 X-3.4830 Y0.7804  
G01 X-3.4819 Y0.7871  
G01 X-3.4798 Y0.7935  
G01 X-3.4768 Y0.7995  
G01 X-3.4728 Y0.8050  
G01 X-3.4680 Y0.8098  
G01 X-3.4650 Y0.8120  
G01 X-3.4650 Y0.9138  
G01 X-3.4684 Y0.9188  
G01 X-3.4708 Y0.9247  
G01 X-3.4720 Y0.9308  
G01 X-3.4720 Y0.9892  
G01 X-3.4708 Y0.9953  
G01 X-3.4684 Y1.0012  
G01 X-3.4649 Y1.0064  
G01 X-3.4604 Y1.0109  
G01 X-3.4552 Y1.0144  
G01 X-3.4493 Y1.0168  
G01 X-3.4432 Y1.0180  
G01 X-3.4368 Y1.0180  
G01 X-3.4307 Y1.0168  
G01 X-3.4248 Y1.0144  
G01 X-3.4196 Y1.0109  
G01 X-3.4151 Y1.0064  
G01 X-3.4116 Y1.0012  
G01 X-3.4092 Y0.9953  
G01 X-3.4080 Y0.9892  
G01 X-3.4080 Y0.9308  
G01 X-3.4092 Y0.9247  
G01 X-3.4116 Y0.9188  
G01 X-3.4151 Y0.9136  
G01 X-3.4196 Y0.9091  
G01 X-3.4248 Y0.9056  
G01 X-3.4307 Y0.9032  
G01 X-3.4310 Y0.9032  
G01 X-3.4310 Y0.8191  
G01 X-3.4299 Y0.8189  
G01 X-3.4235 Y0.8168  
G01 X-3.4175 Y0.8138  
G01 X-3.4120 Y0.8098  
G01 X-3.4072 Y0.8050  
G01 X-3.4032 Y0.7995  
G01 X-3.4002 Y0.7935  
G01 X-3.3981 Y0.7871  
G01 X-3.3970 Y0.7804  
G01 X-3.3970 Y0.6996  
G01 X-3.3981 Y0.6929  
G01 X-3.4002 Y0.6865  
G01 X-3.4032 Y0.6805  
G01 X-3.4072 Y0.6750  
G00 Z0.0500  
G00 X-3.5072 Y0.6750  
G01 Z-0.0040 F10    
G01 X-3.5120 Y0.6702  F20    
G01 X-3.5175 Y0.6662  
G01 X-3.5235 Y0.6632  
G01 X-3.5299 Y0.6611  
G01 X-3.5366 Y0.6600  
G01 X-3.5434 Y0.6600  
G01 X-3.5501 Y0.6611  
G01 X-3.5565 Y0.6632  
G01 X-3.5625 Y0.6662  
G01 X-3.5680 Y0.6702  
G01 X-3.5728 Y0.6750  
G01 X-3.5768 Y0.6805  
G01 X-3.5798 Y0.6865  
G01 X-3.5819 Y0.6929  
G01 X-3.5830 Y0.6996  
G01 X-3.5830 Y0.7804  
G01 X-3.5819 Y0.7871  
G01 X-3.5798 Y0.7935  
G01 X-3.5768 Y0.7995  
G01 X-3.5728 Y0.8050  
G01 X-3.5700 Y0.8078  
G01 X-3.5700 Y0.9228  
G01 X-3.5708 Y0.9247  
G01 X-3.5720 Y0.9308  
G01 X-3.5720 Y0.9892  
G01 X-3.5708 Y0.9953  
G01 X-3.5684 Y1.0012  
G01 X-3.5649 Y1.0064  
G01 X-3.5604 Y1.0109  
G01 X-3.5552 Y1.0144  
G01 X-3.5493 Y1.0168  
G01 X-3.5432 Y1.0180  
G01 X-3.5368 Y1.0180  
G01 X-3.5307 Y1.0168  
G01 X-3.5248 Y1.0144  
G01 X-3.5196 Y1.0109  
G01 X-3.5151 Y1.0064  
G01 X-3.5116 Y1.0012  
G01 X-3.5092 Y0.9953  
G01 X-3.5080 Y0.9892  
G01 X-3.5080 Y0.9308  
G01 X-3.5092 Y0.9247  
G01 X-3.5116 Y0.9188  
G01 X-3.5151 Y0.9136  
G01 X-3.5196 Y0.9091  
G01 X-3.5248 Y0.9056  
G01 X-3.5307 Y0.9032  
G01 X-3.5360 Y0.9022  
G01 X-3.5360 Y0.8199  
G01 X-3.5299 Y0.8189  
G01 X-3.5235 Y0.8168  
G01 X-3.5175 Y0.8138  
G01 X-3.5120 Y0.8098  
G01 X-3.5072 Y0.8050  
G01 X-3.5032 Y0.7995  
G01 X-3.5002 Y0.7935  
G01 X-3.4981 Y0.7871  
G01 X-3.4970 Y0.7804  
G01 X-3.4970 Y0.6996  
G01 X-3.4981 Y0.6929  
G01 X-3.5002 Y0.6865  
G01 X-3.5032 Y0.6805  
G01 X-3.5072 Y0.6750  
G00 Z0.0500  
G00 X-3.6072 Y0.6750  
G01 Z-0.0040 F10    
G01 X-3.6120 Y0.6702  F20    
G01 X-3.6175 Y0.6662  
G01 X-3.6235 Y0.6632  
G01 X-3.6299 Y0.6611  
G01 X-3.6366 Y0.6600  
G01 X-3.6434 Y0.6600  
G01 X-3.6501 Y0.6611  
G01 X-3.6565 Y0.6632  
G01 X-3.6625 Y0.6662  
G01 X-3.6680 Y0.6702  
G01 X-3.6728 Y0.6750  
G01 X-3.6768 Y0.6805  
G01 X-3.6798 Y0.6865  
G01 X-3.6819 Y0.6929  
G01 X-3.6830 Y0.6996  
G01 X-3.6830 Y0.7804  
G01 X-3.6819 Y0.7871  
G01 X-3.6798 Y0.7935  
G01 X-3.6768 Y0.7995  
G01 X-3.6728 Y0.8050  
G01 X-3.6680 Y0.8098  
G01 X-3.6625 Y0.8138  
G01 X-3.6565 Y0.8168  
G01 X-3.6540 Y0.8177  
G01 X-3.6540 Y0.9052  
G01 X-3.6552 Y0.9056  
G01 X-3.6604 Y0.9091  
G01 X-3.6649 Y0.9136  
G01 X-3.6684 Y0.9188  
G01 X-3.6708 Y0.9247  
G01 X-3.6720 Y0.9308  
G01 X-3.6720 Y0.9892  
G01 X-3.6708 Y0.9953  
G01 X-3.6684 Y1.0012  
G01 X-3.6649 Y1.0064  
G01 X-3.6604 Y1.0109  
G01 X-3.6552 Y1.0144  
G01 X-3.6493 Y1.0168  
G01 X-3.6432 Y1.0180  
G01 X-3.6368 Y1.0180  
G01 X-3.6307 Y1.0168  
G01 X-3.6248 Y1.0144  
G01 X-3.6196 Y1.0109  
G01 X-3.6151 Y1.0064  
G01 X-3.6116 Y1.0012  
G01 X-3.6092 Y0.9953  
G01 X-3.6080 Y0.9892  
G01 X-3.6080 Y0.9308  
G01 X-3.6092 Y0.9247  
G01 X-3.6116 Y0.9188  
G01 X-3.6151 Y0.9136  
G01 X-3.6196 Y0.9091  
G01 X-3.6200 Y0.9089  
G01 X-3.6200 Y0.8151  
G01 X-3.6175 Y0.8138  
G01 X-3.6120 Y0.8098  
G01 X-3.6072 Y0.8050  
G01 X-3.6032 Y0.7995  
G01 X-3.6002 Y0.7935  
G01 X-3.5981 Y0.7871  
G01 X-3.5970 Y0.7804  
G01 X-3.5970 Y0.6996  
G01 X-3.5981 Y0.6929  
G01 X-3.6002 Y0.6865  
G01 X-3.6032 Y0.6805  
G01 X-3.6072 Y0.6750  
G00 Z0.0500  
G00 X-3.7072 Y0.6750  
G01 Z-0.0040 F10    
G01 X-3.7120 Y0.6702  F20    
G01 X-3.7175 Y0.6662  
G01 X-3.7235 Y0.6632  
G01 X-3.7299 Y0.6611  
G01 X-3.7366 Y0.6600  
G01 X-3.7434 Y0.6600  
G01 X-3.7501 Y0.6611  
G01 X-3.7565 Y0.6632  
G01 X-3.7625 Y0.6662  
G01 X-3.7680 Y0.6702  
G01 X-3.7728 Y0.6750  
G01 X-3.7768 Y0.6805  
G01 X-3.7798 Y0.6865  
G01 X-3.7819 Y0.6929  
G01 X-3.7830 Y0.6996  
G01 X-3.7830 Y0.7804  
G01 X-3.7819 Y0.7871  
G01 X-3.7798 Y0.7935  
G01 X-3.7768 Y0.7995  
G01 X-3.7728 Y0.8050  
G01 X-3.7680 Y0.8098  
G01 X-3.7625 Y0.8138  
G01 X-3.7590 Y0.8156  
G01 X-3.7590 Y0.9082  
G01 X-3.7604 Y0.9091  
G01 X-3.7649 Y0.9136  
G01 X-3.7684 Y0.9188  
G01 X-3.7708 Y0.9247  
G01 X-3.7720 Y0.9308  
G01 X-3.7720 Y0.9892  
G01 X-3.7708 Y0.9953  
G01 X-3.7684 Y1.0012  
G01 X-3.7649 Y1.0064  
G01 X-3.7604 Y1.0109  
G01 X-3.7552 Y1.0144  
G01 X-3.7493 Y1.0168  
G01 X-3.7432 Y1.0180  
G01 X-3.7368 Y1.0180  
G01 X-3.7307 Y1.0168  
G01 X-3.7248 Y1.0144  
G01 X-3.7196 Y1.0109  
G01 X-3.7151 Y1.0064  
G01 X-3.7116 Y1.0012  
G01 X-3.7092 Y0.9953  
G01 X-3.7080 Y0.9892  
G01 X-3.7080 Y0.9308  
G01 X-3.7092 Y0.9247  
G01 X-3.7116 Y0.9188  
G01 X-3.7151 Y0.9136  
G01 X-3.7196 Y0.9091  
G01 X-3.7248 Y0.9056  
G01 X-3.7250 Y0.9056  
G01 X-3.7250 Y0.8173  
G01 X-3.7235 Y0.8168  
G01 X-3.7175 Y0.8138  
G01 X-3.7120 Y0.8098  
G01 X-3.7072 Y0.8050  
G01 X-3.7032 Y0.7995  
G01 X-3.7002 Y0.7935  
G01 X-3.6981 Y0.7871  
G01 X-3.6970 Y0.7804  
G01 X-3.6970 Y0.6996  
G01 X-3.6981 Y0.6929  
G01 X-3.7002 Y0.6865  
G01 X-3.7032 Y0.6805  
G01 X-3.7072 Y0.6750  
G00 Z0.0500  
G00 X-3.7151 Y1.5136  
G01 Z-0.0040 F10    
G01 X-3.7196 Y1.5091  F20    
G01 X-3.7248 Y1.5056  
G01 X-3.7307 Y1.5032  
G01 X-3.7368 Y1.5020  
G01 X-3.7432 Y1.5020  
G01 X-3.7493 Y1.5032  
G01 X-3.7552 Y1.5056  
G01 X-3.7604 Y1.5091  
G01 X-3.7649 Y1.5136  
G01 X-3.7684 Y1.5188  
G01 X-3.7708 Y1.5247  
G01 X-3.7720 Y1.5308  
G01 X-3.7720 Y1.5892  
G01 X-3.7708 Y1.5953  
G01 X-3.7684 Y1.6012  
G01 X-3.7649 Y1.6064  
G01 X-3.7604 Y1.6109  
G01 X-3.7590 Y1.6118  
G01 X-3.7590 Y1.7009  
G01 X-3.7601 Y1.7011  
G01 X-3.7665 Y1.7032  
G01 X-3.7725 Y1.7062  
G01 X-3.7780 Y1.7102  
G01 X-3.7828 Y1.7150  
G01 X-3.7868 Y1.7205  
G01 X-3.7898 Y1.7265  
G01 X-3.7919 Y1.7329  
G01 X-3.7930 Y1.7396  
G01 X-3.7930 Y1.8204  
G01 X-3.7919 Y1.8271  
G01 X-3.7898 Y1.8335  
G01 X-3.7868 Y1.8395  
G01 X-3.7828 Y1.8450  
G01 X-3.7780 Y1.8498  
G01 X-3.7725 Y1.8538  
G01 X-3.7665 Y1.8568  
G01 X-3.7601 Y1.8589  
G01 X-3.7534 Y1.8600  
G01 X-3.7466 Y1.8600  
G01 X-3.7399 Y1.8589  
G01 X-3.7335 Y1.8568  
G01 X-3.7275 Y1.8538  
G01 X-3.7220 Y1.8498  
G01 X-3.7172 Y1.8450  
G01 X-3.7132 Y1.8395  
G01 X-3.7102 Y1.8335  
G01 X-3.7081 Y1.8271  
G01 X-3.7070 Y1.8204  
G01 X-3.7070 Y1.7396  
G01 X-3.7081 Y1.7329  
G01 X-3.7102 Y1.7265  
G01 X-3.7132 Y1.7205  
G01 X-3.7172 Y1.7150  
G01 X-3.7220 Y1.7102  
G01 X-3.7250 Y1.7080  
G01 X-3.7250 Y1.6144  
G01 X-3.7248 Y1.6144  
G01 X-3.7196 Y1.6109  
G01 X-3.7151 Y1.6064  
G01 X-3.7116 Y1.6012  
G01 X-3.7092 Y1.5953  
G01 X-3.7080 Y1.5892  
G01 X-3.7080 Y1.5308  
G01 X-3.7092 Y1.5247  
G01 X-3.7116 Y1.5188  
G01 X-3.7151 Y1.5136  
G00 Z0.0500  
G00 X-3.6649 Y1.5136  
G01 Z-0.0040 F10    
G01 X-3.6684 Y1.5188  F20    
G01 X-3.6708 Y1.5247  
G01 X-3.6720 Y1.5308  
G01 X-3.6720 Y1.5892  
G01 X-3.6708 Y1.5953  
G01 X-3.6684 Y1.6012  
G01 X-3.6649 Y1.6064  
G01 X-3.6604 Y1.6109  
G01 X-3.6552 Y1.6144  
G01 X-3.6540 Y1.6148  
G01 X-3.6540 Y1.7001  
G01 X-3.6601 Y1.7011  
G01 X-3.6665 Y1.7032  
G01 X-3.6725 Y1.7062  
G01 X-3.6780 Y1.7102  
G01 X-3.6828 Y1.7150  
G01 X-3.6868 Y1.7205  
G01 X-3.6898 Y1.7265  
G01 X-3.6919 Y1.7329  
G01 X-3.6930 Y1.7396  
G01 X-3.6930 Y1.8204  
G01 X-3.6919 Y1.8271  
G01 X-3.6898 Y1.8335  
G01 X-3.6868 Y1.8395  
G01 X-3.6828 Y1.8450  
G01 X-3.6780 Y1.8498  
G01 X-3.6725 Y1.8538  
G01 X-3.6665 Y1.8568  
G01 X-3.6601 Y1.8589  
G01 X-3.6534 Y1.8600  
G01 X-3.6466 Y1.8600  
G01 X-3.6399 Y1.8589  
G01 X-3.6335 Y1.8568  
G01 X-3.6275 Y1.8538  
G01 X-3.6220 Y1.8498  
G01 X-3.6172 Y1.8450  
G01 X-3.6132 Y1.8395  
G01 X-3.6102 Y1.8335  
G01 X-3.6081 Y1.8271  
G01 X-3.6070 Y1.8204  
G01 X-3.6070 Y1.7396  
G01 X-3.6081 Y1.7329  
G01 X-3.6102 Y1.7265  
G01 X-3.6132 Y1.7205  
G01 X-3.6172 Y1.7150  
G01 X-3.6200 Y1.7122  
G01 X-3.6200 Y1.6111  
G01 X-3.6196 Y1.6109  
G01 X-3.6151 Y1.6064  
G01 X-3.6116 Y1.6012  
G01 X-3.6092 Y1.5953  
G01 X-3.6080 Y1.5892  
G01 X-3.6080 Y1.5308  
G01 X-3.6092 Y1.5247  
G01 X-3.6116 Y1.5188  
G01 X-3.6151 Y1.5136  
G01 X-3.6196 Y1.5091  
G01 X-3.6248 Y1.5056  
G01 X-3.6307 Y1.5032  
G01 X-3.6368 Y1.5020  
G01 X-3.6432 Y1.5020  
G01 X-3.6493 Y1.5032  
G01 X-3.6552 Y1.5056  
G01 X-3.6604 Y1.5091  
G01 X-3.6649 Y1.5136  
G00 Z0.0500  
G00 X-3.5649 Y1.5136  
G01 Z-0.0040 F10    
G01 X-3.5684 Y1.5188  F20    
G01 X-3.5708 Y1.5247  
G01 X-3.5720 Y1.5308  
G01 X-3.5720 Y1.5892  
G01 X-3.5708 Y1.5953  
G01 X-3.5700 Y1.5972  
G01 X-3.5700 Y1.7049  
G01 X-3.5725 Y1.7062  
G01 X-3.5780 Y1.7102  
G01 X-3.5828 Y1.7150  
G01 X-3.5868 Y1.7205  
G01 X-3.5898 Y1.7265  
G01 X-3.5919 Y1.7329  
G01 X-3.5930 Y1.7396  
G01 X-3.5930 Y1.8204  
G01 X-3.5919 Y1.8271  
G01 X-3.5898 Y1.8335  
G01 X-3.5868 Y1.8395  
G01 X-3.5828 Y1.8450  
G01 X-3.5780 Y1.8498  
G01 X-3.5725 Y1.8538  
G01 X-3.5665 Y1.8568  
G01 X-3.5601 Y1.8589  
G01 X-3.5534 Y1.8600  
G01 X-3.5466 Y1.8600  
G01 X-3.5399 Y1.8589  
G01 X-3.5335 Y1.8568  
G01 X-3.5275 Y1.8538  
G01 X-3.5220 Y1.8498  
G01 X-3.5172 Y1.8450  
G01 X-3.5132 Y1.8395  
G01 X-3.5102 Y1.8335  
G01 X-3.5081 Y1.8271  
G01 X-3.5070 Y1.8204  
G01 X-3.5070 Y1.7396  
G01 X-3.5081 Y1.7329  
G01 X-3.5102 Y1.7265  
G01 X-3.5132 Y1.7205  
G01 X-3.5172 Y1.7150  
G01 X-3.5220 Y1.7102  
G01 X-3.5275 Y1.7062  
G01 X-3.5335 Y1.7032  
G01 X-3.5360 Y1.7023  
G01 X-3.5360 Y1.6178  
G01 X-3.5307 Y1.6168  
G01 X-3.5248 Y1.6144  
G01 X-3.5196 Y1.6109  
G01 X-3.5151 Y1.6064  
G01 X-3.5116 Y1.6012  
G01 X-3.5092 Y1.5953  
G01 X-3.5080 Y1.5892  
G01 X-3.5080 Y1.5308  
G01 X-3.5092 Y1.5247  
G01 X-3.5116 Y1.5188  
G01 X-3.5151 Y1.5136  
G01 X-3.5196 Y1.5091  
G01 X-3.5248 Y1.5056  
G01 X-3.5307 Y1.5032  
G01 X-3.5368 Y1.5020  
G01 X-3.5432 Y1.5020  
G01 X-3.5493 Y1.5032  
G01 X-3.5552 Y1.5056  
G01 X-3.5604 Y1.5091  
G01 X-3.5649 Y1.5136  
G00 Z0.0500  
G00 X-3.4649 Y1.5136  
G01 Z-0.0040 F10    
G01 X-3.4684 Y1.5188  F20    
G01 X-3.4708 Y1.5247  
G01 X-3.4720 Y1.5308  
G01 X-3.4720 Y1.5892  
G01 X-3.4708 Y1.5953  
G01 X-3.4684 Y1.6012  
G01 X-3.4650 Y1.6062  
G01 X-3.4650 Y1.7027  
G01 X-3.4665 Y1.7032  
G01 X-3.4725 Y1.7062  
G01 X-3.4780 Y1.7102  
G01 X-3.4828 Y1.7150  
G01 X-3.4868 Y1.7205  
G01 X-3.4898 Y1.7265  
G01 X-3.4919 Y1.7329  
G01 X-3.4930 Y1.7396  
G01 X-3.4930 Y1.8204  
G01 X-3.4919 Y1.8271  
G01 X-3.4898 Y1.8335  
G01 X-3.4868 Y1.8395  
G01 X-3.4828 Y1.8450  
G01 X-3.4780 Y1.8498  
G01 X-3.4725 Y1.8538  
G01 X-3.4665 Y1.8568  
G01 X-3.4601 Y1.8589  
G01 X-3.4534 Y1.8600  
G01 X-3.4466 Y1.8600  
G01 X-3.4399 Y1.8589  
G01 X-3.4335 Y1.8568  
G01 X-3.4275 Y1.8538  
G01 X-3.4220 Y1.8498  
G01 X-3.4172 Y1.8450  
G01 X-3.4132 Y1.8395  
G01 X-3.4102 Y1.8335  
G01 X-3.4081 Y1.8271  
G01 X-3.4070 Y1.8204  
G01 X-3.4070 Y1.7396  
G01 X-3.4081 Y1.7329  
G01 X-3.4102 Y1.7265  
G01 X-3.4132 Y1.7205  
G01 X-3.4172 Y1.7150  
G01 X-3.4220 Y1.7102  
G01 X-3.4275 Y1.7062  
G01 X-3.4310 Y1.7044  
G01 X-3.4310 Y1.6168  
G01 X-3.4307 Y1.6168  
G01 X-3.4248 Y1.6144  
G01 X-3.4196 Y1.6109  
G01 X-3.4151 Y1.6064  
G01 X-3.4116 Y1.6012  
G01 X-3.4092 Y1.5953  
G01 X-3.4080 Y1.5892  
G01 X-3.4080 Y1.5308  
G01 X-3.4092 Y1.5247  
G01 X-3.4116 Y1.5188  
G01 X-3.4151 Y1.5136  
G01 X-3.4196 Y1.5091  
G01 X-3.4248 Y1.5056  
G01 X-3.4307 Y1.5032  
G01 X-3.4368 Y1.5020  
G01 X-3.4432 Y1.5020  
G01 X-3.4493 Y1.5032  
G01 X-3.4552 Y1.5056  
G01 X-3.4604 Y1.5091  
G01 X-3.4649 Y1.5136  
G00 Z0.0500  
G00 X-3.3649 Y1.5136  
G01 Z-0.0040 F10    
G01 X-3.3684 Y1.5188  F20    
G01 X-3.3708 Y1.5247  
G01 X-3.3720 Y1.5308  
G01 X-3.3720 Y1.5892  
G01 X-3.3708 Y1.5953  
G01 X-3.3684 Y1.6012  
G01 X-3.3649 Y1.6064  
G01 X-3.3604 Y1.6109  
G01 X-3.3600 Y1.6111  
G01 X-3.3600 Y1.7122  
G01 X-3.3628 Y1.7150  
G01 X-3.3668 Y1.7205  
G01 X-3.3698 Y1.7265  
G01 X-3.3719 Y1.7329  
G01 X-3.3730 Y1.7396  
G01 X-3.3730 Y1.8204  
G01 X-3.3719 Y1.8271  
G01 X-3.3698 Y1.8335  
G01 X-3.3668 Y1.8395  
G01 X-3.3628 Y1.8450  
G01 X-3.3580 Y1.8498  
G01 X-3.3525 Y1.8538  
G01 X-3.3465 Y1.8568  
G01 X-3.3401 Y1.8589  
G01 X-3.3334 Y1.8600  
G01 X-3.3266 Y1.8600  
G01 X-3.3199 Y1.8589  
G01 X-3.3135 Y1.8568  
G01 X-3.3075 Y1.8538  
G01 X-3.3020 Y1.8498  
G01 X-3.2972 Y1.8450  
G01 X-3.2932 Y1.8395  
G01 X-3.2902 Y1.8335  
G01 X-3.2881 Y1.8271  
G01 X-3.2870 Y1.8204  
G01 X-3.2870 Y1.7396  
G01 X-3.2881 Y1.7329  
G01 X-3.2902 Y1.7265  
G01 X-3.2932 Y1.7205  
G01 X-3.2972 Y1.7150  
G01 X-3.3020 Y1.7102  
G01 X-3.3075 Y1.7062  
G01 X-3.3135 Y1.7032  
G01 X-3.3199 Y1.7011  
G01 X-3.3260 Y1.7001  
G01 X-3.3260 Y1.6148  
G01 X-3.3248 Y1.6144  
G01 X-3.3196 Y1.6109  
G01 X-3.3151 Y1.6064  
G01 X-3.3116 Y1.6012  
G01 X-3.3092 Y1.5953  
G01 X-3.3080 Y1.5892  
G01 X-3.3080 Y1.5308  
G01 X-3.3092 Y1.5247  
G01 X-3.3116 Y1.5188  
G01 X-3.3151 Y1.5136  
G01 X-3.3196 Y1.5091  
G01 X-3.3248 Y1.5056  
G01 X-3.3307 Y1.5032  
G01 X-3.3368 Y1.5020  
G01 X-3.3432 Y1.5020  
G01 X-3.3493 Y1.5032  
G01 X-3.3552 Y1.5056  
G01 X-3.3604 Y1.5091  
G01 X-3.3649 Y1.5136  
G00 Z0.0500  
G00 X-3.2649 Y1.5136  
G01 Z-0.0040 F10    
G01 X-3.2684 Y1.5188  F20    
G01 X-3.2708 Y1.5247  
G01 X-3.2720 Y1.5308  
G01 X-3.2720 Y1.5892  
G01 X-3.2708 Y1.5953  
G01 X-3.2684 Y1.6012  
G01 X-3.2649 Y1.6064  
G01 X-3.2604 Y1.6109  
G01 X-3.2552 Y1.6144  
G01 X-3.2550 Y1.6144  
G01 X-3.2550 Y1.7080  
G01 X-3.2580 Y1.7102  
G01 X-3.2628 Y1.7150  
G01 X-3.2668 Y1.7205  
G01 X-3.2698 Y1.7265  
G01 X-3.2719 Y1.7329  
G01 X-3.2730 Y1.7396  
G01 X-3.2730 Y1.8204  
G01 X-3.2719 Y1.8271  
G01 X-3.2698 Y1.8335  
G01 X-3.2668 Y1.8395  
G01 X-3.2628 Y1.8450  
G01 X-3.2580 Y1.8498  
G01 X-3.2525 Y1.8538  
G01 X-3.2465 Y1.8568  
G01 X-3.2401 Y1.8589  
G01 X-3.2334 Y1.8600  
G01 X-3.2266 Y1.8600  
G01 X-3.2199 Y1.8589  
G01 X-3.2135 Y1.8568  
G01 X-3.2075 Y1.8538  
G01 X-3.2020 Y1.8498  
G01 X-3.1972 Y1.8450  
G01 X-3.1932 Y1.8395  
G01 X-3.1902 Y1.8335  
G01 X-3.1881 Y1.8271  
G01 X-3.1870 Y1.8204  
G01 X-3.1870 Y1.7396  
G01 X-3.1881 Y1.7329  
G01 X-3.1902 Y1.7265  
G01 X-3.1932 Y1.7205  
G01 X-3.1972 Y1.7150  
G01 X-3.2020 Y1.7102  
G01 X-3.2075 Y1.7062  
G01 X-3.2135 Y1.7032  
G01 X-3.2199 Y1.7011  
G01 X-3.2210 Y1.7009  
G01 X-3.2210 Y1.6118  
G01 X-3.2196 Y1.6109  
G01 X-3.2151 Y1.6064  
G01 X-3.2116 Y1.6012  
G01 X-3.2092 Y1.5953  
G01 X-3.2080 Y1.5892  
G01 X-3.2080 Y1.5308  
G01 X-3.2092 Y1.5247  
G01 X-3.2116 Y1.5188  
G01 X-3.2151 Y1.5136  
G01 X-3.2196 Y1.5091  
G01 X-3.2248 Y1.5056  
G01 X-3.2307 Y1.5032  
G01 X-3.2368 Y1.5020  
G01 X-3.2432 Y1.5020  
G01 X-3.2493 Y1.5032  
G01 X-3.2552 Y1.5056  
G01 X-3.2604 Y1.5091  
G01 X-3.2649 Y1.5136  
G00 Z0.0500  
G00 X-3.1649 Y1.5136  
G01 Z-0.0040 F10    
G01 X-3.1684 Y1.5188  F20    
G01 X-3.1708 Y1.5247  
G01 X-3.1720 Y1.5308  
G01 X-3.1720 Y1.5892  
G01 X-3.1708 Y1.5953  
G01 X-3.1684 Y1.6012  
G01 X-3.1649 Y1.6064  
G01 X-3.1604 Y1.6109  
G01 X-3.1552 Y1.6144  
G01 X-3.1500 Y1.6165  
G01 X-3.1500 Y1.7049  
G01 X-3.1525 Y1.7062  
G01 X-3.1580 Y1.7102  
G01 X-3.1628 Y1.7150  
G01 X-3.1668 Y1.7205  
G01 X-3.1698 Y1.7265  
G01 X-3.1719 Y1.7329  
G01 X-3.1730 Y1.7396  
G01 X-3.1730 Y1.8204  
G01 X-3.1719 Y1.8271  
G01 X-3.1698 Y1.8335  
G01 X-3.1668 Y1.8395  
G01 X-3.1628 Y1.8450  
G01 X-3.1580 Y1.8498  
G01 X-3.1525 Y1.8538  
G01 X-3.1465 Y1.8568  
G01 X-3.1401 Y1.8589  
G01 X-3.1334 Y1.8600  
G01 X-3.1266 Y1.8600  
G01 X-3.1199 Y1.8589  
G01 X-3.1135 Y1.8568  
G01 X-3.1075 Y1.8538  
G01 X-3.1020 Y1.8498  
G01 X-3.0972 Y1.8450  
G01 X-3.0932 Y1.8395  
G01 X-3.0902 Y1.8335  
G01 X-3.0881 Y1.8271  
G01 X-3.0870 Y1.8204  
G01 X-3.0870 Y1.7396  
G01 X-3.0881 Y1.7329  
G01 X-3.0902 Y1.7265  
G01 X-3.0932 Y1.7205  
G01 X-3.0972 Y1.7150  
G01 X-3.1020 Y1.7102  
G01 X-3.1075 Y1.7062  
G01 X-3.1135 Y1.7032  
G01 X-3.1160 Y1.7023  
G01 X-3.1160 Y1.6073  
G01 X-3.1151 Y1.6064  
G01 X-3.1116 Y1.6012  
G01 X-3.1092 Y1.5953  
G01 X-3.1080 Y1.5892  
G01 X-3.1080 Y1.5308  
G01 X-3.1092 Y1.5247  
G01 X-3.1116 Y1.5188  
G01 X-3.1151 Y1.5136  
G01 X-3.1196 Y1.5091  
G01 X-3.1248 Y1.5056  
G01 X-3.1307 Y1.5032  
G01 X-3.1368 Y1.5020  
G01 X-3.1432 Y1.5020  
G01 X-3.1493 Y1.5032  
G01 X-3.1552 Y1.5056  
G01 X-3.1604 Y1.5091  
G01 X-3.1649 Y1.5136  
G00 Z0.0500  
G00 X-3.0649 Y1.5136  
G01 Z-0.0040 F10    
G01 X-3.0684 Y1.5188  F20    
G01 X-3.0708 Y1.5247  
G01 X-3.0720 Y1.5308  
G01 X-3.0720 Y1.5892  
G01 X-3.0708 Y1.5953  
G01 X-3.0684 Y1.6012  
G01 X-3.0660 Y1.6047  
G01 X-3.0660 Y1.7194  
G01 X-3.0668 Y1.7205  
G01 X-3.0698 Y1.7265  
G01 X-3.0719 Y1.7329  
G01 X-3.0730 Y1.7396  
G01 X-3.0730 Y1.8204  
G01 X-3.0719 Y1.8271  
G01 X-3.0698 Y1.8335  
G01 X-3.0668 Y1.8395  
G01 X-3.0628 Y1.8450  
G01 X-3.0580 Y1.8498  
G01 X-3.0525 Y1.8538  
G01 X-3.0465 Y1.8568  
G01 X-3.0401 Y1.8589  
G01 X-3.0334 Y1.8600  
G01 X-3.0266 Y1.8600  
G01 X-3.0199 Y1.8589  
G01 X-3.0135 Y1.8568  
G01 X-3.0075 Y1.8538  
G01 X-3.0020 Y1.8498  
G01 X-2.9972 Y1.8450  
G01 X-2.9932 Y1.8395  
G01 X-2.9902 Y1.8335  
G01 X-2.9881 Y1.8271  
G01 X-2.9870 Y1.8204  
G01 X-2.9870 Y1.7396  
G01 X-2.9881 Y1.7329  
G01 X-2.9902 Y1.7265  
G01 X-2.9932 Y1.7205  
G01 X-2.9972 Y1.7150  
G01 X-3.0020 Y1.7102  
G01 X-3.0075 Y1.7062  
G01 X-3.0135 Y1.7032  
G01 X-3.0199 Y1.7011  
G01 X-3.0266 Y1.7000  
G01 X-3.0320 Y1.7000  
G01 X-3.0320 Y1.6170  
G01 X-3.0307 Y1.6168  
G01 X-3.0248 Y1.6144  
G01 X-3.0196 Y1.6109  
G01 X-3.0151 Y1.6064  
G01 X-3.0116 Y1.6012  
G01 X-3.0092 Y1.5953  
G01 X-3.0080 Y1.5892  
G01 X-3.0080 Y1.5308  
G01 X-3.0092 Y1.5247  
G01 X-3.0116 Y1.5188  
G01 X-3.0151 Y1.5136  
G01 X-3.0196 Y1.5091  
G01 X-3.0248 Y1.5056  
G01 X-3.0307 Y1.5032  
G01 X-3.0368 Y1.5020  
G01 X-3.0432 Y1.5020  
G01 X-3.0493 Y1.5032  
G01 X-3.0552 Y1.5056  
G01 X-3.0604 Y1.5091  
G01 X-3.0649 Y1.5136  
G00 Z0.0500  
G00 X-2.4471 Y1.5912  
G01 Z-0.0040 F10    
G01 X-2.4488 Y1.5929  F20    
G01 X-2.4497 Y1.5951  
G01 X-2.4497 Y1.6257  
G01 X-2.5036 Y1.6796  
G01 X-2.5058 Y1.6834  
G01 X-2.5068 Y1.6870  
G01 X-2.5078 Y1.6870  
G01 X-2.5330 Y1.7122  
G01 X-2.5330 Y1.7478  
G01 X-2.5078 Y1.7730  
G01 X-2.4722 Y1.7730  
G01 X-2.4470 Y1.7478  
G01 X-2.4470 Y1.7122  
G01 X-2.4676 Y1.6916  
G01 X-2.4257 Y1.6497  
G01 X-2.3951 Y1.6497  
G01 X-2.3929 Y1.6488  
G01 X-2.3912 Y1.6471  
G01 X-2.3903 Y1.6449  
G01 X-2.3903 Y1.5951  
G01 X-2.3912 Y1.5929  
G01 X-2.3929 Y1.5912  
G01 X-2.3951 Y1.5903  
G01 X-2.4449 Y1.5903  
G01 X-2.4471 Y1.5912  
G00 Z0.0500  
G00 X-2.3330 Y1.8122  
G01 Z-0.0040 F10    
G01 X-2.3330 Y1.8478  F20    
G01 X-2.3078 Y1.8730  
G01 X-2.2722 Y1.8730  
G01 X-2.2470 Y1.8478  
G01 X-2.2470 Y1.8470  
G01 X-2.2070 Y1.8470  
G01 X-2.1736 Y1.8804  
G01 X-2.1704 Y1.8836  
G01 X-2.1666 Y1.8858  
G01 X-2.1622 Y1.8870  
G01 X-1.4997 Y1.8870  
G01 X-1.4997 Y1.8949  
G01 X-1.4988 Y1.8971  
G01 X-1.4971 Y1.8988  
G01 X-1.4949 Y1.8997  
G01 X-1.4451 Y1.8997  
G01 X-1.4429 Y1.8988  
G01 X-1.4412 Y1.8971  
G01 X-1.4403 Y1.8949  
G01 X-1.4403 Y1.8451  
G01 X-1.4412 Y1.8429  
G01 X-1.4429 Y1.8412  
G01 X-1.4451 Y1.8403  
G01 X-1.4949 Y1.8403  
G01 X-1.4971 Y1.8412  
G01 X-1.4988 Y1.8429  
G01 X-1.4997 Y1.8451  
G01 X-1.4997 Y1.8530  
G01 X-2.1530 Y1.8530  
G01 X-2.1896 Y1.8164  
G01 X-2.1934 Y1.8142  
G01 X-2.1978 Y1.8130  
G01 X-2.2470 Y1.8130  
G01 X-2.2470 Y1.8122  
G01 X-2.2722 Y1.7870  
G01 X-2.3078 Y1.7870  
G01 X-2.3330 Y1.8122  
G00 Z0.0500  
G00 X-1.7020 Y1.7333  
G01 Z-0.0040 F10    
G01 X-1.6833 Y1.7520  F20    
G01 X-1.6567 Y1.7520  
G01 X-1.6527 Y1.7480  
G01 X-1.6112 Y1.7480  
G01 X-1.5832 Y1.7760  
G01 X-1.5368 Y1.7760  
G01 X-1.5040 Y1.7432  
G01 X-1.5040 Y1.6968  
G01 X-1.5368 Y1.6640  
G01 X-1.5832 Y1.6640  
G01 X-1.6160 Y1.6968  
G01 X-1.6160 Y1.7140  
G01 X-1.6380 Y1.7140  
G01 X-1.6380 Y1.7067  
G01 X-1.6567 Y1.6880  
G01 X-1.6833 Y1.6880  
G01 X-1.7020 Y1.7067  
G01 X-1.7020 Y1.7333  
G00 Z0.0500  
G00 X-0.6596 Y0.1449  
G01 Z-0.0040 F10    
G01 X-0.6629 Y0.1416  F20    
G01 X-0.7399 Y0.0646  
G01 X-0.7441 Y0.0622  
G01 X-0.7486 Y0.0610  
G01 X-1.9664 Y0.0610  
G01 X-1.9709 Y0.0622  
G01 X-1.9751 Y0.0646  
G01 X-1.9784 Y0.0679  
G01 X-2.0865 Y0.1760  
G01 X-2.1082 Y0.1760  
G01 X-2.1332 Y0.2010  
G01 X-2.1468 Y0.2010  
G01 X-2.1718 Y0.1760  
G01 X-2.2082 Y0.1760  
G01 X-2.2332 Y0.2010  
G01 X-2.2468 Y0.2010  
G01 X-2.2718 Y0.1760  
G01 X-2.3082 Y0.1760  
G01 X-2.3340 Y0.2018  
G01 X-2.3340 Y0.2382  
G01 X-2.3082 Y0.2640  
G01 X-2.2718 Y0.2640  
G01 X-2.2460 Y0.2382  
G01 X-2.2460 Y0.2370  
G01 X-2.2340 Y0.2370  
G01 X-2.2340 Y0.2382  
G01 X-2.2082 Y0.2640  
G01 X-2.2060 Y0.2640  
G01 X-2.2060 Y0.2760  
G01 X-2.2082 Y0.2760  
G01 X-2.2340 Y0.3018  
G01 X-2.2340 Y0.3060  
G01 X-2.2460 Y0.3060  
G01 X-2.2460 Y0.3018  
G01 X-2.2718 Y0.2760  
G01 X-2.3082 Y0.2760  
G01 X-2.3340 Y0.3018  
G01 X-2.3340 Y0.3382  
G01 X-2.3082 Y0.3640  
G01 X-2.2718 Y0.3640  
G01 X-2.2498 Y0.3420  
G01 X-2.2302 Y0.3420  
G01 X-2.2082 Y0.3640  
G01 X-2.1718 Y0.3640  
G01 X-2.1460 Y0.3382  
G01 X-2.1460 Y0.3018  
G01 X-2.1700 Y0.2778  
G01 X-2.1700 Y0.2622  
G01 X-2.1460 Y0.2382  
G01 X-2.1460 Y0.2370  
G01 X-2.1340 Y0.2370  
G01 X-2.1340 Y0.2382  
G01 X-2.1082 Y0.2640  
G01 X-2.1010 Y0.2640  
G01 X-2.1010 Y0.2760  
G01 X-2.1082 Y0.2760  
G01 X-2.1340 Y0.3018  
G01 X-2.1340 Y0.3382  
G01 X-2.1082 Y0.3640  
G01 X-2.0718 Y0.3640  
G01 X-2.0460 Y0.3382  
G01 X-2.0460 Y0.3018  
G01 X-2.0650 Y0.2828  
G01 X-2.0650 Y0.2572  
G01 X-2.0460 Y0.2382  
G01 X-2.0460 Y0.2018  
G01 X-2.0537 Y0.1941  
G01 X-1.9565 Y0.0970  
G01 X-0.7585 Y0.0970  
G01 X-0.6920 Y0.1635  
G01 X-0.6920 Y1.3059  
G01 X-0.7484 Y1.3970  
G01 X-0.7637 Y1.3970  
G01 X-0.7830 Y1.4163  
G01 X-0.7830 Y1.4437  
G01 X-0.7780 Y1.4487  
G01 X-0.7780 Y1.4715  
G01 X-0.8440 Y1.5375  
G01 X-0.9589 Y1.4226  
G01 X-0.9631 Y1.4202  
G01 X-0.9676 Y1.4190  
G01 X-1.5394 Y1.4190  
G01 X-1.5439 Y1.4202  
G01 X-1.5481 Y1.4226  
G01 X-1.5514 Y1.4259  
G01 X-1.5885 Y1.4630  
G01 X-1.5904 Y1.4623  
G01 X-1.5967 Y1.4610  
G01 X-1.6033 Y1.4610  
G01 X-1.6096 Y1.4623  
G01 X-1.6115 Y1.4630  
G01 X-1.6660 Y1.4085  
G01 X-1.6660 Y1.2284  
G01 X-1.6658 Y1.2274  
G01 X-1.6660 Y1.2260  
G01 X-1.6660 Y1.2246  
G01 X-1.6663 Y1.2237  
G01 X-1.6664 Y1.2226  
G01 X-1.6669 Y1.2214  
G01 X-1.6670 Y1.2209  
G01 X-1.6670 Y1.1935  
G01 X-1.6066 Y1.1331  
G01 X-1.6042 Y1.1289  
G01 X-1.6030 Y1.1244  
G01 X-1.6030 Y0.9726  
G01 X-1.6042 Y0.9681  
G01 X-1.6066 Y0.9639  
G01 X-1.6099 Y0.9606  
G01 X-1.6570 Y0.9135  
G01 X-1.6570 Y0.8863  
G01 X-1.6660 Y0.8773  
G01 X-1.6660 Y0.6885  
G01 X-1.6541 Y0.6765  
G01 X-1.6536 Y0.6770  
G01 X-1.6064 Y0.6770  
G01 X-1.5730 Y0.6436  
G01 X-1.5730 Y0.6360  
G01 X-1.5130 Y0.6360  
G01 X-1.5130 Y0.6553  
G01 X-1.5117 Y0.6616  
G01 X-1.5092 Y0.6676  
G01 X-1.5056 Y0.6730  
G01 X-1.5010 Y0.6776  
G01 X-1.4956 Y0.6812  
G01 X-1.4896 Y0.6837  
G01 X-1.4833 Y0.6850  
G01 X-1.4767 Y0.6850  
G01 X-1.4704 Y0.6837  
G01 X-1.4644 Y0.6812  
G01 X-1.4590 Y0.6776  
G01 X-1.4544 Y0.6730  
G01 X-1.4508 Y0.6676  
G01 X-1.4483 Y0.6616  
G01 X-1.4470 Y0.6553  
G01 X-1.4470 Y0.5967  
G01 X-1.4483 Y0.5904  
G01 X-1.4508 Y0.5844  
G01 X-1.4544 Y0.5790  
G01 X-1.4590 Y0.5744  
G01 X-1.4644 Y0.5708  
G01 X-1.4704 Y0.5683  
G01 X-1.4767 Y0.5670  
G01 X-1.4833 Y0.5670  
G01 X-1.4896 Y0.5683  
G01 X-1.4956 Y0.5708  
G01 X-1.5010 Y0.5744  
G01 X-1.5056 Y0.5790  
G01 X-1.5092 Y0.5844  
G01 X-1.5117 Y0.5904  
G01 X-1.5130 Y0.5967  
G01 X-1.5130 Y0.6000  
G01 X-1.5730 Y0.6000  
G01 X-1.5730 Y0.5964  
G01 X-1.6064 Y0.5630  
G01 X-1.6536 Y0.5630  
G01 X-1.6870 Y0.5964  
G01 X-1.6870 Y0.6436  
G01 X-1.6795 Y0.6511  
G01 X-1.6840 Y0.6555  
G01 X-1.7569 Y0.5826  
G01 X-1.7611 Y0.5802  
G01 X-1.7656 Y0.5790  
G01 X-2.1630 Y0.5790  
G01 X-2.1630 Y0.5664  
G01 X-2.1964 Y0.5330  
G01 X-2.2436 Y0.5330  
G01 X-2.2770 Y0.5664  
G01 X-2.2770 Y0.6136  
G01 X-2.2745 Y0.6161  
G01 X-2.3494 Y0.6909  
G01 X-2.3518 Y0.6951  
G01 X-2.3530 Y0.6996  
G01 X-2.3530 Y0.7680  
G01 X-2.6570 Y0.7680  
G01 X-2.6570 Y0.7663  
G01 X-2.6763 Y0.7470  
G01 X-2.7037 Y0.7470  
G01 X-2.7230 Y0.7663  
G01 X-2.7230 Y0.7680  
G01 X-2.7784 Y0.7680  
G01 X-2.7829 Y0.7692  
G01 X-2.7871 Y0.7716  
G01 X-2.7904 Y0.7749  
G01 X-2.9219 Y0.9064  
G01 X-2.9244 Y0.9048  
G01 X-2.9304 Y0.9023  
G01 X-2.9367 Y0.9010  
G01 X-2.9433 Y0.9010  
G01 X-2.9496 Y0.9023  
G01 X-2.9556 Y0.9048  
G01 X-2.9610 Y0.9084  
G01 X-2.9656 Y0.9130  
G01 X-2.9692 Y0.9184  
G01 X-2.9717 Y0.9244  
G01 X-2.9730 Y0.9307  
G01 X-2.9730 Y0.9893  
G01 X-2.9717 Y0.9956  
G01 X-2.9692 Y1.0016  
G01 X-2.9656 Y1.0070  
G01 X-2.9610 Y1.0116  
G01 X-2.9556 Y1.0152  
G01 X-2.9496 Y1.0177  
G01 X-2.9433 Y1.0190  
G01 X-2.9367 Y1.0190  
G01 X-2.9304 Y1.0177  
G01 X-2.9244 Y1.0152  
G01 X-2.9190 Y1.0116  
G01 X-2.9144 Y1.0070  
G01 X-2.9108 Y1.0016  
G01 X-2.9083 Y0.9956  
G01 X-2.9070 Y0.9893  
G01 X-2.9070 Y0.9623  
G01 X-2.9062 Y0.9609  
G01 X-2.9060 Y0.9603  
G01 X-2.9057 Y0.9596  
G01 X-2.9054 Y0.9580  
G01 X-2.9050 Y0.9564  
G01 X-2.9050 Y0.9557  
G01 X-2.9049 Y0.9550  
G01 X-2.9050 Y0.9533  
G01 X-2.9050 Y0.9405  
G01 X-2.7685 Y0.8040  
G01 X-2.7127 Y0.8040  
G01 X-2.7037 Y0.8130  
G01 X-2.6763 Y0.8130  
G01 X-2.6673 Y0.8040  
G01 X-2.3530 Y0.8040  
G01 X-2.3530 Y0.8770  
G01 X-2.3537 Y0.8770  
G01 X-2.3730 Y0.8963  
G01 X-2.3730 Y0.9237  
G01 X-2.3537 Y0.9430  
G01 X-2.3263 Y0.9430  
G01 X-2.3070 Y0.9237  
G01 X-2.3070 Y0.8963  
G01 X-2.3170 Y0.8863  
G01 X-2.3170 Y0.7095  
G01 X-2.2491 Y0.6415  
G01 X-2.2436 Y0.6470  
G01 X-2.1964 Y0.6470  
G01 X-2.1644 Y0.6150  
G01 X-1.7755 Y0.6150  
G01 X-1.7020 Y0.6885  
G01 X-1.7020 Y0.8670  
G01 X-1.7037 Y0.8670  
G01 X-1.7230 Y0.8863  
G01 X-1.7230 Y0.9137  
G01 X-1.7037 Y0.9330  
G01 X-1.6885 Y0.9330  
G01 X-1.6390 Y0.9825  
G01 X-1.6390 Y1.1145  
G01 X-1.6878 Y1.1633  
G01 X-1.6904 Y1.1623  
G01 X-1.6967 Y1.1610  
G01 X-1.7033 Y1.1610  
G01 X-1.7096 Y1.1623  
G01 X-1.7156 Y1.1648  
G01 X-1.7210 Y1.1684  
G01 X-1.7256 Y1.1730  
G01 X-1.7292 Y1.1784  
G01 X-1.7317 Y1.1844  
G01 X-1.7330 Y1.1907  
G01 X-1.7330 Y1.2493  
G01 X-1.7317 Y1.2556  
G01 X-1.7292 Y1.2616  
G01 X-1.7256 Y1.2670  
G01 X-1.7210 Y1.2716  
G01 X-1.7156 Y1.2752  
G01 X-1.7096 Y1.2777  
G01 X-1.7033 Y1.2790  
G01 X-1.7020 Y1.2790  
G01 X-1.7020 Y1.3350  
G01 X-2.3794 Y1.3350  
G01 X-2.3839 Y1.3362  
G01 X-2.3881 Y1.3386  
G01 X-2.3914 Y1.3419  
G01 X-2.5735 Y1.5240  
G01 X-2.7084 Y1.5240  
G01 X-2.7108 Y1.5184  
G01 X-2.7144 Y1.5130  
G01 X-2.7190 Y1.5084  
G01 X-2.7244 Y1.5048  
G01 X-2.7304 Y1.5023  
G01 X-2.7367 Y1.5010  
G01 X-2.7433 Y1.5010  
G01 X-2.7496 Y1.5023  
G01 X-2.7556 Y1.5048  
G01 X-2.7610 Y1.5084  
G01 X-2.7656 Y1.5130  
G01 X-2.7692 Y1.5184  
G01 X-2.7717 Y1.5244  
G01 X-2.7730 Y1.5307  
G01 X-2.7730 Y1.5893  
G01 X-2.7717 Y1.5956  
G01 X-2.7692 Y1.6016  
G01 X-2.7656 Y1.6070  
G01 X-2.7610 Y1.6116  
G01 X-2.7556 Y1.6152  
G01 X-2.7496 Y1.6177  
G01 X-2.7433 Y1.6190  
G01 X-2.7367 Y1.6190  
G01 X-2.7304 Y1.6177  
G01 X-2.7244 Y1.6152  
G01 X-2.7190 Y1.6116  
G01 X-2.7144 Y1.6070  
G01 X-2.7108 Y1.6016  
G01 X-2.7083 Y1.5956  
G01 X-2.7070 Y1.5893  
G01 X-2.7070 Y1.5600  
G01 X-2.5636 Y1.5600  
G01 X-2.5591 Y1.5588  
G01 X-2.5549 Y1.5564  
G01 X-2.3695 Y1.3710  
G01 X-1.7020 Y1.3710  
G01 X-1.7020 Y1.4184  
G01 X-1.7008 Y1.4229  
G01 X-1.6984 Y1.4271  
G01 X-1.6330 Y1.4925  
G01 X-1.6330 Y1.5493  
G01 X-1.6330 Y1.5495  
G01 X-1.8595 Y1.7760  
G01 X-2.0755 Y1.7760  
G01 X-2.1349 Y1.7166  
G01 X-2.1391 Y1.7142  
G01 X-2.1436 Y1.7130  
G01 X-2.2460 Y1.7130  
G01 X-2.2460 Y1.7118  
G01 X-2.2718 Y1.6860  
G01 X-2.3082 Y1.6860  
G01 X-2.3340 Y1.7118  
G01 X-2.3340 Y1.7482  
G01 X-2.3082 Y1.7740  
G01 X-2.2718 Y1.7740  
G01 X-2.2468 Y1.7490  
G01 X-2.1535 Y1.7490  
G01 X-2.0974 Y1.8051  
G01 X-2.0941 Y1.8084  
G01 X-2.0899 Y1.8108  
G01 X-2.0854 Y1.8120  
G01 X-1.8496 Y1.8120  
G01 X-1.8451 Y1.8108  
G01 X-1.8409 Y1.8084  
G01 X-1.6101 Y1.5775  
G01 X-1.6096 Y1.5777  
G01 X-1.6033 Y1.5790  
G01 X-1.5967 Y1.5790  
G01 X-1.5904 Y1.5777  
G01 X-1.5899 Y1.5775  
G01 X-1.4431 Y1.7244  
G01 X-1.4389 Y1.7268  
G01 X-1.4344 Y1.7280  
G01 X-1.3970 Y1.7280  
G01 X-1.3970 Y1.7436  
G01 X-1.3636 Y1.7770  
G01 X-1.3164 Y1.7770  
G01 X-1.2830 Y1.7436  
G01 X-1.2830 Y1.6964  
G01 X-1.3164 Y1.6630  
G01 X-1.3636 Y1.6630  
G01 X-1.3926 Y1.6920  
G01 X-1.4245 Y1.6920  
G01 X-1.5670 Y1.5495  
G01 X-1.5670 Y1.5493  
G01 X-1.5670 Y1.4925  
G01 X-1.5295 Y1.4550  
G01 X-0.9775 Y1.4550  
G01 X-0.8695 Y1.5630  
G01 X-0.9795 Y1.6730  
G01 X-1.0236 Y1.6730  
G01 X-1.0570 Y1.7064  
G01 X-1.0570 Y1.7536  
G01 X-1.0236 Y1.7870  
G01 X-0.9764 Y1.7870  
G01 X-0.9430 Y1.7536  
G01 X-0.9430 Y1.7064  
G01 X-0.9525 Y1.6969  
G01 X-0.8329 Y1.5774  
G01 X-0.7456 Y1.4901  
G01 X-0.7432 Y1.4859  
G01 X-0.7420 Y1.4814  
G01 X-0.7420 Y1.4630  
G01 X-0.7363 Y1.4630  
G01 X-0.7170 Y1.4437  
G01 X-0.7170 Y1.4163  
G01 X-0.7176 Y1.4157  
G01 X-0.6598 Y1.3223  
G01 X-0.6596 Y1.3221  
G01 X-0.6585 Y1.3202  
G01 X-0.6574 Y1.3185  
G01 X-0.6574 Y1.3182  
G01 X-0.6572 Y1.3179  
G01 X-0.6567 Y1.3159  
G01 X-0.6561 Y1.3139  
G01 X-0.6561 Y1.3136  
G01 X-0.6560 Y1.3134  
G01 X-0.6560 Y1.3113  
G01 X-0.6559 Y1.3092  
G01 X-0.6560 Y1.3089  
G01 X-0.6560 Y0.1536  
G01 X-0.6572 Y0.1491  
G01 X-0.6596 Y0.1449  
G00 Z0.0500  
G00 X-0.7830 Y0.1464  
G01 Z-0.0040 F10    
G01 X-0.8164 Y0.1130  F20    
G01 X-0.8636 Y0.1130  
G01 X-0.8970 Y0.1464  
G01 X-0.8970 Y0.1833  
G01 X-1.0001 Y0.2455  
G01 X-1.0021 Y0.2466  
G01 X-1.0022 Y0.2467  
G01 X-1.0023 Y0.2468  
G01 X-1.0038 Y0.2484  
G01 X-1.0054 Y0.2499  
G01 X-1.0055 Y0.2501  
G01 X-1.0056 Y0.2502  
G01 X-1.0067 Y0.2521  
G01 X-1.0078 Y0.2541  
G01 X-1.0078 Y0.2542  
G01 X-1.0079 Y0.2544  
G01 X-1.0084 Y0.2565  
G01 X-1.0090 Y0.2586  
G01 X-1.0090 Y0.2588  
G01 X-1.0090 Y0.2590  
G01 X-1.0090 Y0.2612  
G01 X-1.0090 Y0.5470  
G01 X-1.0137 Y0.5470  
G01 X-1.0330 Y0.5663  
G01 X-1.0330 Y0.5937  
G01 X-1.0137 Y0.6130  
G01 X-0.9863 Y0.6130  
G01 X-0.9670 Y0.5937  
G01 X-0.9670 Y0.5663  
G01 X-0.9730 Y0.5603  
G01 X-0.9730 Y0.2712  
G01 X-0.8772 Y0.2134  
G01 X-0.8636 Y0.2270  
G01 X-0.8164 Y0.2270  
G01 X-0.7830 Y0.1936  
G01 X-0.7830 Y0.1464  
G00 Z0.0500  
G00 X-0.8470 Y0.2763  
G01 Z-0.0040 F10    
G01 X-0.8663 Y0.2570  F20    
G01 X-0.8937 Y0.2570  
G01 X-0.9130 Y0.2763  
G01 X-0.9130 Y0.3037  
G01 X-0.9040 Y0.3127  
G01 X-0.9040 Y0.5895  
G01 X-0.9805 Y0.6660  
G01 X-1.0429 Y0.6036  
G01 X-1.0471 Y0.6012  
G01 X-1.0516 Y0.6000  
G01 X-1.1470 Y0.6000  
G01 X-1.1470 Y0.5967  
G01 X-1.1483 Y0.5904  
G01 X-1.1508 Y0.5844  
G01 X-1.1544 Y0.5790  
G01 X-1.1590 Y0.5744  
G01 X-1.1644 Y0.5708  
G01 X-1.1704 Y0.5683  
G01 X-1.1767 Y0.5670  
G01 X-1.1833 Y0.5670  
G01 X-1.1843 Y0.5672  
G01 X-1.2706 Y0.4809  
G01 X-1.2739 Y0.4776  
G01 X-1.2781 Y0.4752  
G01 X-1.2826 Y0.4740  
G01 X-2.4640 Y0.4740  
G01 X-2.4640 Y0.3562  
G01 X-2.4460 Y0.3382  
G01 X-2.4460 Y0.3018  
G01 X-2.4640 Y0.2838  
G01 X-2.4640 Y0.2562  
G01 X-2.4460 Y0.2382  
G01 X-2.4460 Y0.2018  
G01 X-2.4718 Y0.1760  
G01 X-2.5082 Y0.1760  
G01 X-2.5340 Y0.2018  
G01 X-2.5340 Y0.2382  
G01 X-2.5082 Y0.2640  
G01 X-2.5000 Y0.2640  
G01 X-2.5000 Y0.2760  
G01 X-2.5082 Y0.2760  
G01 X-2.5340 Y0.3018  
G01 X-2.5340 Y0.3382  
G01 X-2.5082 Y0.3640  
G01 X-2.5000 Y0.3640  
G01 X-2.5000 Y0.5394  
G01 X-2.5170 Y0.5564  
G01 X-2.5170 Y0.6036  
G01 X-2.5050 Y0.6156  
G01 X-2.5481 Y0.6586  
G01 X-2.5525 Y0.6630  
G01 X-2.6603 Y0.6630  
G01 X-2.6763 Y0.6470  
G01 X-2.6795 Y0.6470  
G01 X-2.6799 Y0.6466  
G01 X-2.7229 Y0.6036  
G01 X-2.7271 Y0.6012  
G01 X-2.7316 Y0.6000  
G01 X-3.7654 Y0.6000  
G01 X-3.7699 Y0.6012  
G01 X-3.7741 Y0.6036  
G01 X-3.7774 Y0.6069  
G01 X-3.8404 Y0.6699  
G01 X-3.8428 Y0.6741  
G01 X-3.8440 Y0.6786  
G01 X-3.8440 Y0.9011  
G01 X-3.8496 Y0.9023  
G01 X-3.8556 Y0.9048  
G01 X-3.8610 Y0.9084  
G01 X-3.8656 Y0.9130  
G01 X-3.8692 Y0.9184  
G01 X-3.8717 Y0.9244  
G01 X-3.8730 Y0.9307  
G01 X-3.8730 Y0.9893  
G01 X-3.8717 Y0.9956  
G01 X-3.8692 Y1.0016  
G01 X-3.8656 Y1.0070  
G01 X-3.8610 Y1.0116  
G01 X-3.8556 Y1.0152  
G01 X-3.8496 Y1.0177  
G01 X-3.8433 Y1.0190  
G01 X-3.8367 Y1.0190  
G01 X-3.8304 Y1.0177  
G01 X-3.8244 Y1.0152  
G01 X-3.8190 Y1.0116  
G01 X-3.8144 Y1.0070  
G01 X-3.8108 Y1.0016  
G01 X-3.8083 Y0.9956  
G01 X-3.8070 Y0.9893  
G01 X-3.8070 Y0.9307  
G01 X-3.8080 Y0.9257  
G01 X-3.8080 Y0.6885  
G01 X-3.7555 Y0.6360  
G01 X-2.7415 Y0.6360  
G01 X-2.7171 Y0.6604  
G01 X-2.7230 Y0.6663  
G01 X-2.7230 Y0.6937  
G01 X-2.7037 Y0.7130  
G01 X-2.6763 Y0.7130  
G01 X-2.6623 Y0.6990  
G01 X-2.5426 Y0.6990  
G01 X-2.5407 Y0.6985  
G01 X-2.5407 Y0.7451  
G01 X-2.5397 Y0.7477  
G01 X-2.5377 Y0.7497  
G01 X-2.5351 Y0.7507  
G01 X-2.4849 Y0.7507  
G01 X-2.4823 Y0.7497  
G01 X-2.4803 Y0.7477  
G01 X-2.4793 Y0.7451  
G01 X-2.4793 Y0.6949  
G01 X-2.4803 Y0.6923  
G01 X-2.4823 Y0.6903  
G01 X-2.4849 Y0.6893  
G01 X-2.4954 Y0.6893  
G01 X-2.4956 Y0.6889  
G01 X-2.4989 Y0.6856  
G01 X-2.5115 Y0.6730  
G01 X-2.4755 Y0.6370  
G01 X-2.4364 Y0.6370  
G01 X-2.4030 Y0.6036  
G01 X-2.4030 Y0.5564  
G01 X-2.4364 Y0.5230  
G01 X-2.4640 Y0.5230  
G01 X-2.4640 Y0.5100  
G01 X-1.2925 Y0.5100  
G01 X-1.2118 Y0.5907  
G01 X-1.2130 Y0.5967  
G01 X-1.2130 Y0.6553  
G01 X-1.2117 Y0.6616  
G01 X-1.2092 Y0.6676  
G01 X-1.2056 Y0.6730  
G01 X-1.2010 Y0.6776  
G01 X-1.1956 Y0.6812  
G01 X-1.1896 Y0.6837  
G01 X-1.1833 Y0.6850  
G01 X-1.1767 Y0.6850  
G01 X-1.1704 Y0.6837  
G01 X-1.1644 Y0.6812  
G01 X-1.1590 Y0.6776  
G01 X-1.1544 Y0.6730  
G01 X-1.1508 Y0.6676  
G01 X-1.1483 Y0.6616  
G01 X-1.1470 Y0.6553  
G01 X-1.1470 Y0.6360  
G01 X-1.0615 Y0.6360  
G01 X-0.9880 Y0.7095  
G01 X-0.9880 Y0.7645  
G01 X-0.9881 Y0.7663  
G01 X-0.9880 Y0.7668  
G01 X-0.9880 Y0.7670  
G01 X-0.9937 Y0.7670  
G01 X-1.0130 Y0.7863  
G01 X-1.0130 Y0.8137  
G01 X-0.9937 Y0.8330  
G01 X-0.9663 Y0.8330  
G01 X-0.9491 Y0.8157  
G01 X-0.7540 Y1.0358  
G01 X-0.7540 Y1.0707  
G01 X-0.7569 Y1.1613  
G01 X-0.7570 Y1.1616  
G01 X-0.7570 Y1.1637  
G01 X-0.7571 Y1.1658  
G01 X-0.7570 Y1.1661  
G01 X-0.7570 Y1.2931  
G01 X-0.7573 Y1.2931  
G01 X-0.7576 Y1.2930  
G01 X-0.7596 Y1.2930  
G01 X-0.7617 Y1.2929  
G01 X-0.7620 Y1.2930  
G01 X-1.5085 Y1.2930  
G01 X-1.5670 Y1.2345  
G01 X-1.5670 Y1.1985  
G01 X-1.5016 Y1.1331  
G01 X-1.4992 Y1.1289  
G01 X-1.4980 Y1.1244  
G01 X-1.4980 Y0.9730  
G01 X-1.4963 Y0.9730  
G01 X-1.4770 Y0.9537  
G01 X-1.4770 Y0.9263  
G01 X-1.4963 Y0.9070  
G01 X-1.5237 Y0.9070  
G01 X-1.5430 Y0.9263  
G01 X-1.5430 Y0.9537  
G01 X-1.5340 Y0.9627  
G01 X-1.5340 Y1.1145  
G01 X-1.5843 Y1.1648  
G01 X-1.5904 Y1.1623  
G01 X-1.5967 Y1.1610  
G01 X-1.6033 Y1.1610  
G01 X-1.6096 Y1.1623  
G01 X-1.6156 Y1.1648  
G01 X-1.6210 Y1.1684  
G01 X-1.6256 Y1.1730  
G01 X-1.6292 Y1.1784  
G01 X-1.6317 Y1.1844  
G01 X-1.6330 Y1.1907  
G01 X-1.6330 Y1.2493  
G01 X-1.6317 Y1.2556  
G01 X-1.6292 Y1.2616  
G01 X-1.6256 Y1.2670  
G01 X-1.6210 Y1.2716  
G01 X-1.6156 Y1.2752  
G01 X-1.6096 Y1.2777  
G01 X-1.6033 Y1.2790  
G01 X-1.5967 Y1.2790  
G01 X-1.5904 Y1.2777  
G01 X-1.5844 Y1.2752  
G01 X-1.5801 Y1.2724  
G01 X-1.5304 Y1.3221  
G01 X-1.5271 Y1.3254  
G01 X-1.5229 Y1.3278  
G01 X-1.5184 Y1.3290  
G01 X-0.7830 Y1.3290  
G01 X-0.7830 Y1.3437  
G01 X-0.7637 Y1.3630  
G01 X-0.7363 Y1.3630  
G01 X-0.7170 Y1.3437  
G01 X-0.7170 Y1.3163  
G01 X-0.7210 Y1.3123  
G01 X-0.7210 Y1.3110  
G01 X-0.7210 Y1.3087  
G01 X-0.7210 Y1.1643  
G01 X-0.7181 Y1.0737  
G01 X-0.7180 Y1.0734  
G01 X-0.7180 Y1.0713  
G01 X-0.7179 Y1.0692  
G01 X-0.7180 Y1.0689  
G01 X-0.7180 Y1.0295  
G01 X-0.7179 Y1.0277  
G01 X-0.7180 Y1.0272  
G01 X-0.7180 Y1.0266  
G01 X-0.7185 Y1.0249  
G01 X-0.7188 Y1.0231  
G01 X-0.7191 Y1.0226  
G01 X-0.7192 Y1.0221  
G01 X-0.7201 Y1.0205  
G01 X-0.7210 Y1.0188  
G01 X-0.7213 Y1.0184  
G01 X-0.7216 Y1.0179  
G01 X-0.7229 Y1.0167  
G01 X-0.9520 Y0.7582  
G01 X-0.9520 Y0.6885  
G01 X-0.8716 Y0.6081  
G01 X-0.8692 Y0.6039  
