(/Applications/pcbgcode.repo/pcb-gcode.ulp)
(Copyright 2005 - 2012 by John Johnson)
(See readme.txt for licensing terms.)
(This file generated from the board:)
(.../atmega_knobs_cntrl/eagle/midi_to_cv.brd)
(Current profile is .../pcbgcode.repo/profiles/mach.pp  )
(This file generated 5/29/15 11:57 PM)
(Settings from pcb-machine.h)
(spindle on time = 0.0000)
(spindle speed = 20000.0000)
(tool change at 0.0000  0.0000  3.0000  )
(feed rate xy = F0     )
(feed rate z  = F20    )
(Z Axis Settings)
(  High     Up        Down     Drill)
(1.0000  	0.0500  	-0.0040 	-0.0730 )
(Settings from pcb-defaults.h)
(isolate min = 0.0010)
(isolate max = 0.0050)
(isolate step = 0.0010)
(Generated bottom outlines, bottom drill, )
(Unit of measure: inch)
( Tool|       Size       |  Min Sub |  Max Sub |   Count )
( T01 | 0.800mm 0.0315in | 0.0000in | 0.0000in |       0 )
( T02 | 0.813mm 0.0320in | 0.0000in | 0.0000in |       0 )
( T03 | 0.900mm 0.0354in | 0.0000in | 0.0000in |       0 )
( T04 | 0.914mm 0.0360in | 0.0000in | 0.0000in |       0 )
( T05 | 1.016mm 0.0400in | 0.0000in | 0.0000in |       0 )
( T06 | 1.118mm 0.0440in | 0.0000in | 0.0000in |       0 )
(Inch Mode)
G20
(Absolute Coordinates)
G90
S20000
G00 Z1.0000  
G00 X0.0000  Y0.0000  
M03
G04 P0.000000
M05
G00 Z3.0000  
M06 T01  ; 0.0315  
G01 Z0.0000  F20    
M06 
G00 Z0.0500  
M03
G04 P0.000000
G82 X-0.8900 Y1.2000  Z-0.0730 F20    R0.0500  P0.010000
G82 X-1.4700 Y1.8700  
G82 X-2.4200 Y1.6200  
G82 X-2.5100 Y0.7200  
M05
G00 Z3.0000  
G00 X0.0000  Y0.0000  
M06 T02  ; 0.0320  
G01 Z0.0000  F20    
M06 
G00 Z0.0500  
M03
G04 P0.000000
G82 X-0.7500 Y1.3300  Z-0.0730 F20    R0.0500  P0.010000
G82 X-0.7500 Y1.4300  
G82 X-1.0000 Y1.5200  
G82 X-1.1000 Y1.5200  
G82 X-1.2000 Y1.5200  
G82 X-1.3000 Y1.5200  
G82 X-1.4000 Y1.5200  
G82 X-1.5000 Y1.5200  
G82 X-1.6000 Y1.5200  
G82 X-1.7000 Y1.5200  
G82 X-1.8000 Y1.5200  
G82 X-1.9000 Y1.5200  
G82 X-2.0000 Y1.5200  
G82 X-2.1000 Y1.5200  
G82 X-2.2000 Y1.5200  
G82 X-2.3000 Y1.5200  
G82 X-2.3000 Y1.2200  
G82 X-2.2000 Y1.2200  
G82 X-2.1000 Y1.2200  
G82 X-2.0000 Y1.2200  
G82 X-1.9000 Y1.2200  
G82 X-1.8000 Y1.2200  
G82 X-1.7000 Y1.2200  
G82 X-1.6000 Y1.2200  
G82 X-1.5000 Y1.2200  
G82 X-1.4000 Y1.2200  
G82 X-1.3000 Y1.2200  
G82 X-1.2000 Y1.2200  
G82 X-1.1000 Y1.2200  
G82 X-1.0000 Y1.2200  
G82 X-0.9300 Y1.0700  
G82 X-1.1100 Y0.9400  
G82 X-0.9800 Y0.8000  
G82 X-0.8800 Y0.6900  
G82 X-1.0000 Y0.5800  
G82 X-1.1800 Y0.6000  
G82 X-1.2800 Y0.6000  
G82 X-1.3800 Y0.6000  
G82 X-1.4800 Y0.6000  
G82 X-1.3800 Y0.8000  
G82 X-1.5100 Y0.9400  
G82 X-1.6900 Y0.9000  
G82 X-1.6900 Y1.0000  
G82 X-1.9150 Y0.9700  
G82 X-2.1050 Y0.9700  
G82 X-2.2100 Y0.8000  
G82 X-2.3400 Y0.9100  
G82 X-2.3400 Y1.0100  
G82 X-2.7400 Y0.9600  
G82 X-2.8400 Y0.9600  
G82 X-2.9400 Y0.9600  
G82 X-3.0400 Y0.9600  
G82 X-3.1400 Y0.9600  
G82 X-3.2400 Y0.9600  
G82 X-3.3400 Y0.9600  
G82 X-3.4400 Y0.9600  
G82 X-3.5400 Y0.9600  
G82 X-3.6400 Y0.9600  
G82 X-3.7400 Y0.9600  
G82 X-3.8400 Y0.9600  
G82 X-3.8400 Y1.5600  
G82 X-3.7400 Y1.5600  
G82 X-3.6400 Y1.5600  
G82 X-3.5400 Y1.5600  
G82 X-3.4400 Y1.5600  
G82 X-3.3400 Y1.5600  
G82 X-3.2400 Y1.5600  
G82 X-3.1400 Y1.5600  
G82 X-3.0400 Y1.5600  
G82 X-2.9400 Y1.5600  
G82 X-2.8400 Y1.5600  
G82 X-2.7400 Y1.5600  
G82 X-2.0700 Y1.7200  
G82 X-1.6700 Y1.7200  
G82 X-1.3300 Y1.0700  
G82 X-1.8100 Y0.8000  
G82 X-1.4800 Y0.3000  
G82 X-1.3800 Y0.3000  
G82 X-1.2800 Y0.3000  
G82 X-1.1800 Y0.3000  
G82 X-1.0000 Y0.1800  
G82 X-0.8800 Y0.2900  
G82 X-2.6900 Y0.6800  
G82 X-2.6900 Y0.7800  
M05
G00 Z3.0000  
G00 X0.0000  Y0.0000  
M06 T03  ; 0.0354  
G01 Z0.0000  F20    
M06 
G00 Z0.0500  
M03
G04 P0.000000
G82 X-1.1000 Y0.1500  Z-0.0730 F20    R0.0500  P0.010000
G82 X-1.4000 Y0.1500  
M05
G00 Z3.0000  
G00 X0.0000  Y0.0000  
M06 T04  ; 0.0360  
G01 Z0.0000  F20    
M06 
G00 Z0.0500  
M03
G04 P0.000000
G82 X-0.7600 Y0.7200  Z-0.0730 F20    R0.0500  P0.010000
G82 X-0.9900 Y0.9400  
G82 X-0.8300 Y1.0800  
G82 X-1.0000 Y1.7300  
G82 X-1.3400 Y1.7200  
G82 X-1.5600 Y1.7200  
G82 X-1.6300 Y0.6200  
G82 X-1.6000 Y0.1700  
G82 X-2.2200 Y0.5900  
G82 X-2.4600 Y0.5800  
G82 X-0.8400 Y0.1700  
M05
G00 Z3.0000  
G00 X0.0000  Y0.0000  
M06 T05  ; 0.0400  
G01 Z0.0000  F20    
M06 
G00 Z0.0500  
M03
G04 P0.000000
G82 X-1.9900 Y0.2200  Z-0.0730 F20    R0.0500  P0.010000
G82 X-2.0900 Y0.2200  
G82 X-2.0900 Y0.3200  
G82 X-1.9900 Y0.3200  
G82 X-2.1900 Y0.3200  
G82 X-2.1900 Y0.2200  
G82 X-2.2900 Y0.2200  
G82 X-2.2900 Y0.3200  
G82 X-2.3900 Y0.3200  
G82 X-2.3900 Y0.2200  
G82 X-2.4900 Y0.2200  
G82 X-2.5900 Y0.2200  
G82 X-2.5900 Y0.3200  
G82 X-2.4900 Y0.3200  
G82 X-2.6900 Y0.3200  
G82 X-2.6900 Y0.2200  
G82 X-2.4900 Y1.7300  
G82 X-2.4900 Y1.8300  
G82 X-2.3900 Y1.8300  
G82 X-2.2900 Y1.8300  
G82 X-2.2900 Y1.7300  
G82 X-2.3900 Y1.7300  
M05
G00 Z3.0000  
G00 X0.0000  Y0.0000  
M06 T06  ; 0.0440  
G01 Z0.0000  F20    
M06 
G00 Z0.0500  
M03
G04 P0.000000
G82 X-3.0200 Y0.7400  Z-0.0730 F20    R0.0500  P0.010000
G82 X-3.1200 Y0.7400  
G82 X-3.2200 Y0.7400  
G82 X-3.3200 Y0.7400  
G82 X-3.4400 Y0.7400  
G82 X-3.5400 Y0.7400  
G82 X-3.6400 Y0.7400  
G82 X-3.7400 Y0.7400  
G82 X-3.7500 Y1.7800  
G82 X-3.6500 Y1.7800  
G82 X-3.5500 Y1.7800  
G82 X-3.4500 Y1.7800  
G82 X-3.3300 Y1.7800  
G82 X-3.2300 Y1.7800  
G82 X-3.1300 Y1.7800  
G82 X-3.0300 Y1.7800  
T01 
G00 Z1.0000  
M05
M02
