(/Applications/pcbgcode.repo/pcb-gcode.ulp)
(Copyright 2005 - 2012 by John Johnson)
(See readme.txt for licensing terms.)
(This file generated from the board:)
(.../atmega_knobs_cntrl/eagle/midi_to_cv.brd)
(Current profile is .../pcbgcode.repo/profiles/mach.pp  )
(This file generated 5/3/15 7:54 PM)
(Settings from pcb-machine.h)
(spindle on time = 0.0000)
(spindle speed = 20000.0000)
(tool change at 0.0000  0.0000  3.0000  )
(feed rate xy = F0     )
(feed rate z  = F20    )
(Z Axis Settings)
(  High     Up        Down     Drill)
(1.0000  	0.0500  	-0.0040 	-0.0730 )
(Settings from pcb-defaults.h)
(isolate min = 0.0010)
(isolate max = 0.0050)
(isolate step = 0.0010)
(Generated bottom outlines, bottom drill, )
(Unit of measure: inch)
( Tool|       Size       |  Min Sub |  Max Sub |   Count )
( T01 | 0.800mm 0.0315in | 0.0000in | 0.0000in |       0 )
( T02 | 0.813mm 0.0320in | 0.0000in | 0.0000in |       0 )
( T03 | 0.914mm 0.0360in | 0.0000in | 0.0000in |       0 )
( T04 | 1.016mm 0.0400in | 0.0000in | 0.0000in |       0 )
( T05 | 1.118mm 0.0440in | 0.0000in | 0.0000in |       0 )
(Inch Mode)
G20
(Absolute Coordinates)
G90
S20000
G00 Z1.0000  
G00 X0.0000  Y0.0000  
M03
G04 P0.000000
M05
G00 Z3.0000  
M06 T01  ; 0.0315  
G01 Z0.0000  F20    
M06 
G00 Z0.0500  
M03
G04 P0.000000
G82 X-0.2880 Y1.8500  Z-0.0730 F20    R0.0500  P0.010000
G82 X-1.0500 Y1.8500  
G82 X-1.6500 Y1.4200  
G82 X-1.6500 Y1.2500  
G82 X-1.6500 Y0.3500  
G82 X-1.8200 Y0.2600  
G82 X-1.1000 Y0.3500  
G82 X-0.6900 Y0.2600  
M05
G00 Z3.0000  
G00 X0.0000  Y0.0000  
M06 T02  ; 0.0320  
G01 Z0.0000  F20    
M06 
G00 Z0.0500  
M03
G04 P0.000000
G82 X-0.3500 Y1.3500  Z-0.0730 F20    R0.0500  P0.010000
G82 X-0.3500 Y1.4500  
G82 X-0.5500 Y1.4500  
G82 X-0.5500 Y1.3500  
G82 X-0.5500 Y1.2500  
G82 X-0.5500 Y1.1500  
G82 X-0.5500 Y1.0500  
G82 X-0.5500 Y0.9500  
G82 X-0.5500 Y0.8500  
G82 X-0.5500 Y0.7500  
G82 X-0.5500 Y0.6500  
G82 X-0.5500 Y0.5500  
G82 X-0.5500 Y0.4500  
G82 X-1.1500 Y0.4500  
G82 X-1.1500 Y0.5500  
G82 X-1.1500 Y0.6500  
G82 X-1.1500 Y0.7500  
G82 X-1.1500 Y0.8500  
G82 X-1.1500 Y0.9500  
G82 X-1.1500 Y1.0500  
G82 X-1.1500 Y1.1500  
G82 X-1.1500 Y1.2500  
G82 X-1.1500 Y1.3500  
G82 X-1.1500 Y1.4500  
G82 X-1.1500 Y1.5500  
G82 X-1.0000 Y1.7500  
G82 X-1.0000 Y1.9500  
G82 X-0.9000 Y1.9500  
G82 X-0.8000 Y1.9500  
G82 X-0.7000 Y1.9500  
G82 X-0.6000 Y1.9500  
G82 X-0.5000 Y1.9500  
G82 X-0.4000 Y1.9500  
G82 X-0.4000 Y2.2500  
G82 X-0.5000 Y2.2500  
G82 X-0.6000 Y2.2500  
G82 X-0.7000 Y2.2500  
G82 X-0.8000 Y2.2500  
G82 X-0.9000 Y2.2500  
G82 X-1.0000 Y2.2500  
G82 X-1.1000 Y2.2500  
G82 X-1.2000 Y2.2500  
G82 X-1.3000 Y2.2500  
G82 X-1.4000 Y2.2500  
G82 X-1.5000 Y2.2500  
G82 X-1.6000 Y2.2500  
G82 X-1.7000 Y2.2500  
G82 X-1.5000 Y2.4000  
G82 X-1.3500 Y2.5500  
G82 X-1.2500 Y2.6500  
G82 X-1.1500 Y2.6500  
G82 X-0.9500 Y2.6500  
G82 X-0.8500 Y2.6500  
G82 X-0.8450 Y2.4500  
G82 X-0.6550 Y2.4500  
G82 X-1.1000 Y2.4500  
G82 X-1.2000 Y2.4500  
G82 X-1.2000 Y1.9500  
G82 X-1.1000 Y1.9500  
G82 X-1.3000 Y1.9500  
G82 X-1.4000 Y1.9500  
G82 X-1.5000 Y1.9500  
G82 X-1.6000 Y1.9500  
G82 X-1.7000 Y1.9500  
G82 X-1.4000 Y1.7500  
G82 X-1.9000 Y2.4000  
G82 X-1.7500 Y2.5500  
G82 X-0.5500 Y1.5500  
M05
G00 Z3.0000  
G00 X0.0000  Y0.0000  
M06 T03  ; 0.0360  
G01 Z0.0000  F20    
M06 
G00 Z0.0500  
M03
G04 P0.000000
G82 X-1.5000 Y2.7000  Z-0.0730 F20    R0.0500  P0.010000
G82 X-1.7000 Y2.7000  
G82 X-1.9000 Y2.7000  
G82 X-1.9200 Y2.1000  
G82 X-1.9200 Y1.9200  
G82 X-1.5500 Y1.7500  
G82 X-1.5500 Y1.6000  
G82 X-1.7900 Y0.1000  
G82 X-1.9400 Y0.1000  
M05
G00 Z3.0000  
G00 X0.0000  Y0.0000  
M06 T04  ; 0.0400  
G01 Z0.0000  F20    
M06 
G00 Z0.0500  
M03
G04 P0.000000
G82 X-1.7900 Y0.5000  Z-0.0730 F20    R0.0500  P0.010000
G82 X-1.8900 Y0.5000  
G82 X-1.8900 Y0.6000  
G82 X-1.7900 Y0.6000  
G82 X-1.7900 Y0.7000  
G82 X-1.8900 Y0.7000  
G82 X-1.8900 Y0.8000  
G82 X-1.7900 Y0.8000  
G82 X-1.7900 Y0.9000  
G82 X-1.8900 Y0.9000  
G82 X-1.8900 Y1.0000  
G82 X-1.7900 Y1.0000  
G82 X-1.7900 Y1.1000  
G82 X-1.7900 Y1.2000  
G82 X-1.8900 Y1.2000  
G82 X-1.8900 Y1.1000  
M05
G00 Z3.0000  
G00 X0.0000  Y0.0000  
M06 T05  ; 0.0440  
G01 Z0.0000  F20    
M06 
G00 Z0.0500  
M03
G04 P0.000000
G82 X-0.1000 Y0.1000  Z-0.0730 F20    R0.0500  P0.010000
G82 X-0.2000 Y0.1000  
G82 X-0.3000 Y0.1000  
G82 X-0.4000 Y0.1000  
G82 X-0.5000 Y0.1000  
G82 X-0.6000 Y0.1000  
G82 X-0.7000 Y0.1000  
G82 X-0.8000 Y0.1000  
G82 X-0.9000 Y0.1000  
G82 X-1.0000 Y0.1000  
G82 X-1.1000 Y0.1000  
G82 X-1.2000 Y0.1000  
G82 X-1.3000 Y0.1000  
G82 X-1.4000 Y0.1000  
G82 X-1.5000 Y0.1000  
G82 X-1.6000 Y0.1000  
T01 
G00 Z1.0000  
M05
M02
