(/Applications/pcbgcode.repo/pcb-gcode.ulp)
(Copyright 2005 - 2012 by John Johnson)
(See readme.txt for licensing terms.)
(This file generated from the board:)
(.../atmega_knobs_cntrl/eagle/midi_to_cv.brd)
(Current profile is .../pcbgcode.repo/profiles/mach.pp  )
(This file generated 5/3/15 7:54 PM)
(Settings from pcb-machine.h)
(spindle on time = 0.0000)
(  Tool Size)
(0.0100  )
(spindle speed = 30000.0000)
(tool change at 0.0000  0.0000  3.0000  )
(feed rate xy = F20    )
(feed rate z  = F10    )
(Z Axis Settings)
(  High     Up        Down     Drill)
(1.0000  	0.0500  	-0.0040 	-0.0730 )
(Settings from pcb-defaults.h)
(isolate min = 0.0010)
(isolate max = 0.0050)
(isolate step = 0.0010)
(Generated bottom outlines, bottom drill, )
(Unit of measure: inch)
(Inch Mode)
G20
(Absolute Coordinates)
G90
S30000
G00 Z1.0000  
G00 X0.0000  Y0.0000  
M03
G04 P0.000000
G00 Z0.0500  
G00 X-0.0672 Y0.0350  
G01 Z-0.0040 F10    
G01 X-0.0720 Y0.0302  F20    
G01 X-0.0775 Y0.0262  
G01 X-0.0835 Y0.0232  
G01 X-0.0899 Y0.0211  
G01 X-0.0966 Y0.0200  
G01 X-0.1034 Y0.0200  
G01 X-0.1101 Y0.0211  
G01 X-0.1165 Y0.0232  
G01 X-0.1225 Y0.0262  
G01 X-0.1280 Y0.0302  
G01 X-0.1328 Y0.0350  
G01 X-0.1368 Y0.0405  
G01 X-0.1398 Y0.0465  
G01 X-0.1419 Y0.0529  
G01 X-0.1430 Y0.0596  
G01 X-0.1430 Y0.1404  
G01 X-0.1419 Y0.1471  
G01 X-0.1398 Y0.1535  
G01 X-0.1368 Y0.1595  
G01 X-0.1328 Y0.1650  
G01 X-0.1280 Y0.1698  
G01 X-0.1230 Y0.1734  
G01 X-0.1230 Y0.8038  
G01 X-0.5372 Y1.2180  
G01 X-0.5792 Y1.2180  
G01 X-0.5853 Y1.2192  
G01 X-0.5912 Y1.2216  
G01 X-0.5964 Y1.2251  
G01 X-0.6009 Y1.2296  
G01 X-0.6044 Y1.2348  
G01 X-0.6068 Y1.2407  
G01 X-0.6080 Y1.2468  
G01 X-0.6080 Y1.2532  
G01 X-0.6068 Y1.2593  
G01 X-0.6044 Y1.2652  
G01 X-0.6009 Y1.2704  
G01 X-0.5964 Y1.2749  
G01 X-0.5912 Y1.2784  
G01 X-0.5853 Y1.2808  
G01 X-0.5792 Y1.2820  
G01 X-0.5208 Y1.2820  
G01 X-0.5147 Y1.2808  
G01 X-0.5088 Y1.2784  
G01 X-0.5036 Y1.2749  
G01 X-0.4991 Y1.2704  
G01 X-0.4956 Y1.2652  
G01 X-0.4932 Y1.2593  
G01 X-0.4920 Y1.2532  
G01 X-0.4920 Y1.2468  
G01 X-0.4932 Y1.2407  
G01 X-0.4956 Y1.2348  
G01 X-0.4991 Y1.2296  
G01 X-0.5028 Y1.2260  
G01 X-0.0988 Y0.8220  
G01 X-0.0960 Y0.8192  
G01 X-0.0940 Y0.8158  
G01 X-0.0930 Y0.8120  
G01 X-0.0930 Y0.1794  
G01 X-0.0899 Y0.1789  
G01 X-0.0835 Y0.1768  
G01 X-0.0775 Y0.1738  
G01 X-0.0720 Y0.1698  
G01 X-0.0672 Y0.1650  
G01 X-0.0632 Y0.1595  
G01 X-0.0602 Y0.1535  
G01 X-0.0581 Y0.1471  
G01 X-0.0570 Y0.1404  
G01 X-0.0570 Y0.0596  
G01 X-0.0581 Y0.0529  
G01 X-0.0602 Y0.0465  
G01 X-0.0632 Y0.0405  
G01 X-0.0672 Y0.0350  
G00 Z0.0500  
G00 X-0.1672 Y0.0350  
G01 Z-0.0040 F10    
G01 X-0.1720 Y0.0302  F20    
G01 X-0.1775 Y0.0262  
G01 X-0.1835 Y0.0232  
G01 X-0.1899 Y0.0211  
G01 X-0.1966 Y0.0200  
G01 X-0.2034 Y0.0200  
G01 X-0.2101 Y0.0211  
G01 X-0.2165 Y0.0232  
G01 X-0.2225 Y0.0262  
G01 X-0.2280 Y0.0302  
G01 X-0.2328 Y0.0350  
G01 X-0.2368 Y0.0405  
G01 X-0.2398 Y0.0465  
G01 X-0.2419 Y0.0529  
G01 X-0.2430 Y0.0596  
G01 X-0.2430 Y0.1404  
G01 X-0.2419 Y0.1471  
G01 X-0.2398 Y0.1535  
G01 X-0.2368 Y0.1595  
G01 X-0.2328 Y0.1650  
G01 X-0.2280 Y0.1698  
G01 X-0.2225 Y0.1738  
G01 X-0.2165 Y0.1768  
G01 X-0.2101 Y0.1789  
G01 X-0.2034 Y0.1800  
G01 X-0.1966 Y0.1800  
G01 X-0.1910 Y0.1791  
G01 X-0.1910 Y0.7818  
G01 X-0.5272 Y1.1180  
G01 X-0.5792 Y1.1180  
G01 X-0.5853 Y1.1192  
G01 X-0.5912 Y1.1216  
G01 X-0.5964 Y1.1251  
G01 X-0.6009 Y1.1296  
G01 X-0.6044 Y1.1348  
G01 X-0.6068 Y1.1407  
G01 X-0.6080 Y1.1468  
G01 X-0.6080 Y1.1532  
G01 X-0.6068 Y1.1593  
G01 X-0.6044 Y1.1652  
G01 X-0.6009 Y1.1704  
G01 X-0.5964 Y1.1749  
G01 X-0.5912 Y1.1784  
G01 X-0.5853 Y1.1808  
G01 X-0.5792 Y1.1820  
G01 X-0.5208 Y1.1820  
G01 X-0.5147 Y1.1808  
G01 X-0.5088 Y1.1784  
G01 X-0.5036 Y1.1749  
G01 X-0.4991 Y1.1704  
G01 X-0.4956 Y1.1652  
G01 X-0.4932 Y1.1593  
G01 X-0.4920 Y1.1532  
G01 X-0.4920 Y1.1468  
G01 X-0.4932 Y1.1407  
G01 X-0.4956 Y1.1348  
G01 X-0.4980 Y1.1313  
G01 X-0.1668 Y0.8000  
G01 X-0.1640 Y0.7972  
G01 X-0.1620 Y0.7938  
G01 X-0.1610 Y0.7900  
G01 X-0.1610 Y0.1552  
G01 X-0.1602 Y0.1535  
G01 X-0.1581 Y0.1471  
G01 X-0.1570 Y0.1404  
G01 X-0.1570 Y0.0596  
G01 X-0.1581 Y0.0529  
G01 X-0.1602 Y0.0465  
G01 X-0.1632 Y0.0405  
G01 X-0.1672 Y0.0350  
G00 Z0.0500  
G00 X-0.2672 Y0.0350  
G01 Z-0.0040 F10    
G01 X-0.2720 Y0.0302  F20    
G01 X-0.2775 Y0.0262  
G01 X-0.2835 Y0.0232  
G01 X-0.2899 Y0.0211  
G01 X-0.2966 Y0.0200  
G01 X-0.3034 Y0.0200  
G01 X-0.3101 Y0.0211  
G01 X-0.3165 Y0.0232  
G01 X-0.3225 Y0.0262  
G01 X-0.3280 Y0.0302  
G01 X-0.3328 Y0.0350  
G01 X-0.3368 Y0.0405  
G01 X-0.3398 Y0.0465  
G01 X-0.3419 Y0.0529  
G01 X-0.3430 Y0.0596  
G01 X-0.3430 Y0.1404  
G01 X-0.3419 Y0.1471  
G01 X-0.3398 Y0.1535  
G01 X-0.3368 Y0.1595  
G01 X-0.3328 Y0.1650  
G01 X-0.3280 Y0.1698  
G01 X-0.3225 Y0.1738  
G01 X-0.3165 Y0.1768  
G01 X-0.3101 Y0.1789  
G01 X-0.3034 Y0.1800  
G01 X-0.2966 Y0.1800  
G01 X-0.2899 Y0.1789  
G01 X-0.2835 Y0.1768  
G01 X-0.2832 Y0.1767  
G01 X-0.2510 Y0.2511  
G01 X-0.2510 Y0.7633  
G01 X-0.5336 Y1.0180  
G01 X-0.5792 Y1.0180  
G01 X-0.5853 Y1.0192  
G01 X-0.5912 Y1.0216  
G01 X-0.5964 Y1.0251  
G01 X-0.6009 Y1.0296  
G01 X-0.6044 Y1.0348  
G01 X-0.6068 Y1.0407  
G01 X-0.6080 Y1.0468  
G01 X-0.6080 Y1.0532  
G01 X-0.6068 Y1.0593  
G01 X-0.6044 Y1.0652  
G01 X-0.6009 Y1.0704  
G01 X-0.5964 Y1.0749  
G01 X-0.5912 Y1.0784  
G01 X-0.5853 Y1.0808  
G01 X-0.5792 Y1.0820  
G01 X-0.5208 Y1.0820  
G01 X-0.5147 Y1.0808  
G01 X-0.5088 Y1.0784  
G01 X-0.5036 Y1.0749  
G01 X-0.4991 Y1.0704  
G01 X-0.4956 Y1.0652  
G01 X-0.4932 Y1.0593  
G01 X-0.4920 Y1.0532  
G01 X-0.4920 Y1.0468  
G01 X-0.4932 Y1.0407  
G01 X-0.4956 Y1.0348  
G01 X-0.4991 Y1.0296  
G01 X-0.5003 Y1.0284  
G01 X-0.2271 Y0.7822  
G01 X-0.2268 Y0.7820  
G01 X-0.2257 Y0.7809  
G01 X-0.2245 Y0.7798  
G01 X-0.2243 Y0.7795  
G01 X-0.2240 Y0.7792  
G01 X-0.2232 Y0.7778  
G01 X-0.2223 Y0.7765  
G01 X-0.2222 Y0.7761  
G01 X-0.2220 Y0.7758  
G01 X-0.2216 Y0.7743  
G01 X-0.2211 Y0.7727  
G01 X-0.2211 Y0.7724  
G01 X-0.2210 Y0.7720  
G01 X-0.2210 Y0.7704  
G01 X-0.2209 Y0.7688  
G01 X-0.2210 Y0.7684  
G01 X-0.2210 Y0.2489  
G01 X-0.2209 Y0.2478  
G01 X-0.2210 Y0.2469  
G01 X-0.2210 Y0.2460  
G01 X-0.2213 Y0.2450  
G01 X-0.2214 Y0.2439  
G01 X-0.2218 Y0.2431  
G01 X-0.2220 Y0.2422  
G01 X-0.2226 Y0.2413  
G01 X-0.2604 Y0.1539  
G01 X-0.2602 Y0.1535  
G01 X-0.2581 Y0.1471  
G01 X-0.2570 Y0.1404  
G01 X-0.2570 Y0.0596  
G01 X-0.2581 Y0.0529  
G01 X-0.2602 Y0.0465  
G01 X-0.2632 Y0.0405  
G01 X-0.2672 Y0.0350  
G00 Z0.0500  
G00 X-0.3672 Y0.0350  
G01 Z-0.0040 F10    
G01 X-0.3720 Y0.0302  F20    
G01 X-0.3775 Y0.0262  
G01 X-0.3835 Y0.0232  
G01 X-0.3899 Y0.0211  
G01 X-0.3966 Y0.0200  
G01 X-0.4034 Y0.0200  
G01 X-0.4101 Y0.0211  
G01 X-0.4165 Y0.0232  
G01 X-0.4225 Y0.0262  
G01 X-0.4280 Y0.0302  
G01 X-0.4328 Y0.0350  
G01 X-0.4368 Y0.0405  
G01 X-0.4398 Y0.0465  
G01 X-0.4419 Y0.0529  
G01 X-0.4430 Y0.0596  
G01 X-0.4430 Y0.1404  
G01 X-0.4419 Y0.1471  
G01 X-0.4398 Y0.1535  
G01 X-0.4368 Y0.1595  
G01 X-0.4328 Y0.1650  
G01 X-0.4280 Y0.1698  
G01 X-0.4225 Y0.1738  
G01 X-0.4165 Y0.1768  
G01 X-0.4101 Y0.1789  
G01 X-0.4034 Y0.1800  
G01 X-0.3966 Y0.1800  
G01 X-0.3899 Y0.1789  
G01 X-0.3873 Y0.1781  
G01 X-0.3150 Y0.2654  
G01 X-0.3150 Y0.7274  
G01 X-0.5245 Y0.9180  
G01 X-0.5792 Y0.9180  
G01 X-0.5853 Y0.9192  
G01 X-0.5912 Y0.9216  
G01 X-0.5964 Y0.9251  
G01 X-0.6009 Y0.9296  
G01 X-0.6044 Y0.9348  
G01 X-0.6068 Y0.9407  
G01 X-0.6080 Y0.9468  
G01 X-0.6080 Y0.9532  
G01 X-0.6068 Y0.9593  
G01 X-0.6044 Y0.9652  
G01 X-0.6009 Y0.9704  
G01 X-0.5964 Y0.9749  
G01 X-0.5912 Y0.9784  
G01 X-0.5853 Y0.9808  
G01 X-0.5792 Y0.9820  
G01 X-0.5208 Y0.9820  
G01 X-0.5147 Y0.9808  
G01 X-0.5088 Y0.9784  
G01 X-0.5036 Y0.9749  
G01 X-0.4991 Y0.9704  
G01 X-0.4956 Y0.9652  
G01 X-0.4932 Y0.9593  
G01 X-0.4920 Y0.9532  
G01 X-0.4920 Y0.9468  
G01 X-0.4932 Y0.9407  
G01 X-0.4956 Y0.9348  
G01 X-0.4967 Y0.9333  
G01 X-0.2911 Y0.7462  
G01 X-0.2908 Y0.7460  
G01 X-0.2896 Y0.7449  
G01 X-0.2884 Y0.7438  
G01 X-0.2883 Y0.7435  
G01 X-0.2880 Y0.7432  
G01 X-0.2872 Y0.7418  
G01 X-0.2863 Y0.7404  
G01 X-0.2862 Y0.7401  
G01 X-0.2860 Y0.7398  
G01 X-0.2856 Y0.7382  
G01 X-0.2851 Y0.7367  
G01 X-0.2851 Y0.7363  
G01 X-0.2850 Y0.7360  
G01 X-0.2850 Y0.7344  
G01 X-0.2849 Y0.7327  
G01 X-0.2850 Y0.7324  
G01 X-0.2850 Y0.2607  
G01 X-0.2849 Y0.2594  
G01 X-0.2850 Y0.2587  
G01 X-0.2850 Y0.2580  
G01 X-0.2853 Y0.2568  
G01 X-0.2855 Y0.2555  
G01 X-0.2858 Y0.2549  
G01 X-0.2860 Y0.2542  
G01 X-0.2867 Y0.2531  
G01 X-0.2872 Y0.2520  
G01 X-0.2876 Y0.2514  
G01 X-0.2880 Y0.2508  
G01 X-0.2889 Y0.2499  
G01 X-0.3634 Y0.1598  
G01 X-0.3632 Y0.1595  
G01 X-0.3602 Y0.1535  
G01 X-0.3581 Y0.1471  
G01 X-0.3570 Y0.1404  
G01 X-0.3570 Y0.0596  
G01 X-0.3581 Y0.0529  
G01 X-0.3602 Y0.0465  
G01 X-0.3632 Y0.0405  
G01 X-0.3672 Y0.0350  
G00 Z0.0500  
G00 X-0.4672 Y0.0350  
G01 Z-0.0040 F10    
G01 X-0.4720 Y0.0302  F20    
G01 X-0.4775 Y0.0262  
G01 X-0.4835 Y0.0232  
G01 X-0.4899 Y0.0211  
G01 X-0.4966 Y0.0200  
G01 X-0.5034 Y0.0200  
G01 X-0.5101 Y0.0211  
G01 X-0.5165 Y0.0232  
G01 X-0.5225 Y0.0262  
G01 X-0.5280 Y0.0302  
G01 X-0.5328 Y0.0350  
G01 X-0.5368 Y0.0405  
G01 X-0.5398 Y0.0465  
G01 X-0.5419 Y0.0529  
G01 X-0.5430 Y0.0596  
G01 X-0.5430 Y0.1404  
G01 X-0.5419 Y0.1471  
G01 X-0.5398 Y0.1535  
G01 X-0.5368 Y0.1595  
G01 X-0.5328 Y0.1650  
G01 X-0.5280 Y0.1698  
G01 X-0.5225 Y0.1738  
G01 X-0.5165 Y0.1768  
G01 X-0.5101 Y0.1789  
G01 X-0.5034 Y0.1800  
G01 X-0.4966 Y0.1800  
G01 X-0.4899 Y0.1789  
G01 X-0.4835 Y0.1768  
G01 X-0.4793 Y0.1747  
G01 X-0.3710 Y0.2996  
G01 X-0.3710 Y0.6947  
G01 X-0.5286 Y0.8180  
G01 X-0.5792 Y0.8180  
G01 X-0.5853 Y0.8192  
G01 X-0.5912 Y0.8216  
G01 X-0.5964 Y0.8251  
G01 X-0.6009 Y0.8296  
G01 X-0.6044 Y0.8348  
G01 X-0.6068 Y0.8407  
G01 X-0.6080 Y0.8468  
G01 X-0.6080 Y0.8532  
G01 X-0.6068 Y0.8593  
G01 X-0.6044 Y0.8652  
G01 X-0.6009 Y0.8704  
G01 X-0.5964 Y0.8749  
G01 X-0.5912 Y0.8784  
G01 X-0.5853 Y0.8808  
G01 X-0.5792 Y0.8820  
G01 X-0.5208 Y0.8820  
G01 X-0.5147 Y0.8808  
G01 X-0.5088 Y0.8784  
G01 X-0.5036 Y0.8749  
G01 X-0.4991 Y0.8704  
G01 X-0.4956 Y0.8652  
G01 X-0.4932 Y0.8593  
G01 X-0.4920 Y0.8532  
G01 X-0.4920 Y0.8468  
G01 X-0.4932 Y0.8407  
G01 X-0.4956 Y0.8348  
G01 X-0.4976 Y0.8319  
G01 X-0.3476 Y0.7145  
G01 X-0.3468 Y0.7140  
G01 X-0.3460 Y0.7133  
G01 X-0.3452 Y0.7126  
G01 X-0.3446 Y0.7119  
G01 X-0.3440 Y0.7112  
G01 X-0.3435 Y0.7103  
G01 X-0.3428 Y0.7094  
G01 X-0.3425 Y0.7086  
G01 X-0.3420 Y0.7078  
G01 X-0.3417 Y0.7068  
G01 X-0.3413 Y0.7058  
G01 X-0.3412 Y0.7049  
G01 X-0.3410 Y0.7040  
G01 X-0.3410 Y0.7029  
G01 X-0.3409 Y0.7019  
G01 X-0.3410 Y0.7009  
G01 X-0.3410 Y0.2945  
G01 X-0.3409 Y0.2931  
G01 X-0.3410 Y0.2926  
G01 X-0.3410 Y0.2920  
G01 X-0.3414 Y0.2906  
G01 X-0.3416 Y0.2892  
G01 X-0.3419 Y0.2887  
G01 X-0.3420 Y0.2882  
G01 X-0.3427 Y0.2870  
G01 X-0.3434 Y0.2857  
G01 X-0.3437 Y0.2853  
G01 X-0.3440 Y0.2848  
G01 X-0.3450 Y0.2838  
G01 X-0.4595 Y0.1516  
G01 X-0.4581 Y0.1471  
G01 X-0.4570 Y0.1404  
G01 X-0.4570 Y0.0596  
G01 X-0.4581 Y0.0529  
G01 X-0.4602 Y0.0465  
G01 X-0.4632 Y0.0405  
G01 X-0.4672 Y0.0350  
G00 Z0.0500  
G00 X-0.5672 Y0.0350  
G01 Z-0.0040 F10    
G01 X-0.5720 Y0.0302  F20    
G01 X-0.5775 Y0.0262  
G01 X-0.5835 Y0.0232  
G01 X-0.5899 Y0.0211  
G01 X-0.5966 Y0.0200  
G01 X-0.6034 Y0.0200  
G01 X-0.6101 Y0.0211  
G01 X-0.6165 Y0.0232  
G01 X-0.6225 Y0.0262  
G01 X-0.6280 Y0.0302  
G01 X-0.6328 Y0.0350  
G01 X-0.6368 Y0.0405  
G01 X-0.6398 Y0.0465  
G01 X-0.6419 Y0.0529  
G01 X-0.6430 Y0.0596  
G01 X-0.6430 Y0.1404  
G01 X-0.6419 Y0.1471  
G01 X-0.6398 Y0.1535  
G01 X-0.6368 Y0.1595  
G01 X-0.6328 Y0.1650  
G01 X-0.6280 Y0.1698  
G01 X-0.6225 Y0.1738  
G01 X-0.6165 Y0.1768  
G01 X-0.6101 Y0.1789  
G01 X-0.6034 Y0.1800  
G01 X-0.5966 Y0.1800  
G01 X-0.5899 Y0.1789  
G01 X-0.5835 Y0.1768  
G01 X-0.5819 Y0.1761  
G01 X-0.4270 Y0.3225  
G01 X-0.4270 Y0.6495  
G01 X-0.4921 Y0.6881  
G01 X-0.4937 Y0.6892  
G01 X-0.4954 Y0.6901  
G01 X-0.4955 Y0.6902  
G01 X-0.4968 Y0.6916  
G01 X-0.4981 Y0.6929  
G01 X-0.5219 Y0.7180  
G01 X-0.5792 Y0.7180  
G01 X-0.5853 Y0.7192  
G01 X-0.5912 Y0.7216  
G01 X-0.5964 Y0.7251  
G01 X-0.6009 Y0.7296  
G01 X-0.6044 Y0.7348  
G01 X-0.6068 Y0.7407  
G01 X-0.6080 Y0.7468  
G01 X-0.6080 Y0.7532  
G01 X-0.6068 Y0.7593  
G01 X-0.6044 Y0.7652  
G01 X-0.6009 Y0.7704  
G01 X-0.5964 Y0.7749  
G01 X-0.5912 Y0.7784  
G01 X-0.5853 Y0.7808  
G01 X-0.5792 Y0.7820  
G01 X-0.5208 Y0.7820  
G01 X-0.5147 Y0.7808  
G01 X-0.5088 Y0.7784  
G01 X-0.5036 Y0.7749  
G01 X-0.4991 Y0.7704  
G01 X-0.4956 Y0.7652  
G01 X-0.4932 Y0.7593  
G01 X-0.4920 Y0.7532  
G01 X-0.4920 Y0.7468  
G01 X-0.4932 Y0.7407  
G01 X-0.4956 Y0.7348  
G01 X-0.4960 Y0.7343  
G01 X-0.4766 Y0.7138  
G01 X-0.4044 Y0.6709  
G01 X-0.4028 Y0.6700  
G01 X-0.4026 Y0.6699  
G01 X-0.4013 Y0.6685  
G01 X-0.4000 Y0.6672  
G01 X-0.3999 Y0.6671  
G01 X-0.3990 Y0.6654  
G01 X-0.3980 Y0.6638  
G01 X-0.3979 Y0.6636  
G01 X-0.3975 Y0.6618  
G01 X-0.3970 Y0.6600  
G01 X-0.3970 Y0.6598  
G01 X-0.3970 Y0.6579  
G01 X-0.3970 Y0.3178  
G01 X-0.3970 Y0.3176  
G01 X-0.3970 Y0.3158  
G01 X-0.3970 Y0.3140  
G01 X-0.3971 Y0.3138  
G01 X-0.3971 Y0.3136  
G01 X-0.3976 Y0.3119  
G01 X-0.3980 Y0.3102  
G01 X-0.3981 Y0.3100  
G01 X-0.3982 Y0.3098  
G01 X-0.3991 Y0.3083  
G01 X-0.4000 Y0.3068  
G01 X-0.4001 Y0.3066  
G01 X-0.4003 Y0.3065  
G01 X-0.4015 Y0.3052  
G01 X-0.4028 Y0.3040  
G01 X-0.4030 Y0.3039  
G01 X-0.5608 Y0.1548  
G01 X-0.5602 Y0.1535  
G01 X-0.5581 Y0.1471  
G01 X-0.5570 Y0.1404  
G01 X-0.5570 Y0.0596  
G01 X-0.5581 Y0.0529  
G01 X-0.5602 Y0.0465  
G01 X-0.5632 Y0.0405  
G01 X-0.5672 Y0.0350  
G00 Z0.0500  
G00 X-0.6672 Y0.0350  
G01 Z-0.0040 F10    
G01 X-0.6720 Y0.0302  F20    
G01 X-0.6775 Y0.0262  
G01 X-0.6835 Y0.0232  
G01 X-0.6899 Y0.0211  
G01 X-0.6966 Y0.0200  
G01 X-0.7034 Y0.0200  
G01 X-0.7101 Y0.0211  
G01 X-0.7165 Y0.0232  
G01 X-0.7225 Y0.0262  
G01 X-0.7280 Y0.0302  
G01 X-0.7328 Y0.0350  
G01 X-0.7368 Y0.0405  
G01 X-0.7398 Y0.0465  
G01 X-0.7419 Y0.0529  
G01 X-0.7430 Y0.0596  
G01 X-0.7430 Y0.1404  
G01 X-0.7419 Y0.1471  
G01 X-0.7398 Y0.1535  
G01 X-0.7368 Y0.1595  
G01 X-0.7328 Y0.1650  
G01 X-0.7280 Y0.1698  
G01 X-0.7225 Y0.1738  
G01 X-0.7165 Y0.1768  
G01 X-0.7101 Y0.1789  
G01 X-0.7034 Y0.1800  
G01 X-0.6966 Y0.1800  
G01 X-0.6899 Y0.1789  
G01 X-0.6835 Y0.1768  
G01 X-0.6775 Y0.1738  
G01 X-0.6763 Y0.1729  
G01 X-0.4830 Y0.3662  
G01 X-0.4830 Y0.5698  
G01 X-0.5312 Y0.6180  
G01 X-0.5792 Y0.6180  
G01 X-0.5853 Y0.6192  
G01 X-0.5912 Y0.6216  
G01 X-0.5964 Y0.6251  
G01 X-0.6009 Y0.6296  
G01 X-0.6044 Y0.6348  
G01 X-0.6068 Y0.6407  
G01 X-0.6080 Y0.6468  
G01 X-0.6080 Y0.6532  
G01 X-0.6068 Y0.6593  
G01 X-0.6044 Y0.6652  
G01 X-0.6009 Y0.6704  
G01 X-0.5964 Y0.6749  
G01 X-0.5912 Y0.6784  
G01 X-0.5853 Y0.6808  
G01 X-0.5792 Y0.6820  
G01 X-0.5208 Y0.6820  
G01 X-0.5147 Y0.6808  
G01 X-0.5088 Y0.6784  
G01 X-0.5036 Y0.6749  
G01 X-0.4991 Y0.6704  
G01 X-0.4956 Y0.6652  
G01 X-0.4932 Y0.6593  
G01 X-0.4920 Y0.6532  
G01 X-0.4920 Y0.6468  
G01 X-0.4932 Y0.6407  
G01 X-0.4956 Y0.6348  
G01 X-0.4991 Y0.6296  
G01 X-0.4998 Y0.6290  
G01 X-0.4588 Y0.5880  
G01 X-0.4560 Y0.5852  
G01 X-0.4540 Y0.5818  
G01 X-0.4530 Y0.5780  
G01 X-0.4530 Y0.3580  
G01 X-0.4540 Y0.3542  
G01 X-0.4560 Y0.3508  
G01 X-0.6585 Y0.1483  
G01 X-0.6581 Y0.1471  
G01 X-0.6570 Y0.1404  
G01 X-0.6570 Y0.0596  
G01 X-0.6581 Y0.0529  
G01 X-0.6602 Y0.0465  
G01 X-0.6632 Y0.0405  
G01 X-0.6672 Y0.0350  
G00 Z0.0500  
G00 X-0.7672 Y0.0350  
G01 Z-0.0040 F10    
G01 X-0.7720 Y0.0302  F20    
G01 X-0.7775 Y0.0262  
G01 X-0.7835 Y0.0232  
G01 X-0.7899 Y0.0211  
G01 X-0.7966 Y0.0200  
G01 X-0.8034 Y0.0200  
G01 X-0.8101 Y0.0211  
G01 X-0.8165 Y0.0232  
G01 X-0.8225 Y0.0262  
G01 X-0.8280 Y0.0302  
G01 X-0.8328 Y0.0350  
G01 X-0.8368 Y0.0405  
G01 X-0.8398 Y0.0465  
G01 X-0.8419 Y0.0529  
G01 X-0.8430 Y0.0596  
G01 X-0.8430 Y0.1404  
G01 X-0.8419 Y0.1471  
G01 X-0.8398 Y0.1535  
G01 X-0.8368 Y0.1595  
G01 X-0.8328 Y0.1650  
G01 X-0.8280 Y0.1698  
G01 X-0.8225 Y0.1738  
G01 X-0.8165 Y0.1768  
G01 X-0.8101 Y0.1789  
G01 X-0.8070 Y0.1794  
G01 X-0.8070 Y0.3260  
G01 X-0.8060 Y0.3298  
G01 X-0.8040 Y0.3332  
G01 X-0.8012 Y0.3360  
G01 X-0.6212 Y0.5160  
G01 X-0.6178 Y0.5180  
G01 X-0.6140 Y0.5190  
G01 X-0.6002 Y0.5190  
G01 X-0.5950 Y0.5242  
G01 X-0.5964 Y0.5251  
G01 X-0.6009 Y0.5296  
G01 X-0.6044 Y0.5348  
G01 X-0.6068 Y0.5407  
G01 X-0.6080 Y0.5468  
G01 X-0.6080 Y0.5532  
G01 X-0.6068 Y0.5593  
G01 X-0.6044 Y0.5652  
G01 X-0.6009 Y0.5704  
G01 X-0.5964 Y0.5749  
G01 X-0.5912 Y0.5784  
G01 X-0.5853 Y0.5808  
G01 X-0.5792 Y0.5820  
G01 X-0.5208 Y0.5820  
G01 X-0.5147 Y0.5808  
G01 X-0.5088 Y0.5784  
G01 X-0.5036 Y0.5749  
G01 X-0.4991 Y0.5704  
G01 X-0.4956 Y0.5652  
G01 X-0.4932 Y0.5593  
G01 X-0.4920 Y0.5532  
G01 X-0.4920 Y0.5468  
G01 X-0.4932 Y0.5407  
G01 X-0.4956 Y0.5348  
G01 X-0.4991 Y0.5296  
G01 X-0.5036 Y0.5251  
G01 X-0.5088 Y0.5216  
G01 X-0.5147 Y0.5192  
G01 X-0.5208 Y0.5180  
G01 X-0.5588 Y0.5180  
G01 X-0.5820 Y0.4948  
G01 X-0.5848 Y0.4920  
G01 X-0.5882 Y0.4900  
G01 X-0.5920 Y0.4890  
G01 X-0.6058 Y0.4890  
G01 X-0.7770 Y0.3178  
G01 X-0.7770 Y0.1734  
G01 X-0.7720 Y0.1698  
G01 X-0.7672 Y0.1650  
G01 X-0.7632 Y0.1595  
G01 X-0.7602 Y0.1535  
G01 X-0.7581 Y0.1471  
G01 X-0.7570 Y0.1404  
G01 X-0.7570 Y0.0596  
G01 X-0.7581 Y0.0529  
G01 X-0.7602 Y0.0465  
G01 X-0.7632 Y0.0405  
G01 X-0.7672 Y0.0350  
G00 Z0.0500  
G00 X-0.8672 Y0.0350  
G01 Z-0.0040 F10    
G01 X-0.8720 Y0.0302  F20    
G01 X-0.8775 Y0.0262  
G01 X-0.8835 Y0.0232  
G01 X-0.8899 Y0.0211  
G01 X-0.8966 Y0.0200  
G01 X-0.9034 Y0.0200  
G01 X-0.9101 Y0.0211  
G01 X-0.9165 Y0.0232  
G01 X-0.9225 Y0.0262  
G01 X-0.9280 Y0.0302  
G01 X-0.9328 Y0.0350  
G01 X-0.9368 Y0.0405  
G01 X-0.9398 Y0.0465  
G01 X-0.9419 Y0.0529  
G01 X-0.9430 Y0.0596  
G01 X-0.9430 Y0.1404  
G01 X-0.9419 Y0.1471  
G01 X-0.9398 Y0.1535  
G01 X-0.9368 Y0.1595  
G01 X-0.9328 Y0.1650  
G01 X-0.9280 Y0.1698  
G01 X-0.9225 Y0.1738  
G01 X-0.9165 Y0.1768  
G01 X-0.9150 Y0.1773  
G01 X-0.9150 Y0.2998  
G01 X-1.1332 Y0.5180  
G01 X-1.1792 Y0.5180  
G01 X-1.1853 Y0.5192  
G01 X-1.1912 Y0.5216  
G01 X-1.1964 Y0.5251  
G01 X-1.2009 Y0.5296  
G01 X-1.2044 Y0.5348  
G01 X-1.2068 Y0.5407  
G01 X-1.2080 Y0.5468  
G01 X-1.2080 Y0.5532  
G01 X-1.2068 Y0.5593  
G01 X-1.2044 Y0.5652  
G01 X-1.2009 Y0.5704  
G01 X-1.1964 Y0.5749  
G01 X-1.1912 Y0.5784  
G01 X-1.1853 Y0.5808  
G01 X-1.1792 Y0.5820  
G01 X-1.1208 Y0.5820  
G01 X-1.1147 Y0.5808  
G01 X-1.1088 Y0.5784  
G01 X-1.1036 Y0.5749  
G01 X-1.0991 Y0.5704  
G01 X-1.0956 Y0.5652  
G01 X-1.0932 Y0.5593  
G01 X-1.0920 Y0.5532  
G01 X-1.0920 Y0.5468  
G01 X-1.0932 Y0.5407  
G01 X-1.0956 Y0.5348  
G01 X-1.0991 Y0.5296  
G01 X-1.1008 Y0.5280  
G01 X-0.8908 Y0.3180  
G01 X-0.8880 Y0.3152  
G01 X-0.8860 Y0.3118  
G01 X-0.8850 Y0.3080  
G01 X-0.8850 Y0.1773  
G01 X-0.8835 Y0.1768  
G01 X-0.8775 Y0.1738  
G01 X-0.8720 Y0.1698  
G01 X-0.8672 Y0.1650  
G01 X-0.8632 Y0.1595  
G01 X-0.8602 Y0.1535  
G01 X-0.8581 Y0.1471  
G01 X-0.8570 Y0.1404  
G01 X-0.8570 Y0.0596  
G01 X-0.8581 Y0.0529  
G01 X-0.8602 Y0.0465  
G01 X-0.8632 Y0.0405  
G01 X-0.8672 Y0.0350  
G00 Z0.0500  
G00 X-0.9672 Y0.0350  
G01 Z-0.0040 F10    
G01 X-0.9720 Y0.0302  F20    
G01 X-0.9775 Y0.0262  
G01 X-0.9835 Y0.0232  
G01 X-0.9899 Y0.0211  
G01 X-0.9966 Y0.0200  
G01 X-1.0034 Y0.0200  
G01 X-1.0101 Y0.0211  
G01 X-1.0165 Y0.0232  
G01 X-1.0225 Y0.0262  
G01 X-1.0280 Y0.0302  
G01 X-1.0328 Y0.0350  
G01 X-1.0368 Y0.0405  
G01 X-1.0398 Y0.0465  
G01 X-1.0419 Y0.0529  
G01 X-1.0430 Y0.0596  
G01 X-1.0430 Y0.1404  
G01 X-1.0419 Y0.1471  
G01 X-1.0398 Y0.1535  
G01 X-1.0395 Y0.1543  
G01 X-1.2540 Y0.3688  
G01 X-1.2560 Y0.3722  
G01 X-1.2570 Y0.3760  
G01 X-1.2570 Y0.5744  
G01 X-1.2571 Y0.5747  
G01 X-1.2570 Y0.5764  
G01 X-1.2570 Y0.5780  
G01 X-1.2569 Y0.5783  
G01 X-1.2569 Y0.5787  
G01 X-1.2564 Y0.5802  
G01 X-1.2560 Y0.5818  
G01 X-1.2558 Y0.5821  
G01 X-1.2557 Y0.5825  
G01 X-1.2548 Y0.5838  
G01 X-1.2540 Y0.5852  
G01 X-1.2537 Y0.5855  
G01 X-1.2188 Y0.6398  
G01 X-1.2180 Y0.6412  
G01 X-1.2177 Y0.6415  
G01 X-1.2175 Y0.6418  
G01 X-1.2164 Y0.6429  
G01 X-1.2152 Y0.6440  
G01 X-1.2149 Y0.6442  
G01 X-1.2146 Y0.6444  
G01 X-1.2132 Y0.6452  
G01 X-1.2118 Y0.6460  
G01 X-1.2114 Y0.6461  
G01 X-1.2111 Y0.6462  
G01 X-1.2095 Y0.6466  
G01 X-1.2080 Y0.6470  
G01 X-1.2080 Y0.6532  
G01 X-1.2068 Y0.6593  
G01 X-1.2044 Y0.6652  
G01 X-1.2009 Y0.6704  
G01 X-1.1964 Y0.6749  
G01 X-1.1912 Y0.6784  
G01 X-1.1853 Y0.6808  
G01 X-1.1792 Y0.6820  
G01 X-1.1208 Y0.6820  
G01 X-1.1147 Y0.6808  
G01 X-1.1088 Y0.6784  
G01 X-1.1036 Y0.6749  
G01 X-1.0991 Y0.6704  
G01 X-1.0956 Y0.6652  
G01 X-1.0932 Y0.6593  
G01 X-1.0920 Y0.6532  
G01 X-1.0920 Y0.6468  
G01 X-1.0932 Y0.6407  
G01 X-1.0956 Y0.6348  
G01 X-1.0991 Y0.6296  
G01 X-1.1036 Y0.6251  
G01 X-1.1088 Y0.6216  
G01 X-1.1147 Y0.6192  
G01 X-1.1208 Y0.6180  
G01 X-1.1792 Y0.6180  
G01 X-1.1815 Y0.6185  
G01 X-1.1822 Y0.6180  
G01 X-1.1828 Y0.6179  
G01 X-1.1834 Y0.6176  
G01 X-1.1847 Y0.6174  
G01 X-1.1860 Y0.6170  
G01 X-1.1866 Y0.6170  
G01 X-1.1872 Y0.6169  
G01 X-1.1886 Y0.6170  
G01 X-1.1978 Y0.6170  
G01 X-1.2270 Y0.5716  
G01 X-1.2270 Y0.3842  
G01 X-1.0186 Y0.1758  
G01 X-1.0165 Y0.1768  
G01 X-1.0101 Y0.1789  
G01 X-1.0034 Y0.1800  
G01 X-0.9966 Y0.1800  
G01 X-0.9899 Y0.1789  
G01 X-0.9835 Y0.1768  
G01 X-0.9775 Y0.1738  
G01 X-0.9720 Y0.1698  
G01 X-0.9672 Y0.1650  
G01 X-0.9632 Y0.1595  
G01 X-0.9602 Y0.1535  
G01 X-0.9581 Y0.1471  
G01 X-0.9570 Y0.1404  
G01 X-0.9570 Y0.0596  
G01 X-0.9581 Y0.0529  
G01 X-0.9602 Y0.0465  
G01 X-0.9632 Y0.0405  
G01 X-0.9672 Y0.0350  
G00 Z0.0500  
G00 X-1.0672 Y0.0350  
G01 Z-0.0040 F10    
G01 X-1.0720 Y0.0302  F20    
G01 X-1.0775 Y0.0262  
G01 X-1.0835 Y0.0232  
G01 X-1.0899 Y0.0211  
G01 X-1.0966 Y0.0200  
G01 X-1.1034 Y0.0200  
G01 X-1.1101 Y0.0211  
G01 X-1.1165 Y0.0232  
G01 X-1.1225 Y0.0262  
G01 X-1.1280 Y0.0302  
G01 X-1.1328 Y0.0350  
G01 X-1.1368 Y0.0405  
G01 X-1.1398 Y0.0465  
G01 X-1.1419 Y0.0529  
G01 X-1.1430 Y0.0596  
G01 X-1.1430 Y0.1404  
G01 X-1.1419 Y0.1471  
G01 X-1.1415 Y0.1483  
G01 X-1.3000 Y0.3068  
G01 X-1.3020 Y0.3102  
G01 X-1.3030 Y0.3140  
G01 X-1.3030 Y0.6284  
G01 X-1.3031 Y0.6287  
G01 X-1.3030 Y0.6303  
G01 X-1.3030 Y0.6320  
G01 X-1.3029 Y0.6323  
G01 X-1.3029 Y0.6326  
G01 X-1.3024 Y0.6342  
G01 X-1.3020 Y0.6358  
G01 X-1.3018 Y0.6361  
G01 X-1.3017 Y0.6364  
G01 X-1.3008 Y0.6378  
G01 X-1.3000 Y0.6392  
G01 X-1.2998 Y0.6394  
G01 X-1.2996 Y0.6397  
G01 X-1.2984 Y0.6408  
G01 X-1.2972 Y0.6420  
G01 X-1.2969 Y0.6422  
G01 X-1.2011 Y0.7299  
G01 X-1.2044 Y0.7348  
G01 X-1.2068 Y0.7407  
G01 X-1.2080 Y0.7468  
G01 X-1.2080 Y0.7532  
G01 X-1.2068 Y0.7593  
G01 X-1.2044 Y0.7652  
G01 X-1.2009 Y0.7704  
G01 X-1.1964 Y0.7749  
G01 X-1.1912 Y0.7784  
G01 X-1.1853 Y0.7808  
G01 X-1.1792 Y0.7820  
G01 X-1.1208 Y0.7820  
G01 X-1.1147 Y0.7808  
G01 X-1.1088 Y0.7784  
G01 X-1.1036 Y0.7749  
G01 X-1.0991 Y0.7704  
G01 X-1.0956 Y0.7652  
G01 X-1.0932 Y0.7593  
G01 X-1.0920 Y0.7532  
G01 X-1.0920 Y0.7468  
G01 X-1.0932 Y0.7407  
G01 X-1.0956 Y0.7348  
G01 X-1.0991 Y0.7296  
G01 X-1.1036 Y0.7251  
G01 X-1.1088 Y0.7216  
G01 X-1.1147 Y0.7192  
G01 X-1.1208 Y0.7180  
G01 X-1.1696 Y0.7180  
G01 X-1.2730 Y0.6234  
G01 X-1.2730 Y0.3222  
G01 X-1.1237 Y0.1729  
G01 X-1.1225 Y0.1738  
G01 X-1.1165 Y0.1768  
G01 X-1.1101 Y0.1789  
G01 X-1.1034 Y0.1800  
G01 X-1.0966 Y0.1800  
G01 X-1.0899 Y0.1789  
G01 X-1.0835 Y0.1768  
G01 X-1.0775 Y0.1738  
G01 X-1.0720 Y0.1698  
G01 X-1.0672 Y0.1650  
G01 X-1.0632 Y0.1595  
G01 X-1.0602 Y0.1535  
G01 X-1.0581 Y0.1471  
G01 X-1.0570 Y0.1404  
G01 X-1.0570 Y0.0596  
G01 X-1.0581 Y0.0529  
G01 X-1.0602 Y0.0465  
G01 X-1.0632 Y0.0405  
G01 X-1.0672 Y0.0350  
G00 Z0.0500  
G00 X-1.1672 Y0.0350  
G01 Z-0.0040 F10    
G01 X-1.1720 Y0.0302  F20    
G01 X-1.1775 Y0.0262  
G01 X-1.1835 Y0.0232  
G01 X-1.1899 Y0.0211  
G01 X-1.1966 Y0.0200  
G01 X-1.2034 Y0.0200  
G01 X-1.2101 Y0.0211  
G01 X-1.2165 Y0.0232  
G01 X-1.2225 Y0.0262  
G01 X-1.2280 Y0.0302  
G01 X-1.2328 Y0.0350  
G01 X-1.2368 Y0.0405  
G01 X-1.2398 Y0.0465  
G01 X-1.2419 Y0.0529  
G01 X-1.2430 Y0.0596  
G01 X-1.2430 Y0.1404  
G01 X-1.2419 Y0.1471  
G01 X-1.2398 Y0.1535  
G01 X-1.2394 Y0.1545  
G01 X-1.3530 Y0.2599  
G01 X-1.3532 Y0.2600  
G01 X-1.3544 Y0.2612  
G01 X-1.3556 Y0.2623  
G01 X-1.3558 Y0.2626  
G01 X-1.3560 Y0.2628  
G01 X-1.3568 Y0.2643  
G01 X-1.3578 Y0.2657  
G01 X-1.3578 Y0.2660  
G01 X-1.3580 Y0.2662  
G01 X-1.3584 Y0.2678  
G01 X-1.3589 Y0.2695  
G01 X-1.3589 Y0.2697  
G01 X-1.3590 Y0.2700  
G01 X-1.3590 Y0.2717  
G01 X-1.3591 Y0.2734  
G01 X-1.3590 Y0.2737  
G01 X-1.3590 Y0.6803  
G01 X-1.3591 Y0.6806  
G01 X-1.3590 Y0.6823  
G01 X-1.3590 Y0.6840  
G01 X-1.3589 Y0.6843  
G01 X-1.3589 Y0.6845  
G01 X-1.3584 Y0.6862  
G01 X-1.3580 Y0.6878  
G01 X-1.3578 Y0.6880  
G01 X-1.3578 Y0.6883  
G01 X-1.3568 Y0.6897  
G01 X-1.3560 Y0.6912  
G01 X-1.3558 Y0.6914  
G01 X-1.3556 Y0.6917  
G01 X-1.3544 Y0.6928  
G01 X-1.3532 Y0.6940  
G01 X-1.3530 Y0.6941  
G01 X-1.2164 Y0.8208  
G01 X-1.2152 Y0.8220  
G01 X-1.2150 Y0.8221  
G01 X-1.2148 Y0.8223  
G01 X-1.2133 Y0.8231  
G01 X-1.2118 Y0.8240  
G01 X-1.2115 Y0.8241  
G01 X-1.2113 Y0.8242  
G01 X-1.2096 Y0.8246  
G01 X-1.2080 Y0.8250  
G01 X-1.2077 Y0.8250  
G01 X-1.2074 Y0.8251  
G01 X-1.2057 Y0.8250  
G01 X-1.1962 Y0.8250  
G01 X-1.1964 Y0.8251  
G01 X-1.2009 Y0.8296  
G01 X-1.2044 Y0.8348  
G01 X-1.2068 Y0.8407  
G01 X-1.2080 Y0.8468  
G01 X-1.2080 Y0.8532  
G01 X-1.2068 Y0.8593  
G01 X-1.2044 Y0.8652  
G01 X-1.2009 Y0.8704  
G01 X-1.1964 Y0.8749  
G01 X-1.1912 Y0.8784  
G01 X-1.1853 Y0.8808  
G01 X-1.1792 Y0.8820  
G01 X-1.1208 Y0.8820  
G01 X-1.1147 Y0.8808  
G01 X-1.1088 Y0.8784  
G01 X-1.1036 Y0.8749  
G01 X-1.0991 Y0.8704  
G01 X-1.0956 Y0.8652  
G01 X-1.0932 Y0.8593  
G01 X-1.0920 Y0.8532  
G01 X-1.0920 Y0.8468  
G01 X-1.0932 Y0.8407  
G01 X-1.0956 Y0.8348  
G01 X-1.0991 Y0.8296  
G01 X-1.1036 Y0.8251  
G01 X-1.1088 Y0.8216  
G01 X-1.1147 Y0.8192  
G01 X-1.1208 Y0.8180  
G01 X-1.1588 Y0.8180  
G01 X-1.1760 Y0.8008  
G01 X-1.1788 Y0.7980  
G01 X-1.1822 Y0.7960  
G01 X-1.1860 Y0.7950  
G01 X-1.2001 Y0.7950  
G01 X-1.3290 Y0.6755  
G01 X-1.3290 Y0.2785  
G01 X-1.2183 Y0.1759  
G01 X-1.2165 Y0.1768  
G01 X-1.2101 Y0.1789  
G01 X-1.2034 Y0.1800  
G01 X-1.1966 Y0.1800  
G01 X-1.1899 Y0.1789  
G01 X-1.1835 Y0.1768  
G01 X-1.1775 Y0.1738  
G01 X-1.1720 Y0.1698  
G01 X-1.1672 Y0.1650  
G01 X-1.1632 Y0.1595  
G01 X-1.1602 Y0.1535  
G01 X-1.1581 Y0.1471  
G01 X-1.1570 Y0.1404  
G01 X-1.1570 Y0.0596  
G01 X-1.1581 Y0.0529  
G01 X-1.1602 Y0.0465  
G01 X-1.1632 Y0.0405  
G01 X-1.1672 Y0.0350  
G00 Z0.0500  
G00 X-1.2672 Y0.0350  
G01 Z-0.0040 F10    
G01 X-1.2720 Y0.0302  F20    
G01 X-1.2775 Y0.0262  
G01 X-1.2835 Y0.0232  
G01 X-1.2899 Y0.0211  
G01 X-1.2966 Y0.0200  
G01 X-1.3034 Y0.0200  
G01 X-1.3101 Y0.0211  
G01 X-1.3165 Y0.0232  
G01 X-1.3225 Y0.0262  
G01 X-1.3280 Y0.0302  
G01 X-1.3328 Y0.0350  
G01 X-1.3368 Y0.0405  
G01 X-1.3398 Y0.0465  
G01 X-1.3419 Y0.0529  
G01 X-1.3430 Y0.0596  
G01 X-1.3430 Y0.1404  
G01 X-1.3419 Y0.1471  
G01 X-1.3405 Y0.1514  
G01 X-1.4009 Y0.2197  
G01 X-1.4020 Y0.2208  
G01 X-1.4022 Y0.2212  
G01 X-1.4025 Y0.2215  
G01 X-1.4032 Y0.2229  
G01 X-1.4040 Y0.2242  
G01 X-1.4041 Y0.2247  
G01 X-1.4043 Y0.2251  
G01 X-1.4046 Y0.2266  
G01 X-1.4050 Y0.2280  
G01 X-1.4050 Y0.2285  
G01 X-1.4051 Y0.2290  
G01 X-1.4050 Y0.2305  
G01 X-1.4050 Y0.7180  
G01 X-1.4040 Y0.7218  
G01 X-1.4020 Y0.7252  
G01 X-1.3992 Y0.7280  
G01 X-1.1992 Y0.9280  
G01 X-1.2009 Y0.9296  
G01 X-1.2044 Y0.9348  
G01 X-1.2068 Y0.9407  
G01 X-1.2080 Y0.9468  
G01 X-1.2080 Y0.9532  
G01 X-1.2068 Y0.9593  
G01 X-1.2044 Y0.9652  
G01 X-1.2009 Y0.9704  
G01 X-1.1964 Y0.9749  
G01 X-1.1912 Y0.9784  
G01 X-1.1853 Y0.9808  
G01 X-1.1792 Y0.9820  
G01 X-1.1208 Y0.9820  
G01 X-1.1147 Y0.9808  
G01 X-1.1088 Y0.9784  
G01 X-1.1036 Y0.9749  
G01 X-1.0991 Y0.9704  
G01 X-1.0956 Y0.9652  
G01 X-1.0932 Y0.9593  
G01 X-1.0920 Y0.9532  
G01 X-1.0920 Y0.9468  
G01 X-1.0932 Y0.9407  
G01 X-1.0956 Y0.9348  
G01 X-1.0991 Y0.9296  
G01 X-1.1036 Y0.9251  
G01 X-1.1088 Y0.9216  
G01 X-1.1147 Y0.9192  
G01 X-1.1208 Y0.9180  
G01 X-1.1668 Y0.9180  
G01 X-1.3750 Y0.7098  
G01 X-1.3750 Y0.2357  
G01 X-1.3210 Y0.1746  
G01 X-1.3165 Y0.1768  
G01 X-1.3101 Y0.1789  
G01 X-1.3034 Y0.1800  
G01 X-1.2966 Y0.1800  
G01 X-1.2899 Y0.1789  
G01 X-1.2835 Y0.1768  
G01 X-1.2775 Y0.1738  
G01 X-1.2720 Y0.1698  
G01 X-1.2672 Y0.1650  
G01 X-1.2632 Y0.1595  
G01 X-1.2602 Y0.1535  
G01 X-1.2581 Y0.1471  
G01 X-1.2570 Y0.1404  
G01 X-1.2570 Y0.0596  
G01 X-1.2581 Y0.0529  
G01 X-1.2602 Y0.0465  
G01 X-1.2632 Y0.0405  
G01 X-1.2672 Y0.0350  
G00 Z0.0500  
G00 X-1.3672 Y0.0350  
G01 Z-0.0040 F10    
G01 X-1.3720 Y0.0302  F20    
G01 X-1.3775 Y0.0262  
G01 X-1.3835 Y0.0232  
G01 X-1.3899 Y0.0211  
G01 X-1.3966 Y0.0200  
G01 X-1.4034 Y0.0200  
G01 X-1.4101 Y0.0211  
G01 X-1.4165 Y0.0232  
G01 X-1.4225 Y0.0262  
G01 X-1.4280 Y0.0302  
G01 X-1.4328 Y0.0350  
G01 X-1.4368 Y0.0405  
G01 X-1.4398 Y0.0465  
G01 X-1.4419 Y0.0529  
G01 X-1.4430 Y0.0596  
G01 X-1.4430 Y0.1404  
G01 X-1.4419 Y0.1471  
G01 X-1.4398 Y0.1535  
G01 X-1.4694 Y0.2212  
G01 X-1.4700 Y0.2222  
G01 X-1.4702 Y0.2230  
G01 X-1.4705 Y0.2238  
G01 X-1.4707 Y0.2249  
G01 X-1.4710 Y0.2260  
G01 X-1.4710 Y0.2269  
G01 X-1.4711 Y0.2277  
G01 X-1.4710 Y0.2288  
G01 X-1.4710 Y0.7479  
G01 X-1.4710 Y0.7497  
G01 X-1.4710 Y0.7498  
G01 X-1.4710 Y0.7500  
G01 X-1.4705 Y0.7517  
G01 X-1.4701 Y0.7535  
G01 X-1.4700 Y0.7536  
G01 X-1.4700 Y0.7538  
G01 X-1.4691 Y0.7554  
G01 X-1.4682 Y0.7570  
G01 X-1.4681 Y0.7571  
G01 X-1.4680 Y0.7572  
G01 X-1.4667 Y0.7585  
G01 X-1.2181 Y1.0171  
G01 X-1.2180 Y1.0172  
G01 X-1.2167 Y1.0185  
G01 X-1.2154 Y1.0198  
G01 X-1.2153 Y1.0199  
G01 X-1.2152 Y1.0200  
G01 X-1.2136 Y1.0209  
G01 X-1.2121 Y1.0219  
G01 X-1.2119 Y1.0219  
G01 X-1.2118 Y1.0220  
G01 X-1.2100 Y1.0225  
G01 X-1.2083 Y1.0230  
G01 X-1.2081 Y1.0230  
G01 X-1.2080 Y1.0230  
G01 X-1.2061 Y1.0230  
G01 X-1.2043 Y1.0230  
G01 X-1.2042 Y1.0230  
G01 X-1.1942 Y1.0230  
G01 X-1.1938 Y1.0234  
G01 X-1.1964 Y1.0251  
G01 X-1.2009 Y1.0296  
G01 X-1.2044 Y1.0348  
G01 X-1.2068 Y1.0407  
G01 X-1.2080 Y1.0468  
G01 X-1.2080 Y1.0532  
G01 X-1.2068 Y1.0593  
G01 X-1.2044 Y1.0652  
G01 X-1.2009 Y1.0704  
G01 X-1.1964 Y1.0749  
G01 X-1.1912 Y1.0784  
G01 X-1.1853 Y1.0808  
G01 X-1.1792 Y1.0820  
G01 X-1.1208 Y1.0820  
G01 X-1.1147 Y1.0808  
G01 X-1.1088 Y1.0784  
G01 X-1.1036 Y1.0749  
G01 X-1.0991 Y1.0704  
G01 X-1.0956 Y1.0652  
G01 X-1.0932 Y1.0593  
G01 X-1.0920 Y1.0532  
G01 X-1.0920 Y1.0468  
G01 X-1.0932 Y1.0407  
G01 X-1.0956 Y1.0348  
G01 X-1.0991 Y1.0296  
G01 X-1.1036 Y1.0251  
G01 X-1.1088 Y1.0216  
G01 X-1.1147 Y1.0192  
G01 X-1.1208 Y1.0180  
G01 X-1.1568 Y1.0180  
G01 X-1.1760 Y0.9988  
G01 X-1.1788 Y0.9960  
G01 X-1.1822 Y0.9940  
G01 X-1.1860 Y0.9930  
G01 X-1.1996 Y0.9930  
G01 X-1.4410 Y0.7420  
G01 X-1.4410 Y0.2311  
G01 X-1.4171 Y0.1765  
G01 X-1.4165 Y0.1768  
G01 X-1.4101 Y0.1789  
G01 X-1.4034 Y0.1800  
G01 X-1.3966 Y0.1800  
G01 X-1.3899 Y0.1789  
G01 X-1.3835 Y0.1768  
G01 X-1.3775 Y0.1738  
G01 X-1.3720 Y0.1698  
G01 X-1.3672 Y0.1650  
G01 X-1.3632 Y0.1595  
G01 X-1.3602 Y0.1535  
G01 X-1.3581 Y0.1471  
G01 X-1.3570 Y0.1404  
G01 X-1.3570 Y0.0596  
G01 X-1.3581 Y0.0529  
G01 X-1.3602 Y0.0465  
G01 X-1.3632 Y0.0405  
G01 X-1.3672 Y0.0350  
G00 Z0.0500  
G00 X-1.4672 Y0.0350  
G01 Z-0.0040 F10    
G01 X-1.4720 Y0.0302  F20    
G01 X-1.4775 Y0.0262  
G01 X-1.4835 Y0.0232  
G01 X-1.4899 Y0.0211  
G01 X-1.4966 Y0.0200  
G01 X-1.5034 Y0.0200  
G01 X-1.5101 Y0.0211  
G01 X-1.5165 Y0.0232  
G01 X-1.5225 Y0.0262  
G01 X-1.5280 Y0.0302  
G01 X-1.5328 Y0.0350  
G01 X-1.5368 Y0.0405  
G01 X-1.5398 Y0.0465  
G01 X-1.5419 Y0.0529  
G01 X-1.5430 Y0.0596  
G01 X-1.5430 Y0.1404  
G01 X-1.5419 Y0.1471  
G01 X-1.5398 Y0.1535  
G01 X-1.5369 Y0.1594  
G01 X-1.5377 Y0.1617  
G01 X-1.5380 Y0.1622  
G01 X-1.5383 Y0.1636  
G01 X-1.5388 Y0.1649  
G01 X-1.5388 Y0.1655  
G01 X-1.5390 Y0.1660  
G01 X-1.5390 Y0.1674  
G01 X-1.5391 Y0.1688  
G01 X-1.5390 Y0.1694  
G01 X-1.5390 Y0.7820  
G01 X-1.5380 Y0.7858  
G01 X-1.5360 Y0.7892  
G01 X-1.5332 Y0.7920  
G01 X-1.1982 Y1.1270  
G01 X-1.2009 Y1.1296  
G01 X-1.2044 Y1.1348  
G01 X-1.2068 Y1.1407  
G01 X-1.2080 Y1.1468  
G01 X-1.2080 Y1.1532  
G01 X-1.2068 Y1.1593  
G01 X-1.2044 Y1.1652  
G01 X-1.2009 Y1.1704  
G01 X-1.1964 Y1.1749  
G01 X-1.1912 Y1.1784  
G01 X-1.1853 Y1.1808  
G01 X-1.1792 Y1.1820  
G01 X-1.1208 Y1.1820  
G01 X-1.1147 Y1.1808  
G01 X-1.1088 Y1.1784  
G01 X-1.1036 Y1.1749  
G01 X-1.0991 Y1.1704  
G01 X-1.0956 Y1.1652  
G01 X-1.0932 Y1.1593  
G01 X-1.0920 Y1.1532  
G01 X-1.0920 Y1.1468  
G01 X-1.0932 Y1.1407  
G01 X-1.0956 Y1.1348  
G01 X-1.0991 Y1.1296  
G01 X-1.1036 Y1.1251  
G01 X-1.1088 Y1.1216  
G01 X-1.1147 Y1.1192  
G01 X-1.1208 Y1.1180  
G01 X-1.1648 Y1.1180  
G01 X-1.5090 Y0.7738  
G01 X-1.5090 Y0.1791  
G01 X-1.5034 Y0.1800  
G01 X-1.4966 Y0.1800  
G01 X-1.4899 Y0.1789  
G01 X-1.4835 Y0.1768  
G01 X-1.4775 Y0.1738  
G01 X-1.4720 Y0.1698  
G01 X-1.4672 Y0.1650  
G01 X-1.4632 Y0.1595  
G01 X-1.4602 Y0.1535  
G01 X-1.4581 Y0.1471  
G01 X-1.4570 Y0.1404  
G01 X-1.4570 Y0.0596  
G01 X-1.4581 Y0.0529  
G01 X-1.4602 Y0.0465  
G01 X-1.4632 Y0.0405  
G01 X-1.4672 Y0.0350  
G00 Z0.0500  
G00 X-1.5672 Y0.0350  
G01 Z-0.0040 F10    
G01 X-1.5720 Y0.0302  F20    
G01 X-1.5775 Y0.0262  
G01 X-1.5835 Y0.0232  
G01 X-1.5899 Y0.0211  
G01 X-1.5966 Y0.0200  
G01 X-1.6034 Y0.0200  
G01 X-1.6101 Y0.0211  
G01 X-1.6165 Y0.0232  
G01 X-1.6225 Y0.0262  
G01 X-1.6280 Y0.0302  
G01 X-1.6328 Y0.0350  
G01 X-1.6368 Y0.0405  
G01 X-1.6398 Y0.0465  
G01 X-1.6419 Y0.0529  
G01 X-1.6430 Y0.0596  
G01 X-1.6430 Y0.1404  
G01 X-1.6419 Y0.1471  
G01 X-1.6398 Y0.1535  
G01 X-1.6368 Y0.1595  
G01 X-1.6328 Y0.1650  
G01 X-1.6280 Y0.1698  
G01 X-1.6225 Y0.1738  
G01 X-1.6165 Y0.1768  
G01 X-1.6101 Y0.1789  
G01 X-1.6034 Y0.1800  
G01 X-1.5990 Y0.1800  
G01 X-1.5990 Y0.8300  
G01 X-1.5980 Y0.8338  
G01 X-1.5960 Y0.8372  
G01 X-1.5932 Y0.8400  
G01 X-1.2152 Y1.2180  
G01 X-1.2118 Y1.2200  
G01 X-1.2080 Y1.2210  
G01 X-1.1942 Y1.2210  
G01 X-1.1926 Y1.2226  
G01 X-1.1964 Y1.2251  
G01 X-1.2009 Y1.2296  
G01 X-1.2044 Y1.2348  
G01 X-1.2068 Y1.2407  
G01 X-1.2080 Y1.2468  
G01 X-1.2080 Y1.2532  
G01 X-1.2068 Y1.2593  
G01 X-1.2044 Y1.2652  
G01 X-1.2009 Y1.2704  
G01 X-1.1964 Y1.2749  
G01 X-1.1912 Y1.2784  
G01 X-1.1853 Y1.2808  
G01 X-1.1792 Y1.2820  
G01 X-1.1208 Y1.2820  
G01 X-1.1147 Y1.2808  
G01 X-1.1088 Y1.2784  
G01 X-1.1036 Y1.2749  
G01 X-1.0991 Y1.2704  
G01 X-1.0956 Y1.2652  
G01 X-1.0932 Y1.2593  
G01 X-1.0920 Y1.2532  
G01 X-1.0920 Y1.2468  
G01 X-1.0932 Y1.2407  
G01 X-1.0956 Y1.2348  
G01 X-1.0991 Y1.2296  
G01 X-1.1036 Y1.2251  
G01 X-1.1088 Y1.2216  
G01 X-1.1147 Y1.2192  
G01 X-1.1208 Y1.2180  
G01 X-1.1548 Y1.2180  
G01 X-1.1788 Y1.1940  
G01 X-1.1822 Y1.1920  
G01 X-1.1860 Y1.1910  
G01 X-1.1998 Y1.1910  
G01 X-1.5690 Y0.8218  
G01 X-1.5690 Y0.1668  
G01 X-1.5672 Y0.1650  
G01 X-1.5632 Y0.1595  
G01 X-1.5602 Y0.1535  
G01 X-1.5581 Y0.1471  
G01 X-1.5570 Y0.1404  
G01 X-1.5570 Y0.0596  
G01 X-1.5581 Y0.0529  
G01 X-1.5602 Y0.0465  
G01 X-1.5632 Y0.0405  
G01 X-1.5672 Y0.0350  
G00 Z0.0500  
G00 X-1.7043 Y0.0885  
G01 Z-0.0040 F10    
G01 X-1.7056 Y0.0872  F20    
G01 X-1.7069 Y0.0859  
G01 X-1.7071 Y0.0858  
G01 X-1.7088 Y0.0849  
G01 X-1.7104 Y0.0840  
G01 X-1.7105 Y0.0839  
G01 X-1.7124 Y0.0834  
G01 X-1.7142 Y0.0830  
G01 X-1.7143 Y0.0830  
G01 X-1.7144 Y0.0830  
G01 X-1.7163 Y0.0830  
G01 X-1.7182 Y0.0830  
G01 X-1.7183 Y0.0831  
G01 X-1.7340 Y0.0835  
G01 X-1.7340 Y0.0768  
G01 X-1.7668 Y0.0440  
G01 X-1.8132 Y0.0440  
G01 X-1.8373 Y0.0681  
G01 X-1.8794 Y0.0098  
G01 X-1.8800 Y0.0088  
G01 X-1.8805 Y0.0082  
G01 X-1.8810 Y0.0076  
G01 X-1.8819 Y0.0069  
G01 X-1.8828 Y0.0060  
G01 X-1.8835 Y0.0056  
G01 X-1.8841 Y0.0051  
G01 X-1.8852 Y0.0046  
G01 X-1.8862 Y0.0040  
G01 X-1.8870 Y0.0038  
G01 X-1.8877 Y0.0035  
G01 X-1.8889 Y0.0033  
G01 X-1.8900 Y0.0030  
G01 X-1.8908 Y0.0030  
G01 X-1.8916 Y0.0029  
G01 X-1.8928 Y0.0030  
G01 X-2.0026 Y0.0030  
G01 X-2.0032 Y0.0029  
G01 X-2.0046 Y0.0030  
G01 X-2.0060 Y0.0030  
G01 X-2.0065 Y0.0031  
G01 X-2.0071 Y0.0032  
G01 X-2.0084 Y0.0037  
G01 X-2.0098 Y0.0040  
G01 X-2.0103 Y0.0043  
G01 X-2.0108 Y0.0045  
G01 X-2.0120 Y0.0053  
G01 X-2.0132 Y0.0060  
G01 X-2.0136 Y0.0064  
G01 X-2.0141 Y0.0067  
G01 X-2.0150 Y0.0078  
G01 X-2.0160 Y0.0088  
G01 X-2.0163 Y0.0093  
G01 X-2.0167 Y0.0097  
G01 X-2.0173 Y0.0110  
G01 X-2.0180 Y0.0122  
G01 X-2.0181 Y0.0128  
G01 X-2.0913 Y0.1650  
G01 X-2.0920 Y0.1662  
G01 X-2.0921 Y0.1668  
G01 X-2.0924 Y0.1673  
G01 X-2.0926 Y0.1687  
G01 X-2.0930 Y0.1700  
G01 X-2.0930 Y0.1706  
G01 X-2.0931 Y0.1712  
G01 X-2.0930 Y0.1726  
G01 X-2.0930 Y2.5469  
G01 X-2.0931 Y2.5478  
G01 X-2.0930 Y2.5489  
G01 X-2.0930 Y2.5500  
G01 X-2.0928 Y2.5508  
G01 X-2.0927 Y2.5517  
G01 X-2.0923 Y2.5527  
G01 X-2.0920 Y2.5538  
G01 X-2.0915 Y2.5545  
G01 X-2.0003 Y2.7847  
G01 X-2.0000 Y2.7858  
G01 X-1.9995 Y2.7865  
G01 X-1.9992 Y2.7874  
G01 X-1.9986 Y2.7883  
G01 X-1.9980 Y2.7892  
G01 X-1.9974 Y2.7898  
G01 X-1.9969 Y2.7905  
G01 X-1.9960 Y2.7912  
G01 X-1.9952 Y2.7920  
G01 X-1.9945 Y2.7924  
G01 X-1.9938 Y2.7930  
G01 X-1.9927 Y2.7934  
G01 X-1.9918 Y2.7940  
G01 X-1.9909 Y2.7942  
G01 X-1.9901 Y2.7946  
G01 X-1.9890 Y2.7947  
G01 X-1.9880 Y2.7950  
G01 X-1.9871 Y2.7950  
G01 X-1.9862 Y2.7951  
G01 X-1.9851 Y2.7950  
G01 X-1.6128 Y2.7950  
G01 X-1.6117 Y2.7951  
G01 X-1.6109 Y2.7950  
G01 X-1.6100 Y2.7950  
G01 X-1.6089 Y2.7947  
G01 X-1.6078 Y2.7945  
G01 X-1.6070 Y2.7942  
G01 X-1.6062 Y2.7940  
G01 X-1.6052 Y2.7934  
G01 X-1.6042 Y2.7929  
G01 X-1.6035 Y2.7924  
G01 X-1.6028 Y2.7920  
G01 X-1.6020 Y2.7912  
G01 X-1.5387 Y2.7405  
G01 X-1.5232 Y2.7560  
G01 X-1.4768 Y2.7560  
G01 X-1.4440 Y2.7232  
G01 X-1.4440 Y2.7150  
G01 X-1.2842 Y2.7150  
G01 X-1.2720 Y2.7272  
G01 X-1.2692 Y2.7300  
G01 X-1.2658 Y2.7320  
G01 X-1.2620 Y2.7330  
G01 X-1.2040 Y2.7330  
G01 X-1.2002 Y2.7320  
G01 X-1.1968 Y2.7300  
G01 X-1.1488 Y2.6820  
G01 X-1.1367 Y2.6820  
G01 X-1.1180 Y2.6633  
G01 X-1.1180 Y2.6610  
G01 X-0.9820 Y2.6610  
G01 X-0.9820 Y2.6633  
G01 X-0.9633 Y2.6820  
G01 X-0.9392 Y2.6820  
G01 X-0.8912 Y2.7300  
G01 X-0.8878 Y2.7320  
G01 X-0.8840 Y2.7330  
G01 X-0.7540 Y2.7330  
G01 X-0.7502 Y2.7320  
G01 X-0.7468 Y2.7300  
G01 X-0.7440 Y2.7272  
G01 X-0.2760 Y2.2592  
G01 X-0.2740 Y2.2558  
G01 X-0.2730 Y2.2520  
G01 X-0.2730 Y1.8797  
G01 X-0.2631 Y1.8797  
G01 X-0.2609 Y1.8788  
G01 X-0.2592 Y1.8771  
G01 X-0.2583 Y1.8749  
G01 X-0.2583 Y1.8251  
G01 X-0.2592 Y1.8229  
G01 X-0.2609 Y1.8212  
G01 X-0.2631 Y1.8203  
G01 X-0.2700 Y1.8203  
G01 X-0.2700 Y1.7976  
G01 X-0.2712 Y1.7931  
G01 X-0.2730 Y1.7900  
G01 X-0.2730 Y1.4020  
G01 X-0.2740 Y1.3982  
G01 X-0.2760 Y1.3948  
G01 X-0.2788 Y1.3920  
G01 X-0.3180 Y1.3528  
G01 X-0.3180 Y1.3367  
G01 X-0.3367 Y1.3180  
G01 X-0.3633 Y1.3180  
G01 X-0.3803 Y1.3350  
G01 X-0.4956 Y1.3350  
G01 X-0.4956 Y1.3348  
G01 X-0.4991 Y1.3296  
G01 X-0.5036 Y1.3251  
G01 X-0.5088 Y1.3216  
G01 X-0.5147 Y1.3192  
G01 X-0.5208 Y1.3180  
G01 X-0.5792 Y1.3180  
G01 X-0.5853 Y1.3192  
G01 X-0.5912 Y1.3216  
G01 X-0.5964 Y1.3251  
G01 X-0.6009 Y1.3296  
G01 X-0.6044 Y1.3348  
G01 X-0.6068 Y1.3407  
G01 X-0.6080 Y1.3468  
G01 X-0.6080 Y1.3532  
G01 X-0.6068 Y1.3593  
G01 X-0.6044 Y1.3652  
G01 X-0.6009 Y1.3704  
G01 X-0.5964 Y1.3749  
G01 X-0.5912 Y1.3784  
G01 X-0.5853 Y1.3808  
G01 X-0.5792 Y1.3820  
G01 X-0.5208 Y1.3820  
G01 X-0.5147 Y1.3808  
G01 X-0.5088 Y1.3784  
G01 X-0.5036 Y1.3749  
G01 X-0.4991 Y1.3704  
G01 X-0.4956 Y1.3652  
G01 X-0.4956 Y1.3650  
G01 X-0.3803 Y1.3650  
G01 X-0.3633 Y1.3820  
G01 X-0.3367 Y1.3820  
G01 X-0.3340 Y1.3792  
G01 X-0.3030 Y1.4102  
G01 X-0.3030 Y1.7900  
G01 X-0.3048 Y1.7931  
G01 X-0.3060 Y1.7976  
G01 X-0.3060 Y1.8203  
G01 X-0.3129 Y1.8203  
G01 X-0.3151 Y1.8212  
G01 X-0.3168 Y1.8229  
G01 X-0.3177 Y1.8251  
G01 X-0.3177 Y1.8749  
G01 X-0.3168 Y1.8771  
G01 X-0.3151 Y1.8788  
G01 X-0.3129 Y1.8797  
G01 X-0.3030 Y1.8797  
G01 X-0.3030 Y2.2438  
G01 X-0.7622 Y2.7030  
G01 X-0.8758 Y2.7030  
G01 X-0.9180 Y2.6608  
G01 X-0.9180 Y2.6367  
G01 X-0.9367 Y2.6180  
G01 X-0.9633 Y2.6180  
G01 X-0.9763 Y2.6310  
G01 X-1.1237 Y2.6310  
G01 X-1.1367 Y2.6180  
G01 X-1.1588 Y2.6180  
G01 X-1.1730 Y2.6038  
G01 X-1.1730 Y2.4683  
G01 X-1.1680 Y2.4633  
G01 X-1.1680 Y2.4492  
G01 X-1.0320 Y2.3132  
G01 X-1.0300 Y2.3098  
G01 X-1.0290 Y2.3060  
G01 X-1.0290 Y2.2922  
G01 X-1.0282 Y2.2914  
G01 X-1.0249 Y2.2964  
G01 X-1.0204 Y2.3009  
G01 X-1.0152 Y2.3044  
G01 X-1.0093 Y2.3068  
G01 X-1.0032 Y2.3080  
G01 X-0.9968 Y2.3080  
G01 X-0.9907 Y2.3068  
G01 X-0.9848 Y2.3044  
G01 X-0.9796 Y2.3009  
G01 X-0.9751 Y2.2964  
G01 X-0.9716 Y2.2912  
G01 X-0.9692 Y2.2853  
G01 X-0.9680 Y2.2792  
G01 X-0.9680 Y2.2208  
G01 X-0.9692 Y2.2147  
G01 X-0.9716 Y2.2088  
G01 X-0.9751 Y2.2036  
G01 X-0.9796 Y2.1991  
G01 X-0.9848 Y2.1956  
G01 X-0.9907 Y2.1932  
G01 X-0.9968 Y2.1920  
G01 X-1.0032 Y2.1920  
G01 X-1.0093 Y2.1932  
G01 X-1.0152 Y2.1956  
G01 X-1.0204 Y2.1991  
G01 X-1.0249 Y2.2036  
G01 X-1.0284 Y2.2088  
G01 X-1.0308 Y2.2147  
G01 X-1.0320 Y2.2208  
G01 X-1.0320 Y2.2528  
G01 X-1.0532 Y2.2740  
G01 X-1.0560 Y2.2768  
G01 X-1.0580 Y2.2802  
G01 X-1.0590 Y2.2840  
G01 X-1.0590 Y2.2978  
G01 X-1.1830 Y2.4218  
G01 X-1.1867 Y2.4180  
G01 X-1.2133 Y2.4180  
G01 X-1.2320 Y2.4367  
G01 X-1.2320 Y2.4633  
G01 X-1.2133 Y2.4820  
G01 X-1.2030 Y2.4820  
G01 X-1.2030 Y2.6120  
G01 X-1.2020 Y2.6158  
G01 X-1.2000 Y2.6192  
G01 X-1.1820 Y2.6372  
G01 X-1.1820 Y2.6633  
G01 X-1.1772 Y2.6680  
G01 X-1.2122 Y2.7030  
G01 X-1.2538 Y2.7030  
G01 X-1.2688 Y2.6880  
G01 X-1.2722 Y2.6860  
G01 X-1.2760 Y2.6850  
G01 X-1.4440 Y2.6850  
G01 X-1.4440 Y2.6768  
G01 X-1.4768 Y2.6440  
G01 X-1.5232 Y2.6440  
G01 X-1.5560 Y2.6768  
G01 X-1.5560 Y2.7160  
G01 X-1.6173 Y2.7650  
G01 X-1.9758 Y2.7650  
G01 X-2.0630 Y2.5451  
G01 X-2.0630 Y0.1754  
G01 X-1.9946 Y0.0330  
G01 X-1.8997 Y0.0330  
G01 X-1.8526 Y0.0981  
G01 X-1.8521 Y0.0991  
G01 X-1.8515 Y0.0997  
G01 X-1.8510 Y0.1004  
G01 X-1.8501 Y0.1011  
G01 X-1.8493 Y0.1019  
G01 X-1.8486 Y0.1023  
G01 X-1.8479 Y0.1029  
G01 X-1.8469 Y0.1033  
G01 X-1.8460 Y0.1039  
G01 X-1.8460 Y0.1232  
G01 X-1.8132 Y0.1560  
G01 X-1.7668 Y0.1560  
G01 X-1.7340 Y0.1232  
G01 X-1.7340 Y0.1135  
G01 X-1.7308 Y0.1134  
G01 X-1.7212 Y0.8817  
G01 X-1.7470 Y0.8829  
G01 X-1.7470 Y0.8822  
G01 X-1.7722 Y0.8570  
G01 X-1.8078 Y0.8570  
G01 X-1.8330 Y0.8822  
G01 X-1.8330 Y0.9178  
G01 X-1.8078 Y0.9430  
G01 X-1.8072 Y0.9430  
G01 X-1.8037 Y0.9570  
G01 X-1.8078 Y0.9570  
G01 X-1.8330 Y0.9822  
G01 X-1.8330 Y1.0178  
G01 X-1.8078 Y1.0430  
G01 X-1.8039 Y1.0430  
G01 X-1.8035 Y1.0570  
G01 X-1.8078 Y1.0570  
G01 X-1.8330 Y1.0822  
G01 X-1.8330 Y1.0828  
G01 X-1.8471 Y1.0821  
G01 X-1.8722 Y1.0570  
G01 X-1.8810 Y1.0570  
G01 X-1.8810 Y1.0430  
G01 X-1.8722 Y1.0430  
G01 X-1.8470 Y1.0178  
G01 X-1.8470 Y0.9822  
G01 X-1.8722 Y0.9570  
G01 X-1.8790 Y0.9570  
G01 X-1.8803 Y0.9430  
G01 X-1.8722 Y0.9430  
G01 X-1.8470 Y0.9178  
G01 X-1.8470 Y0.8822  
G01 X-1.8722 Y0.8570  
G01 X-1.9078 Y0.8570  
G01 X-1.9330 Y0.8822  
G01 X-1.9330 Y0.9178  
G01 X-1.9110 Y0.9398  
G01 X-1.9110 Y0.9602  
G01 X-1.9330 Y0.9822  
G01 X-1.9330 Y1.0178  
G01 X-1.9110 Y1.0398  
G01 X-1.9110 Y1.0602  
G01 X-1.9330 Y1.0822  
G01 X-1.9330 Y1.0827  
G01 X-1.9634 Y1.0811  
G01 X-1.9636 Y1.0811  
G01 X-1.9654 Y1.0810  
G01 X-1.9672 Y1.0809  
G01 X-1.9674 Y1.0810  
G01 X-1.9676 Y1.0810  
G01 X-1.9693 Y1.0814  
G01 X-1.9710 Y1.0817  
G01 X-1.9712 Y1.0818  
G01 X-1.9714 Y1.0819  
G01 X-1.9730 Y1.0827  
G01 X-1.9746 Y1.0835  
G01 X-1.9747 Y1.0837  
G01 X-1.9749 Y1.0838  
G01 X-1.9762 Y1.0850  
G01 X-1.9775 Y1.0862  
G01 X-1.9776 Y1.0863  
G01 X-1.9778 Y1.0865  
G01 X-1.9787 Y1.0880  
G01 X-1.9797 Y1.0895  
G01 X-1.9797 Y1.0897  
G01 X-1.9798 Y1.0898  
G01 X-1.9803 Y1.0915  
G01 X-1.9809 Y1.0932  
G01 X-1.9809 Y1.0934  
G01 X-1.9809 Y1.0936  
G01 X-1.9810 Y1.0954  
G01 X-1.9811 Y1.0972  
G01 X-1.9810 Y1.0974  
G01 X-1.9849 Y1.2478  
G01 X-1.9850 Y1.2480  
G01 X-1.9850 Y1.2498  
G01 X-1.9850 Y1.2516  
G01 X-1.9850 Y1.2518  
G01 X-1.9850 Y1.2702  
G01 X-1.9865 Y1.2762  
G01 X-1.9870 Y1.2780  
G01 X-1.9870 Y1.2782  
G01 X-1.9870 Y1.2783  
G01 X-1.9870 Y1.2801  
G01 X-1.9870 Y1.8725  
G01 X-1.9871 Y1.8729  
G01 X-1.9870 Y1.8745  
G01 X-1.9870 Y1.8760  
G01 X-1.9869 Y1.8764  
G01 X-1.9869 Y1.8769  
G01 X-1.9864 Y1.8783  
G01 X-1.9860 Y1.8798  
G01 X-1.9857 Y1.8802  
G01 X-1.9856 Y1.8806  
G01 X-1.9848 Y1.8819  
G01 X-1.9840 Y1.8832  
G01 X-1.9837 Y1.8835  
G01 X-1.9834 Y1.8839  
G01 X-1.9823 Y1.8849  
G01 X-1.9812 Y1.8860  
G01 X-1.9808 Y1.8862  
G01 X-1.9726 Y1.8935  
G01 X-1.9760 Y1.8968  
G01 X-1.9760 Y1.9432  
G01 X-1.9432 Y1.9760  
G01 X-1.8968 Y1.9760  
G01 X-1.8640 Y1.9432  
G01 X-1.8640 Y1.8968  
G01 X-1.8968 Y1.8640  
G01 X-1.9432 Y1.8640  
G01 X-1.9514 Y1.8722  
G01 X-1.9570 Y1.8672  
G01 X-1.9570 Y1.2818  
G01 X-1.9555 Y1.2758  
G01 X-1.9550 Y1.2740  
G01 X-1.9550 Y1.2738  
G01 X-1.9550 Y1.2737  
G01 X-1.9550 Y1.2719  
G01 X-1.9550 Y1.2502  
G01 X-1.9514 Y1.1118  
G01 X-1.9330 Y1.1128  
G01 X-1.9330 Y1.1178  
G01 X-1.9078 Y1.1430  
G01 X-1.8722 Y1.1430  
G01 X-1.8470 Y1.1178  
G01 X-1.8470 Y1.1121  
G01 X-1.8330 Y1.1128  
G01 X-1.8330 Y1.1178  
G01 X-1.8078 Y1.1430  
G01 X-1.7722 Y1.1430  
G01 X-1.7470 Y1.1178  
G01 X-1.7470 Y1.0822  
G01 X-1.7722 Y1.0570  
G01 X-1.7735 Y1.0570  
G01 X-1.7739 Y1.0430  
G01 X-1.7722 Y1.0430  
G01 X-1.7470 Y1.0178  
G01 X-1.7470 Y0.9822  
G01 X-1.7722 Y0.9570  
G01 X-1.7729 Y0.9570  
G01 X-1.7729 Y0.9567  
G01 X-1.7730 Y0.9565  
G01 X-1.7730 Y0.9563  
G01 X-1.7734 Y0.9546  
G01 X-1.7738 Y0.9529  
G01 X-1.7739 Y0.9527  
G01 X-1.7763 Y0.9430  
G01 X-1.7722 Y0.9430  
G01 X-1.7470 Y0.9178  
G01 X-1.7470 Y0.9130  
G01 X-1.7055 Y0.9110  
G01 X-1.7038 Y0.9110  
G01 X-1.7036 Y0.9109  
G01 X-1.7033 Y0.9109  
G01 X-1.7017 Y0.9104  
G01 X-1.7000 Y0.9099  
G01 X-1.6998 Y0.9098  
G01 X-1.6996 Y0.9097  
G01 X-1.6981 Y0.9088  
G01 X-1.6966 Y0.9079  
G01 X-1.6965 Y0.9077  
G01 X-1.6962 Y0.9076  
G01 X-1.6951 Y0.9063  
G01 X-1.6939 Y0.9051  
G01 X-1.6938 Y0.9048  
G01 X-1.6936 Y0.9046  
G01 X-1.6928 Y0.9031  
G01 X-1.6920 Y0.9016  
G01 X-1.6919 Y0.9014  
G01 X-1.6918 Y0.9011  
G01 X-1.6914 Y0.8994  
G01 X-1.6910 Y0.8978  
G01 X-1.6910 Y0.8975  
G01 X-1.6909 Y0.8973  
G01 X-1.6910 Y0.8956  
G01 X-1.7010 Y0.0997  
G01 X-1.7010 Y0.0996  
G01 X-1.7010 Y0.0977  
G01 X-1.7010 Y0.0958  
G01 X-1.7011 Y0.0957  
G01 X-1.7011 Y0.0956  
G01 X-1.7016 Y0.0938  
G01 X-1.7021 Y0.0920  
G01 X-1.7022 Y0.0918  
G01 X-1.7032 Y0.0902  
G01 X-1.7041 Y0.0886  
G01 X-1.7043 Y0.0885  
G00 Z0.0500  
G00 X-1.8840 Y0.0768  
G01 Z-0.0040 F10    
G01 X-1.9168 Y0.0440  F20    
G01 X-1.9632 Y0.0440  
G01 X-1.9960 Y0.0768  
G01 X-1.9960 Y0.1232  
G01 X-1.9774 Y0.1418  
G01 X-1.9834 Y0.1552  
G01 X-1.9840 Y0.1562  
G01 X-1.9842 Y0.1570  
G01 X-1.9845 Y0.1577  
G01 X-1.9847 Y0.1589  
G01 X-1.9850 Y0.1600  
G01 X-1.9850 Y0.1608  
G01 X-1.9851 Y0.1616  
G01 X-1.9850 Y0.1628  
G01 X-1.9850 Y0.2400  
G01 X-1.9863 Y0.2420  
G01 X-1.9878 Y0.2464  
G01 X-1.9881 Y0.2512  
G01 X-1.9872 Y0.2558  
G01 X-1.9851 Y0.2601  
G01 X-1.9850 Y0.2602  
G01 X-1.9850 Y0.6472  
G01 X-1.9851 Y0.6484  
G01 X-1.9850 Y0.6492  
G01 X-1.9850 Y0.6500  
G01 X-1.9847 Y0.6511  
G01 X-1.9845 Y0.6523  
G01 X-1.9842 Y0.6530  
G01 X-1.9840 Y0.6538  
G01 X-1.9834 Y0.6548  
G01 X-1.9601 Y0.7073  
G01 X-1.9598 Y0.7083  
G01 X-1.9593 Y0.7091  
G01 X-1.9589 Y0.7099  
G01 X-1.9582 Y0.7107  
G01 X-1.9577 Y0.7116  
G01 X-1.9570 Y0.7123  
G01 X-1.9564 Y0.7130  
G01 X-1.9556 Y0.7136  
G01 X-1.9548 Y0.7143  
G01 X-1.9540 Y0.7148  
G01 X-1.9532 Y0.7153  
G01 X-1.9522 Y0.7157  
G01 X-1.9513 Y0.7162  
G01 X-1.9504 Y0.7164  
G01 X-1.9495 Y0.7167  
G01 X-1.9485 Y0.7168  
G01 X-1.9483 Y0.7169  
G01 X-2.0320 Y0.7661  
G01 X-2.0321 Y0.7662  
G01 X-2.0337 Y0.7671  
G01 X-2.0353 Y0.7681  
G01 X-2.0355 Y0.7682  
G01 X-2.0368 Y0.7696  
G01 X-2.0381 Y0.7709  
G01 X-2.0381 Y0.7710  
G01 X-2.0391 Y0.7727  
G01 X-2.0400 Y0.7743  
G01 X-2.0401 Y0.7744  
G01 X-2.0401 Y0.7745  
G01 X-2.0405 Y0.7764  
G01 X-2.0410 Y0.7781  
G01 X-2.0410 Y0.7783  
G01 X-2.0410 Y0.7784  
G01 X-2.0410 Y0.7802  
G01 X-2.0410 Y0.7821  
G01 X-2.0410 Y0.7822  
G01 X-2.0370 Y0.9462  
G01 X-2.0370 Y2.1622  
G01 X-2.0370 Y2.1624  
G01 X-2.0370 Y2.1642  
G01 X-2.0370 Y2.1660  
G01 X-2.0369 Y2.1662  
G01 X-2.0369 Y2.1664  
G01 X-2.0364 Y2.1681  
G01 X-2.0360 Y2.1698  
G01 X-2.0359 Y2.1700  
G01 X-2.0358 Y2.1702  
G01 X-2.0349 Y2.1717  
G01 X-2.0340 Y2.1732  
G01 X-2.0339 Y2.1734  
G01 X-1.9389 Y2.3277  
G01 X-1.9380 Y2.3292  
G01 X-1.9379 Y2.3294  
G01 X-1.9377 Y2.3295  
G01 X-1.9365 Y2.3308  
G01 X-1.9352 Y2.3320  
G01 X-1.9350 Y2.3321  
G01 X-1.9349 Y2.3323  
G01 X-1.9333 Y2.3331  
G01 X-1.9318 Y2.3340  
G01 X-1.9316 Y2.3340  
G01 X-1.9314 Y2.3341  
G01 X-1.9297 Y2.3345  
G01 X-1.9280 Y2.3350  
G01 X-1.9278 Y2.3350  
G01 X-1.9276 Y2.3350  
G01 X-1.9258 Y2.3350  
G01 X-1.8796 Y2.3350  
G01 X-1.8330 Y2.3989  
G01 X-1.8330 Y2.5940  
G01 X-1.8320 Y2.5978  
G01 X-1.8300 Y2.6012  
G01 X-1.7552 Y2.6760  
G01 X-1.7560 Y2.6768  
G01 X-1.7560 Y2.7232  
G01 X-1.7232 Y2.7560  
G01 X-1.6768 Y2.7560  
G01 X-1.6440 Y2.7232  
G01 X-1.6440 Y2.6768  
G01 X-1.6458 Y2.6750  
G01 X-1.5418 Y2.5710  
G01 X-1.3743 Y2.5710  
G01 X-1.3633 Y2.5820  
G01 X-1.3452 Y2.5820  
G01 X-1.2820 Y2.6452  
G01 X-1.2820 Y2.6633  
G01 X-1.2633 Y2.6820  
G01 X-1.2367 Y2.6820  
G01 X-1.2180 Y2.6633  
G01 X-1.2180 Y2.6367  
G01 X-1.2367 Y2.6180  
G01 X-1.2633 Y2.6180  
G01 X-1.2650 Y2.6198  
G01 X-1.3198 Y2.5650  
G01 X-1.3180 Y2.5633  
G01 X-1.3180 Y2.5367  
G01 X-1.3350 Y2.5197  
G01 X-1.3350 Y2.5082  
G01 X-1.1240 Y2.2972  
G01 X-1.1204 Y2.3009  
G01 X-1.1152 Y2.3044  
G01 X-1.1093 Y2.3068  
G01 X-1.1032 Y2.3080  
G01 X-1.0968 Y2.3080  
G01 X-1.0907 Y2.3068  
G01 X-1.0848 Y2.3044  
G01 X-1.0796 Y2.3009  
G01 X-1.0751 Y2.2964  
G01 X-1.0716 Y2.2912  
G01 X-1.0692 Y2.2853  
G01 X-1.0680 Y2.2792  
G01 X-1.0680 Y2.2232  
G01 X-1.0198 Y2.1750  
G01 X-0.5020 Y2.1750  
G01 X-0.4982 Y2.1740  
G01 X-0.4948 Y2.1720  
G01 X-0.4920 Y2.1692  
G01 X-0.3300 Y2.0072  
G01 X-0.3280 Y2.0038  
G01 X-0.3270 Y2.0000  
G01 X-0.3270 Y1.4723  
G01 X-0.3180 Y1.4633  
G01 X-0.3180 Y1.4367  
G01 X-0.3367 Y1.4180  
G01 X-0.3633 Y1.4180  
G01 X-0.3820 Y1.4367  
G01 X-0.3820 Y1.4633  
G01 X-0.3633 Y1.4820  
G01 X-0.3570 Y1.4820  
G01 X-0.3570 Y1.9918  
G01 X-0.5102 Y2.1450  
G01 X-1.0280 Y2.1450  
G01 X-1.0318 Y2.1460  
G01 X-1.0352 Y2.1480  
G01 X-1.0837 Y2.1964  
G01 X-1.0848 Y2.1956  
G01 X-1.0907 Y2.1932  
G01 X-1.0968 Y2.1920  
G01 X-1.1032 Y2.1920  
G01 X-1.1093 Y2.1932  
G01 X-1.1152 Y2.1956  
G01 X-1.1204 Y2.1991  
G01 X-1.1249 Y2.2036  
G01 X-1.1284 Y2.2088  
G01 X-1.1308 Y2.2147  
G01 X-1.1320 Y2.2208  
G01 X-1.1320 Y2.2628  
G01 X-1.3620 Y2.4928  
G01 X-1.3640 Y2.4962  
G01 X-1.3650 Y2.5000  
G01 X-1.3650 Y2.5197  
G01 X-1.3820 Y2.5367  
G01 X-1.3820 Y2.5410  
G01 X-1.5500 Y2.5410  
G01 X-1.5538 Y2.5420  
G01 X-1.5572 Y2.5440  
G01 X-1.6670 Y2.6538  
G01 X-1.6768 Y2.6440  
G01 X-1.7232 Y2.6440  
G01 X-1.7340 Y2.6548  
G01 X-1.8030 Y2.5858  
G01 X-1.8030 Y2.3952  
G01 X-1.8029 Y2.3944  
G01 X-1.8030 Y2.3932  
G01 X-1.8030 Y2.3920  
G01 X-1.8032 Y2.3912  
G01 X-1.8033 Y2.3904  
G01 X-1.8037 Y2.3893  
G01 X-1.8040 Y2.3882  
G01 X-1.8044 Y2.3875  
G01 X-1.8047 Y2.3868  
G01 X-1.8054 Y2.3858  
G01 X-1.8060 Y2.3848  
G01 X-1.8066 Y2.3842  
G01 X-1.8594 Y2.3118  
G01 X-1.8600 Y2.3108  
G01 X-1.8606 Y2.3102  
G01 X-1.8610 Y2.3096  
G01 X-1.8620 Y2.3088  
G01 X-1.8628 Y2.3080  
G01 X-1.8635 Y2.3076  
G01 X-1.8641 Y2.3071  
G01 X-1.8652 Y2.3066  
G01 X-1.8662 Y2.3060  
G01 X-1.8670 Y2.3058  
G01 X-1.8677 Y2.3055  
G01 X-1.8689 Y2.3053  
G01 X-1.8700 Y2.3050  
G01 X-1.8708 Y2.3050  
G01 X-1.8716 Y2.3049  
G01 X-1.8728 Y2.3050  
G01 X-1.9176 Y2.3050  
G01 X-2.0070 Y2.1598  
G01 X-2.0070 Y0.9478  
G01 X-2.0070 Y0.9476  
G01 X-2.0070 Y0.9458  
G01 X-2.0070 Y0.9440  
G01 X-2.0070 Y0.9438  
G01 X-2.0108 Y0.7885  
G01 X-1.9173 Y0.7335  
G01 X-1.9078 Y0.7430  
G01 X-1.8722 Y0.7430  
G01 X-1.8470 Y0.7178  
G01 X-1.8470 Y0.7150  
G01 X-1.8330 Y0.7150  
G01 X-1.8330 Y0.7178  
G01 X-1.8078 Y0.7430  
G01 X-1.7722 Y0.7430  
G01 X-1.7470 Y0.7178  
G01 X-1.7470 Y0.6822  
G01 X-1.7722 Y0.6570  
G01 X-1.8078 Y0.6570  
G01 X-1.8330 Y0.6822  
G01 X-1.8330 Y0.6850  
G01 X-1.8470 Y0.6850  
G01 X-1.8470 Y0.6822  
G01 X-1.8722 Y0.6570  
G01 X-1.9078 Y0.6570  
G01 X-1.9330 Y0.6822  
G01 X-1.9330 Y0.6865  
G01 X-1.9364 Y0.6866  
G01 X-1.9550 Y0.6448  
G01 X-1.9550 Y0.2690  
G01 X-1.8497 Y0.2761  
G01 X-1.8497 Y0.2849  
G01 X-1.8488 Y0.2871  
G01 X-1.8471 Y0.2888  
G01 X-1.8449 Y0.2897  
G01 X-1.7951 Y0.2897  
G01 X-1.7929 Y0.2888  
G01 X-1.7912 Y0.2871  
G01 X-1.7903 Y0.2849  
G01 X-1.7903 Y0.2351  
G01 X-1.7912 Y0.2329  
G01 X-1.7929 Y0.2312  
G01 X-1.7951 Y0.2303  
G01 X-1.8449 Y0.2303  
G01 X-1.8471 Y0.2312  
G01 X-1.8488 Y0.2329  
G01 X-1.8497 Y0.2351  
G01 X-1.8497 Y0.2400  
G01 X-1.9550 Y0.2330  
G01 X-1.9550 Y0.1652  
G01 X-1.9509 Y0.1560  
G01 X-1.9168 Y0.1560  
G01 X-1.8840 Y0.1232  
G01 X-1.8840 Y0.0768  
G00 Z0.0500  
G00 X-1.8722 Y0.4570  
G01 Z-0.0040 F10    
G01 X-1.9078 Y0.4570  F20    
G01 X-1.9330 Y0.4822  
G01 X-1.9330 Y0.5178  
G01 X-1.9078 Y0.5430  
G01 X-1.8722 Y0.5430  
G01 X-1.8470 Y0.5178  
G01 X-1.8470 Y0.4822  
G01 X-1.8722 Y0.4570  
G00 Z0.0500  
G00 X-1.8330 Y0.4822  
G01 Z-0.0040 F10    
G01 X-1.8330 Y0.5178  F20    
G01 X-1.8078 Y0.5430  
G01 X-1.7722 Y0.5430  
G01 X-1.7470 Y0.5178  
G01 X-1.7470 Y0.4822  
G01 X-1.7722 Y0.4570  
G01 X-1.8078 Y0.4570  
G01 X-1.8330 Y0.4822  
G00 Z0.0500  
G00 X-1.8330 Y0.5822  
G01 Z-0.0040 F10    
G01 X-1.8330 Y0.6178  F20    
G01 X-1.8078 Y0.6430  
G01 X-1.7722 Y0.6430  
G01 X-1.7470 Y0.6178  
G01 X-1.7470 Y0.5822  
G01 X-1.7722 Y0.5570  
G01 X-1.8078 Y0.5570  
G01 X-1.8330 Y0.5822  
G00 Z0.0500  
G00 X-1.8470 Y0.5822  
G01 Z-0.0040 F10    
G01 X-1.8722 Y0.5570  F20    
G01 X-1.9078 Y0.5570  
G01 X-1.9330 Y0.5822  
G01 X-1.9330 Y0.6178  
G01 X-1.9078 Y0.6430  
G01 X-1.8722 Y0.6430  
G01 X-1.8470 Y0.6178  
G01 X-1.8470 Y0.5822  
G00 Z0.0500  
G00 X-1.8470 Y0.7822  
G01 Z-0.0040 F10    
G01 X-1.8722 Y0.7570  F20    
G01 X-1.9078 Y0.7570  
G01 X-1.9330 Y0.7822  
G01 X-1.9330 Y0.8178  
G01 X-1.9078 Y0.8430  
G01 X-1.8722 Y0.8430  
G01 X-1.8470 Y0.8178  
G01 X-1.8470 Y0.8150  
G01 X-1.8330 Y0.8150  
G01 X-1.8330 Y0.8178  
G01 X-1.8078 Y0.8430  
G01 X-1.7722 Y0.8430  
G01 X-1.7470 Y0.8178  
G01 X-1.7470 Y0.7822  
G01 X-1.7722 Y0.7570  
G01 X-1.8078 Y0.7570  
G01 X-1.8330 Y0.7822  
G01 X-1.8330 Y0.7850  
G01 X-1.8470 Y0.7850  
G01 X-1.8470 Y0.7822  
G00 Z0.0500  
G00 X-1.8470 Y1.1822  
G01 Z-0.0040 F10    
G01 X-1.8722 Y1.1570  F20    
G01 X-1.9078 Y1.1570  
G01 X-1.9330 Y1.1822  
G01 X-1.9330 Y1.2178  
G01 X-1.9078 Y1.2430  
G01 X-1.8722 Y1.2430  
G01 X-1.8470 Y1.2178  
G01 X-1.8470 Y1.2176  
G01 X-1.8330 Y1.2170  
G01 X-1.8330 Y1.2178  
G01 X-1.8078 Y1.2430  
G01 X-1.7722 Y1.2430  
G01 X-1.7470 Y1.2178  
G01 X-1.7470 Y1.1822  
G01 X-1.7722 Y1.1570  
G01 X-1.8078 Y1.1570  
G01 X-1.8330 Y1.1822  
G01 X-1.8330 Y1.1869  
G01 X-1.8470 Y1.1876  
G01 X-1.8470 Y1.1822  
G00 Z0.0500  
G00 X-1.6771 Y1.2212  
G01 Z-0.0040 F10    
G01 X-1.6788 Y1.2229  F20    
G01 X-1.6797 Y1.2251  
G01 X-1.6797 Y1.2749  
G01 X-1.6788 Y1.2771  
G01 X-1.6771 Y1.2788  
G01 X-1.6749 Y1.2797  
G01 X-1.6251 Y1.2797  
G01 X-1.6229 Y1.2788  
G01 X-1.6212 Y1.2771  
G01 X-1.6203 Y1.2749  
G01 X-1.6203 Y1.2251  
G01 X-1.6212 Y1.2229  
G01 X-1.6229 Y1.2212  
G01 X-1.6251 Y1.2203  
G01 X-1.6320 Y1.2203  
G01 X-1.6320 Y0.3797  
G01 X-1.6251 Y0.3797  
G01 X-1.6229 Y0.3788  
G01 X-1.6212 Y0.3771  
G01 X-1.6203 Y0.3749  
G01 X-1.6203 Y0.3251  
G01 X-1.6212 Y0.3229  
G01 X-1.6229 Y0.3212  
G01 X-1.6251 Y0.3203  
G01 X-1.6749 Y0.3203  
G01 X-1.6771 Y0.3212  
G01 X-1.6788 Y0.3229  
G01 X-1.6797 Y0.3251  
G01 X-1.6797 Y0.3749  
G01 X-1.6788 Y0.3771  
G01 X-1.6771 Y0.3788  
G01 X-1.6749 Y0.3797  
G01 X-1.6680 Y0.3797  
G01 X-1.6680 Y1.2203  
G01 X-1.6749 Y1.2203  
G01 X-1.6771 Y1.2212  
G00 Z0.0500  
G00 X-1.6771 Y1.3912  
G01 Z-0.0040 F10    
G01 X-1.6788 Y1.3929  F20    
G01 X-1.6797 Y1.3951  
G01 X-1.6797 Y1.4449  
G01 X-1.6788 Y1.4471  
G01 X-1.6771 Y1.4488  
G01 X-1.6749 Y1.4497  
G01 X-1.6680 Y1.4497  
G01 X-1.6680 Y1.5425  
G01 X-1.7144 Y1.5889  
G01 X-1.7168 Y1.5931  
G01 X-1.7180 Y1.5976  
G01 X-1.7180 Y1.8024  
G01 X-1.7168 Y1.8069  
G01 X-1.7144 Y1.8111  
G01 X-1.7111 Y1.8144  
G01 X-1.6611 Y1.8644  
G01 X-1.6569 Y1.8668  
G01 X-1.6524 Y1.8680  
G01 X-1.2180 Y1.8680  
G01 X-1.2180 Y1.8975  
G01 X-1.2204 Y1.8991  
G01 X-1.2249 Y1.9036  
G01 X-1.2284 Y1.9088  
G01 X-1.2308 Y1.9147  
G01 X-1.2320 Y1.9208  
G01 X-1.2320 Y1.9792  
G01 X-1.2308 Y1.9853  
G01 X-1.2284 Y1.9912  
G01 X-1.2249 Y1.9964  
G01 X-1.2204 Y2.0009  
G01 X-1.2152 Y2.0044  
G01 X-1.2093 Y2.0068  
G01 X-1.2032 Y2.0080  
G01 X-1.1968 Y2.0080  
G01 X-1.1907 Y2.0068  
G01 X-1.1848 Y2.0044  
G01 X-1.1796 Y2.0009  
G01 X-1.1751 Y1.9964  
G01 X-1.1716 Y1.9912  
G01 X-1.1692 Y1.9853  
G01 X-1.1680 Y1.9792  
G01 X-1.1680 Y1.9208  
G01 X-1.1692 Y1.9147  
G01 X-1.1716 Y1.9088  
G01 X-1.1751 Y1.9036  
G01 X-1.1796 Y1.8991  
G01 X-1.1820 Y1.8975  
G01 X-1.1820 Y1.8476  
G01 X-1.1832 Y1.8431  
G01 X-1.1856 Y1.8389  
G01 X-1.1889 Y1.8356  
G01 X-1.1931 Y1.8332  
G01 X-1.1976 Y1.8320  
G01 X-1.6425 Y1.8320  
G01 X-1.6820 Y1.7925  
G01 X-1.6820 Y1.6075  
G01 X-1.6389 Y1.5644  
G01 X-1.6356 Y1.5611  
G01 X-1.6332 Y1.5569  
G01 X-1.6320 Y1.5524  
G01 X-1.6320 Y1.4497  
G01 X-1.6251 Y1.4497  
G01 X-1.6229 Y1.4488  
G01 X-1.6212 Y1.4471  
G01 X-1.6203 Y1.4449  
G01 X-1.6203 Y1.3951  
G01 X-1.6212 Y1.3929  
G01 X-1.6229 Y1.3912  
G01 X-1.6251 Y1.3903  
G01 X-1.6749 Y1.3903  
G01 X-1.6771 Y1.3912  
G00 Z0.0500  
G00 X-1.7471 Y1.3650  
G01 Z-0.0040 F10    
G01 X-1.2044 Y1.3650  F20    
G01 X-1.2044 Y1.3652  
G01 X-1.2009 Y1.3704  
G01 X-1.1964 Y1.3749  
G01 X-1.1912 Y1.3784  
G01 X-1.1853 Y1.3808  
G01 X-1.1792 Y1.3820  
G01 X-1.1208 Y1.3820  
G01 X-1.1147 Y1.3808  
G01 X-1.1088 Y1.3784  
G01 X-1.1036 Y1.3749  
G01 X-1.0991 Y1.3704  
G01 X-1.0956 Y1.3652  
G01 X-1.0932 Y1.3593  
G01 X-1.0920 Y1.3532  
G01 X-1.0920 Y1.3468  
G01 X-1.0932 Y1.3407  
G01 X-1.0956 Y1.3348  
G01 X-1.0991 Y1.3296  
G01 X-1.1036 Y1.3251  
G01 X-1.1088 Y1.3216  
G01 X-1.1147 Y1.3192  
G01 X-1.1208 Y1.3180  
G01 X-1.1792 Y1.3180  
G01 X-1.1853 Y1.3192  
G01 X-1.1912 Y1.3216  
G01 X-1.1964 Y1.3251  
G01 X-1.2009 Y1.3296  
G01 X-1.2044 Y1.3348  
G01 X-1.2044 Y1.3350  
G01 X-1.7620 Y1.3350  
G01 X-1.7639 Y1.3350  
G01 X-1.7658 Y1.3355  
G01 X-1.7677 Y1.3360  
G01 X-1.7694 Y1.3370  
G01 X-1.7711 Y1.3379  
G01 X-1.7726 Y1.3394  
G01 X-1.7739 Y1.3407  
G01 X-1.7750 Y1.3425  
G01 X-1.7759 Y1.3441  
G01 X-1.7765 Y1.3461  
G01 X-1.7770 Y1.3479  
G01 X-1.7770 Y1.3500  
G01 X-1.7790 Y1.6900  
G01 X-1.7790 Y1.6920  
G01 X-1.7790 Y1.6939  
G01 X-1.7790 Y2.0000  
G01 X-1.7780 Y2.0038  
G01 X-1.7760 Y2.0072  
G01 X-1.7732 Y2.0100  
G01 X-1.7372 Y2.0460  
G01 X-1.7338 Y2.0480  
G01 X-1.7300 Y2.0490  
G01 X-0.7720 Y2.0490  
G01 X-0.7682 Y2.0480  
G01 X-0.7648 Y2.0460  
G01 X-0.7620 Y2.0432  
G01 X-0.7199 Y2.0012  
G01 X-0.7152 Y2.0044  
G01 X-0.7093 Y2.0068  
G01 X-0.7032 Y2.0080  
G01 X-0.6968 Y2.0080  
G01 X-0.6907 Y2.0068  
G01 X-0.6848 Y2.0044  
G01 X-0.6796 Y2.0009  
G01 X-0.6751 Y1.9964  
G01 X-0.6716 Y1.9912  
G01 X-0.6692 Y1.9853  
G01 X-0.6680 Y1.9792  
G01 X-0.6680 Y1.9208  
G01 X-0.6692 Y1.9147  
G01 X-0.6716 Y1.9088  
G01 X-0.6751 Y1.9036  
G01 X-0.6796 Y1.8991  
G01 X-0.6848 Y1.8956  
G01 X-0.6907 Y1.8932  
G01 X-0.6968 Y1.8920  
G01 X-0.7032 Y1.8920  
G01 X-0.7093 Y1.8932  
G01 X-0.7152 Y1.8956  
G01 X-0.7204 Y1.8991  
G01 X-0.7249 Y1.9036  
G01 X-0.7284 Y1.9088  
G01 X-0.7308 Y1.9147  
G01 X-0.7320 Y1.9208  
G01 X-0.7320 Y1.9708  
G01 X-0.7802 Y2.0190  
G01 X-1.7218 Y2.0190  
G01 X-1.7490 Y1.9918  
G01 X-1.7490 Y1.6920  
G01 X-1.7471 Y1.3650  
G00 Z0.0500  
G00 X-1.5732 Y1.5440  
G01 Z-0.0040 F10    
G01 X-1.6060 Y1.5768  F20    
G01 X-1.6060 Y1.6232  
G01 X-1.5732 Y1.6560  
G01 X-1.5268 Y1.6560  
G01 X-1.4940 Y1.6232  
G01 X-1.4940 Y1.6170  
G01 X-1.1465 Y1.6170  
G01 X-1.0996 Y1.8740  
G01 X-1.0998 Y1.8743  
G01 X-1.1144 Y1.8889  
G01 X-1.1168 Y1.8931  
G01 X-1.1180 Y1.8975  
G01 X-1.1204 Y1.8991  
G01 X-1.1249 Y1.9036  
G01 X-1.1284 Y1.9088  
G01 X-1.1308 Y1.9147  
G01 X-1.1320 Y1.9208  
G01 X-1.1320 Y1.9792  
G01 X-1.1308 Y1.9853  
G01 X-1.1284 Y1.9912  
G01 X-1.1249 Y1.9964  
G01 X-1.1204 Y2.0009  
G01 X-1.1152 Y2.0044  
G01 X-1.1093 Y2.0068  
G01 X-1.1032 Y2.0080  
G01 X-1.0968 Y2.0080  
G01 X-1.0907 Y2.0068  
G01 X-1.0848 Y2.0044  
G01 X-1.0796 Y2.0009  
G01 X-1.0751 Y1.9964  
G01 X-1.0716 Y1.9912  
G01 X-1.0692 Y1.9853  
G01 X-1.0680 Y1.9792  
G01 X-1.0680 Y1.9208  
G01 X-1.0692 Y1.9147  
G01 X-1.0716 Y1.9088  
G01 X-1.0751 Y1.9036  
G01 X-1.0766 Y1.9021  
G01 X-1.0543 Y1.8797  
G01 X-1.0251 Y1.8797  
G01 X-1.0229 Y1.8788  
G01 X-1.0212 Y1.8771  
G01 X-1.0203 Y1.8749  
G01 X-1.0203 Y1.8251  
G01 X-1.0212 Y1.8229  
G01 X-1.0229 Y1.8212  
G01 X-1.0251 Y1.8203  
G01 X-1.0749 Y1.8203  
G01 X-1.0771 Y1.8212  
G01 X-1.0785 Y1.8225  
G01 X-1.1190 Y1.6006  
G01 X-1.1190 Y1.5816  
G01 X-1.1147 Y1.5808  
G01 X-1.1088 Y1.5784  
G01 X-1.1036 Y1.5749  
G01 X-1.0991 Y1.5704  
G01 X-1.0956 Y1.5652  
G01 X-1.0932 Y1.5593  
G01 X-1.0920 Y1.5532  
G01 X-1.0920 Y1.5468  
G01 X-1.0932 Y1.5407  
G01 X-1.0956 Y1.5348  
G01 X-1.0991 Y1.5296  
G01 X-1.1036 Y1.5251  
G01 X-1.1088 Y1.5216  
G01 X-1.1147 Y1.5192  
G01 X-1.1208 Y1.5180  
G01 X-1.1792 Y1.5180  
G01 X-1.1853 Y1.5192  
G01 X-1.1912 Y1.5216  
G01 X-1.1964 Y1.5251  
G01 X-1.2009 Y1.5296  
G01 X-1.2044 Y1.5348  
G01 X-1.2068 Y1.5407  
G01 X-1.2080 Y1.5468  
G01 X-1.2080 Y1.5532  
G01 X-1.2068 Y1.5593  
G01 X-1.2044 Y1.5652  
G01 X-1.2009 Y1.5704  
G01 X-1.1964 Y1.5749  
G01 X-1.1912 Y1.5784  
G01 X-1.1853 Y1.5808  
G01 X-1.1792 Y1.5820  
G01 X-1.1490 Y1.5820  
G01 X-1.1490 Y1.5870  
G01 X-1.4940 Y1.5870  
G01 X-1.4940 Y1.5768  
G01 X-1.5268 Y1.5440  
G01 X-1.5732 Y1.5440  
G00 Z0.0500  
G00 X-1.5732 Y1.6940  
G01 Z-0.0040 F10    
G01 X-1.6060 Y1.7268  F20    
G01 X-1.6060 Y1.7732  
G01 X-1.5732 Y1.8060  
G01 X-1.5268 Y1.8060  
G01 X-1.4940 Y1.7732  
G01 X-1.4940 Y1.7704  
G01 X-1.4608 Y1.7650  
G01 X-1.4303 Y1.7650  
G01 X-1.4133 Y1.7820  
G01 X-1.3867 Y1.7820  
G01 X-1.3680 Y1.7633  
G01 X-1.3680 Y1.7367  
G01 X-1.3867 Y1.7180  
G01 X-1.4133 Y1.7180  
G01 X-1.4303 Y1.7350  
G01 X-1.4612 Y1.7350  
G01 X-1.4625 Y1.7349  
G01 X-1.4632 Y1.7350  
G01 X-1.4640 Y1.7350  
G01 X-1.4652 Y1.7353  
G01 X-1.4940 Y1.7400  
G01 X-1.4940 Y1.7268  
G01 X-1.5268 Y1.6940  
G01 X-1.5732 Y1.6940  
G00 Z0.0500  
G00 X-1.5751 Y1.9036  
G01 Z-0.0040 F10    
G01 X-1.5796 Y1.8991  F20    
G01 X-1.5848 Y1.8956  
G01 X-1.5907 Y1.8932  
G01 X-1.5968 Y1.8920  
G01 X-1.6032 Y1.8920  
G01 X-1.6093 Y1.8932  
G01 X-1.6152 Y1.8956  
G01 X-1.6204 Y1.8991  
G01 X-1.6249 Y1.9036  
G01 X-1.6284 Y1.9088  
G01 X-1.6308 Y1.9147  
G01 X-1.6320 Y1.9208  
G01 X-1.6320 Y1.9792  
G01 X-1.6308 Y1.9853  
G01 X-1.6284 Y1.9912  
G01 X-1.6249 Y1.9964  
G01 X-1.6204 Y2.0009  
G01 X-1.6152 Y2.0044  
G01 X-1.6093 Y2.0068  
G01 X-1.6032 Y2.0080  
G01 X-1.5968 Y2.0080  
G01 X-1.5907 Y2.0068  
G01 X-1.5848 Y2.0044  
G01 X-1.5796 Y2.0009  
G01 X-1.5751 Y1.9964  
G01 X-1.5716 Y1.9912  
G01 X-1.5692 Y1.9853  
G01 X-1.5680 Y1.9792  
G01 X-1.5680 Y1.9208  
G01 X-1.5692 Y1.9147  
G01 X-1.5716 Y1.9088  
G01 X-1.5751 Y1.9036  
G00 Z0.0500  
G00 X-1.5249 Y1.9036  
G01 Z-0.0040 F10    
G01 X-1.5284 Y1.9088  F20    
G01 X-1.5308 Y1.9147  
G01 X-1.5320 Y1.9208  
G01 X-1.5320 Y1.9792  
G01 X-1.5308 Y1.9853  
G01 X-1.5284 Y1.9912  
G01 X-1.5249 Y1.9964  
G01 X-1.5204 Y2.0009  
G01 X-1.5152 Y2.0044  
G01 X-1.5093 Y2.0068  
G01 X-1.5032 Y2.0080  
G01 X-1.4968 Y2.0080  
G01 X-1.4907 Y2.0068  
G01 X-1.4848 Y2.0044  
G01 X-1.4796 Y2.0009  
G01 X-1.4751 Y1.9964  
G01 X-1.4716 Y1.9912  
G01 X-1.4692 Y1.9853  
G01 X-1.4680 Y1.9792  
G01 X-1.4680 Y1.9208  
G01 X-1.4692 Y1.9147  
G01 X-1.4716 Y1.9088  
G01 X-1.4751 Y1.9036  
G01 X-1.4796 Y1.8991  
G01 X-1.4848 Y1.8956  
G01 X-1.4907 Y1.8932  
G01 X-1.4968 Y1.8920  
G01 X-1.5032 Y1.8920  
G01 X-1.5093 Y1.8932  
G01 X-1.5152 Y1.8956  
G01 X-1.5204 Y1.8991  
G01 X-1.5249 Y1.9036  
G00 Z0.0500  
G00 X-1.4249 Y1.9036  
G01 Z-0.0040 F10    
G01 X-1.4284 Y1.9088  F20    
G01 X-1.4308 Y1.9147  
G01 X-1.4320 Y1.9208  
G01 X-1.4320 Y1.9792  
G01 X-1.4308 Y1.9853  
G01 X-1.4284 Y1.9912  
G01 X-1.4249 Y1.9964  
G01 X-1.4204 Y2.0009  
G01 X-1.4152 Y2.0044  
G01 X-1.4093 Y2.0068  
G01 X-1.4032 Y2.0080  
G01 X-1.3968 Y2.0080  
G01 X-1.3907 Y2.0068  
G01 X-1.3848 Y2.0044  
G01 X-1.3796 Y2.0009  
G01 X-1.3751 Y1.9964  
G01 X-1.3716 Y1.9912  
G01 X-1.3692 Y1.9853  
G01 X-1.3680 Y1.9792  
G01 X-1.3680 Y1.9208  
G01 X-1.3692 Y1.9147  
G01 X-1.3716 Y1.9088  
G01 X-1.3751 Y1.9036  
G01 X-1.3796 Y1.8991  
G01 X-1.3848 Y1.8956  
G01 X-1.3907 Y1.8932  
G01 X-1.3968 Y1.8920  
G01 X-1.4032 Y1.8920  
G01 X-1.4093 Y1.8932  
G01 X-1.4152 Y1.8956  
G01 X-1.4204 Y1.8991  
G01 X-1.4249 Y1.9036  
G00 Z0.0500  
G00 X-1.3249 Y1.9036  
G01 Z-0.0040 F10    
G01 X-1.3284 Y1.9088  F20    
G01 X-1.3308 Y1.9147  
G01 X-1.3320 Y1.9208  
G01 X-1.3320 Y1.9792  
G01 X-1.3308 Y1.9853  
G01 X-1.3284 Y1.9912  
G01 X-1.3249 Y1.9964  
G01 X-1.3204 Y2.0009  
G01 X-1.3152 Y2.0044  
G01 X-1.3093 Y2.0068  
G01 X-1.3032 Y2.0080  
G01 X-1.2968 Y2.0080  
G01 X-1.2907 Y2.0068  
G01 X-1.2848 Y2.0044  
G01 X-1.2796 Y2.0009  
G01 X-1.2751 Y1.9964  
G01 X-1.2716 Y1.9912  
G01 X-1.2692 Y1.9853  
G01 X-1.2680 Y1.9792  
G01 X-1.2680 Y1.9208  
G01 X-1.2692 Y1.9147  
G01 X-1.2716 Y1.9088  
G01 X-1.2751 Y1.9036  
G01 X-1.2796 Y1.8991  
G01 X-1.2848 Y1.8956  
G01 X-1.2907 Y1.8932  
G01 X-1.2968 Y1.8920  
G01 X-1.3032 Y1.8920  
G01 X-1.3093 Y1.8932  
G01 X-1.3152 Y1.8956  
G01 X-1.3204 Y1.8991  
G01 X-1.3249 Y1.9036  
G00 Z0.0500  
G00 X-1.0249 Y1.9036  
G01 Z-0.0040 F10    
G01 X-1.0284 Y1.9088  F20    
G01 X-1.0308 Y1.9147  
G01 X-1.0320 Y1.9208  
G01 X-1.0320 Y1.9792  
G01 X-1.0308 Y1.9853  
G01 X-1.0284 Y1.9912  
G01 X-1.0249 Y1.9964  
G01 X-1.0204 Y2.0009  
G01 X-1.0152 Y2.0044  
G01 X-1.0093 Y2.0068  
G01 X-1.0032 Y2.0080  
G01 X-0.9968 Y2.0080  
G01 X-0.9907 Y2.0068  
G01 X-0.9848 Y2.0044  
G01 X-0.9796 Y2.0009  
G01 X-0.9751 Y1.9964  
G01 X-0.9716 Y1.9912  
G01 X-0.9692 Y1.9853  
G01 X-0.9680 Y1.9792  
G01 X-0.9680 Y1.9208  
G01 X-0.9692 Y1.9147  
G01 X-0.9716 Y1.9088  
G01 X-0.9751 Y1.9036  
G01 X-0.9796 Y1.8991  
G01 X-0.9848 Y1.8956  
G01 X-0.9907 Y1.8932  
G01 X-0.9968 Y1.8920  
G01 X-1.0032 Y1.8920  
G01 X-1.0093 Y1.8932  
G01 X-1.0152 Y1.8956  
G01 X-1.0204 Y1.8991  
G01 X-1.0249 Y1.9036  
G00 Z0.0500  
G00 X-0.9249 Y1.9036  
G01 Z-0.0040 F10    
G01 X-0.9284 Y1.9088  F20    
G01 X-0.9308 Y1.9147  
G01 X-0.9320 Y1.9208  
G01 X-0.9320 Y1.9792  
G01 X-0.9308 Y1.9853  
G01 X-0.9284 Y1.9912  
G01 X-0.9249 Y1.9964  
G01 X-0.9204 Y2.0009  
G01 X-0.9152 Y2.0044  
G01 X-0.9093 Y2.0068  
G01 X-0.9032 Y2.0080  
G01 X-0.8968 Y2.0080  
G01 X-0.8907 Y2.0068  
G01 X-0.8848 Y2.0044  
G01 X-0.8796 Y2.0009  
G01 X-0.8751 Y1.9964  
G01 X-0.8716 Y1.9912  
G01 X-0.8692 Y1.9853  
G01 X-0.8680 Y1.9792  
G01 X-0.8680 Y1.9208  
G01 X-0.8692 Y1.9147  
G01 X-0.8716 Y1.9088  
G01 X-0.8751 Y1.9036  
G01 X-0.8796 Y1.8991  
G01 X-0.8848 Y1.8956  
G01 X-0.8907 Y1.8932  
G01 X-0.8968 Y1.8920  
G01 X-0.9032 Y1.8920  
G01 X-0.9093 Y1.8932  
G01 X-0.9152 Y1.8956  
G01 X-0.9204 Y1.8991  
G01 X-0.9249 Y1.9036  
G00 Z0.0500  
G00 X-0.9460 Y1.8113  
G01 Z-0.0040 F10    
G01 X-0.8320 Y1.9252  F20    
G01 X-0.8320 Y1.9792  
G01 X-0.8308 Y1.9853  
G01 X-0.8284 Y1.9912  
G01 X-0.8249 Y1.9964  
G01 X-0.8204 Y2.0009  
G01 X-0.8152 Y2.0044  
G01 X-0.8093 Y2.0068  
G01 X-0.8032 Y2.0080  
G01 X-0.7968 Y2.0080  
G01 X-0.7907 Y2.0068  
G01 X-0.7848 Y2.0044  
G01 X-0.7796 Y2.0009  
G01 X-0.7751 Y1.9964  
G01 X-0.7716 Y1.9912  
G01 X-0.7692 Y1.9853  
G01 X-0.7680 Y1.9792  
G01 X-0.7680 Y1.9208  
G01 X-0.7692 Y1.9147  
G01 X-0.7716 Y1.9088  
G01 X-0.7751 Y1.9036  
G01 X-0.7796 Y1.8991  
G01 X-0.7848 Y1.8956  
G01 X-0.7907 Y1.8932  
G01 X-0.7968 Y1.8920  
G01 X-0.8032 Y1.8920  
G01 X-0.8093 Y1.8932  
G01 X-0.8152 Y1.8956  
G01 X-0.8175 Y1.8972  
G01 X-0.9247 Y1.7901  
G01 X-0.9252 Y1.7894  
G01 X-0.9260 Y1.7887  
G01 X-0.9268 Y1.7880  
G01 X-0.9276 Y1.7875  
G01 X-0.9680 Y1.7560  
G01 X-0.9680 Y1.7367  
G01 X-0.9867 Y1.7180  
G01 X-1.0133 Y1.7180  
G01 X-1.0320 Y1.7367  
G01 X-1.0320 Y1.7633  
G01 X-1.0133 Y1.7820  
G01 X-0.9867 Y1.7820  
G01 X-0.9853 Y1.7805  
G01 X-0.9460 Y1.8113  
G00 Z0.0500  
G00 X-0.9204 Y2.1991  
G01 Z-0.0040 F10    
G01 X-0.9249 Y2.2036  F20    
G01 X-0.9284 Y2.2088  
G01 X-0.9308 Y2.2147  
G01 X-0.9320 Y2.2208  
G01 X-0.9320 Y2.2792  
G01 X-0.9308 Y2.2853  
G01 X-0.9284 Y2.2912  
G01 X-0.9249 Y2.2964  
G01 X-0.9204 Y2.3009  
G01 X-0.9152 Y2.3044  
G01 X-0.9150 Y2.3044  
G01 X-0.9150 Y2.4330  
G01 X-1.0717 Y2.4330  
G01 X-1.0867 Y2.4180  
G01 X-1.1133 Y2.4180  
G01 X-1.1320 Y2.4367  
G01 X-1.1320 Y2.4633  
G01 X-1.1133 Y2.4820  
G01 X-1.0867 Y2.4820  
G01 X-1.0680 Y2.4633  
G01 X-1.0680 Y2.4630  
G01 X-0.8743 Y2.4630  
G01 X-0.8734 Y2.4652  
G01 X-0.8699 Y2.4704  
G01 X-0.8654 Y2.4749  
G01 X-0.8602 Y2.4784  
G01 X-0.8543 Y2.4808  
G01 X-0.8482 Y2.4820  
G01 X-0.8418 Y2.4820  
G01 X-0.8357 Y2.4808  
G01 X-0.8298 Y2.4784  
G01 X-0.8246 Y2.4749  
G01 X-0.8201 Y2.4704  
G01 X-0.8166 Y2.4652  
G01 X-0.8142 Y2.4593  
G01 X-0.8130 Y2.4532  
G01 X-0.8130 Y2.4468  
G01 X-0.8142 Y2.4407  
G01 X-0.8166 Y2.4348  
G01 X-0.8201 Y2.4296  
G01 X-0.8246 Y2.4251  
G01 X-0.8298 Y2.4216  
G01 X-0.8357 Y2.4192  
G01 X-0.8418 Y2.4180  
G01 X-0.8482 Y2.4180  
G01 X-0.8543 Y2.4192  
G01 X-0.8602 Y2.4216  
G01 X-0.8654 Y2.4251  
G01 X-0.8699 Y2.4296  
G01 X-0.8721 Y2.4330  
G01 X-0.8850 Y2.4330  
G01 X-0.8850 Y2.3044  
G01 X-0.8848 Y2.3044  
G01 X-0.8796 Y2.3009  
G01 X-0.8751 Y2.2964  
G01 X-0.8716 Y2.2912  
G01 X-0.8692 Y2.2853  
G01 X-0.8680 Y2.2792  
G01 X-0.8680 Y2.2208  
G01 X-0.8692 Y2.2147  
G01 X-0.8716 Y2.2088  
G01 X-0.8751 Y2.2036  
G01 X-0.8796 Y2.1991  
G01 X-0.8848 Y2.1956  
G01 X-0.8907 Y2.1932  
G01 X-0.8968 Y2.1920  
G01 X-0.9032 Y2.1920  
G01 X-0.9093 Y2.1932  
G01 X-0.9152 Y2.1956  
G01 X-0.9204 Y2.1991  
G00 Z0.0500  
G00 X-0.8204 Y2.1991  
G01 Z-0.0040 F10    
G01 X-0.8249 Y2.2036  F20    
G01 X-0.8284 Y2.2088  
G01 X-0.8308 Y2.2147  
G01 X-0.8320 Y2.2208  
G01 X-0.8320 Y2.2792  
G01 X-0.8308 Y2.2853  
G01 X-0.8284 Y2.2912  
G01 X-0.8249 Y2.2964  
G01 X-0.8204 Y2.3009  
G01 X-0.8152 Y2.3044  
G01 X-0.8093 Y2.3068  
G01 X-0.8070 Y2.3072  
G01 X-0.8070 Y2.3240  
G01 X-0.8060 Y2.3278  
G01 X-0.8040 Y2.3312  
G01 X-0.6870 Y2.4482  
G01 X-0.6870 Y2.4532  
G01 X-0.6858 Y2.4593  
G01 X-0.6842 Y2.4630  
G01 X-0.8392 Y2.6180  
G01 X-0.8633 Y2.6180  
G01 X-0.8820 Y2.6367  
G01 X-0.8820 Y2.6633  
G01 X-0.8633 Y2.6820  
G01 X-0.8367 Y2.6820  
G01 X-0.8180 Y2.6633  
G01 X-0.8180 Y2.6392  
G01 X-0.6603 Y2.4816  
G01 X-0.6582 Y2.4820  
G01 X-0.6518 Y2.4820  
G01 X-0.6457 Y2.4808  
G01 X-0.6398 Y2.4784  
G01 X-0.6346 Y2.4749  
G01 X-0.6301 Y2.4704  
G01 X-0.6266 Y2.4652  
G01 X-0.6242 Y2.4593  
G01 X-0.6230 Y2.4532  
G01 X-0.6230 Y2.4468  
G01 X-0.6242 Y2.4407  
G01 X-0.6266 Y2.4348  
G01 X-0.6301 Y2.4296  
G01 X-0.6346 Y2.4251  
G01 X-0.6398 Y2.4216  
G01 X-0.6457 Y2.4192  
G01 X-0.6518 Y2.4180  
G01 X-0.6582 Y2.4180  
G01 X-0.6643 Y2.4192  
G01 X-0.6702 Y2.4216  
G01 X-0.6707 Y2.4220  
G01 X-0.7770 Y2.3158  
G01 X-0.7770 Y2.2983  
G01 X-0.7751 Y2.2964  
G01 X-0.7716 Y2.2912  
G01 X-0.7692 Y2.2853  
G01 X-0.7680 Y2.2792  
G01 X-0.7680 Y2.2208  
G01 X-0.7692 Y2.2147  
G01 X-0.7716 Y2.2088  
G01 X-0.7751 Y2.2036  
G01 X-0.7796 Y2.1991  
G01 X-0.7848 Y2.1956  
G01 X-0.7907 Y2.1932  
G01 X-0.7968 Y2.1920  
G01 X-0.8032 Y2.1920  
G01 X-0.8093 Y2.1932  
G01 X-0.8152 Y2.1956  
G01 X-0.8204 Y2.1991  
G00 Z0.0500  
G00 X-0.7204 Y2.1991  
G01 Z-0.0040 F10    
G01 X-0.7249 Y2.2036  F20    
G01 X-0.7284 Y2.2088  
G01 X-0.7308 Y2.2147  
G01 X-0.7320 Y2.2208  
G01 X-0.7320 Y2.2792  
G01 X-0.7308 Y2.2853  
G01 X-0.7284 Y2.2912  
G01 X-0.7249 Y2.2964  
G01 X-0.7204 Y2.3009  
G01 X-0.7152 Y2.3044  
G01 X-0.7093 Y2.3068  
G01 X-0.7032 Y2.3080  
G01 X-0.6968 Y2.3080  
G01 X-0.6907 Y2.3068  
G01 X-0.6848 Y2.3044  
G01 X-0.6796 Y2.3009  
G01 X-0.6751 Y2.2964  
G01 X-0.6716 Y2.2912  
G01 X-0.6692 Y2.2853  
G01 X-0.6680 Y2.2792  
G01 X-0.6680 Y2.2208  
G01 X-0.6692 Y2.2147  
G01 X-0.6716 Y2.2088  
G01 X-0.6751 Y2.2036  
G01 X-0.6796 Y2.1991  
G01 X-0.6848 Y2.1956  
G01 X-0.6907 Y2.1932  
G01 X-0.6968 Y2.1920  
G01 X-0.7032 Y2.1920  
G01 X-0.7093 Y2.1932  
G01 X-0.7152 Y2.1956  
G01 X-0.7204 Y2.1991  
G00 Z0.0500  
G00 X-0.6204 Y2.1991  
G01 Z-0.0040 F10    
G01 X-0.6249 Y2.2036  F20    
G01 X-0.6284 Y2.2088  
G01 X-0.6308 Y2.2147  
G01 X-0.6320 Y2.2208  
G01 X-0.6320 Y2.2792  
G01 X-0.6308 Y2.2853  
G01 X-0.6284 Y2.2912  
G01 X-0.6249 Y2.2964  
G01 X-0.6204 Y2.3009  
G01 X-0.6152 Y2.3044  
G01 X-0.6093 Y2.3068  
G01 X-0.6032 Y2.3080  
G01 X-0.5968 Y2.3080  
G01 X-0.5907 Y2.3068  
G01 X-0.5848 Y2.3044  
G01 X-0.5796 Y2.3009  
G01 X-0.5751 Y2.2964  
G01 X-0.5716 Y2.2912  
G01 X-0.5692 Y2.2853  
G01 X-0.5680 Y2.2792  
G01 X-0.5680 Y2.2208  
G01 X-0.5692 Y2.2147  
G01 X-0.5716 Y2.2088  
G01 X-0.5751 Y2.2036  
G01 X-0.5796 Y2.1991  
G01 X-0.5848 Y2.1956  
G01 X-0.5907 Y2.1932  
G01 X-0.5968 Y2.1920  
G01 X-0.6032 Y2.1920  
G01 X-0.6093 Y2.1932  
G01 X-0.6152 Y2.1956  
G01 X-0.6204 Y2.1991  
G00 Z0.0500  
G00 X-0.5204 Y2.1991  
G01 Z-0.0040 F10    
G01 X-0.5249 Y2.2036  F20    
G01 X-0.5284 Y2.2088  
G01 X-0.5308 Y2.2147  
G01 X-0.5320 Y2.2208  
G01 X-0.5320 Y2.2792  
G01 X-0.5308 Y2.2853  
G01 X-0.5284 Y2.2912  
G01 X-0.5249 Y2.2964  
G01 X-0.5204 Y2.3009  
G01 X-0.5152 Y2.3044  
G01 X-0.5093 Y2.3068  
G01 X-0.5032 Y2.3080  
G01 X-0.4968 Y2.3080  
G01 X-0.4907 Y2.3068  
G01 X-0.4848 Y2.3044  
G01 X-0.4796 Y2.3009  
G01 X-0.4751 Y2.2964  
G01 X-0.4716 Y2.2912  
G01 X-0.4692 Y2.2853  
G01 X-0.4680 Y2.2792  
G01 X-0.4680 Y2.2208  
G01 X-0.4692 Y2.2147  
G01 X-0.4716 Y2.2088  
G01 X-0.4751 Y2.2036  
G01 X-0.4796 Y2.1991  
G01 X-0.4848 Y2.1956  
G01 X-0.4907 Y2.1932  
G01 X-0.4968 Y2.1920  
G01 X-0.5032 Y2.1920  
G01 X-0.5093 Y2.1932  
G01 X-0.5152 Y2.1956  
G01 X-0.5204 Y2.1991  
G00 Z0.0500  
G00 X-0.4204 Y2.1991  
G01 Z-0.0040 F10    
G01 X-0.4249 Y2.2036  F20    
G01 X-0.4284 Y2.2088  
G01 X-0.4308 Y2.2147  
G01 X-0.4320 Y2.2208  
G01 X-0.4320 Y2.2792  
G01 X-0.4308 Y2.2853  
G01 X-0.4284 Y2.2912  
G01 X-0.4249 Y2.2964  
G01 X-0.4204 Y2.3009  
G01 X-0.4152 Y2.3044  
G01 X-0.4093 Y2.3068  
G01 X-0.4032 Y2.3080  
G01 X-0.3968 Y2.3080  
G01 X-0.3907 Y2.3068  
G01 X-0.3848 Y2.3044  
G01 X-0.3796 Y2.3009  
G01 X-0.3751 Y2.2964  
G01 X-0.3716 Y2.2912  
G01 X-0.3692 Y2.2853  
G01 X-0.3680 Y2.2792  
G01 X-0.3680 Y2.2208  
G01 X-0.3692 Y2.2147  
G01 X-0.3716 Y2.2088  
G01 X-0.3751 Y2.2036  
G01 X-0.3796 Y2.1991  
G01 X-0.3848 Y2.1956  
G01 X-0.3907 Y2.1932  
G01 X-0.3968 Y2.1920  
G01 X-0.4032 Y2.1920  
G01 X-0.4093 Y2.1932  
G01 X-0.4152 Y2.1956  
G01 X-0.4204 Y2.1991  
G00 Z0.0500  
G00 X-0.4204 Y2.0009  
G01 Z-0.0040 F10    
G01 X-0.4152 Y2.0044  F20    
G01 X-0.4093 Y2.0068  
G01 X-0.4032 Y2.0080  
G01 X-0.3968 Y2.0080  
G01 X-0.3907 Y2.0068  
G01 X-0.3848 Y2.0044  
G01 X-0.3796 Y2.0009  
G01 X-0.3751 Y1.9964  
G01 X-0.3716 Y1.9912  
G01 X-0.3692 Y1.9853  
G01 X-0.3680 Y1.9792  
G01 X-0.3680 Y1.9208  
G01 X-0.3692 Y1.9147  
G01 X-0.3716 Y1.9088  
G01 X-0.3751 Y1.9036  
G01 X-0.3796 Y1.8991  
G01 X-0.3848 Y1.8956  
G01 X-0.3907 Y1.8932  
G01 X-0.3968 Y1.8920  
G01 X-0.3990 Y1.8920  
G01 X-0.3990 Y1.6900  
G01 X-0.4000 Y1.6862  
G01 X-0.4020 Y1.6828  
G01 X-0.5074 Y1.5774  
G01 X-0.5036 Y1.5749  
G01 X-0.4991 Y1.5704  
G01 X-0.4956 Y1.5652  
G01 X-0.4932 Y1.5593  
G01 X-0.4920 Y1.5532  
G01 X-0.4920 Y1.5468  
G01 X-0.4932 Y1.5407  
G01 X-0.4956 Y1.5348  
G01 X-0.4991 Y1.5296  
G01 X-0.5036 Y1.5251  
G01 X-0.5088 Y1.5216  
G01 X-0.5147 Y1.5192  
G01 X-0.5208 Y1.5180  
G01 X-0.5792 Y1.5180  
G01 X-0.5853 Y1.5192  
G01 X-0.5912 Y1.5216  
G01 X-0.5964 Y1.5251  
G01 X-0.6009 Y1.5296  
G01 X-0.6044 Y1.5348  
G01 X-0.6068 Y1.5407  
G01 X-0.6080 Y1.5468  
G01 X-0.6080 Y1.5532  
G01 X-0.6068 Y1.5593  
G01 X-0.6044 Y1.5652  
G01 X-0.6009 Y1.5704  
G01 X-0.5964 Y1.5749  
G01 X-0.5912 Y1.5784  
G01 X-0.5853 Y1.5808  
G01 X-0.5792 Y1.5820  
G01 X-0.5452 Y1.5820  
G01 X-0.4290 Y1.6982  
G01 X-0.4290 Y1.9104  
G01 X-0.4308 Y1.9147  
G01 X-0.4320 Y1.9208  
G01 X-0.4320 Y1.9792  
G01 X-0.4308 Y1.9853  
G01 X-0.4284 Y1.9912  
G01 X-0.4249 Y1.9964  
G01 X-0.4204 Y2.0009  
G00 Z0.0500  
G00 X-0.4796 Y2.0009  
G01 Z-0.0040 F10    
G01 X-0.4751 Y1.9964  F20    
G01 X-0.4716 Y1.9912  
G01 X-0.4692 Y1.9853  
G01 X-0.4680 Y1.9792  
G01 X-0.4680 Y1.9208  
G01 X-0.4692 Y1.9147  
G01 X-0.4716 Y1.9088  
G01 X-0.4751 Y1.9036  
G01 X-0.4796 Y1.8991  
G01 X-0.4848 Y1.8956  
G01 X-0.4890 Y1.8939  
G01 X-0.4890 Y1.7080  
G01 X-0.4900 Y1.7042  
G01 X-0.4920 Y1.7008  
G01 X-0.6150 Y1.5778  
G01 X-0.6150 Y1.5182  
G01 X-0.5788 Y1.4820  
G01 X-0.5208 Y1.4820  
G01 X-0.5147 Y1.4808  
G01 X-0.5088 Y1.4784  
G01 X-0.5036 Y1.4749  
G01 X-0.4991 Y1.4704  
G01 X-0.4956 Y1.4652  
G01 X-0.4932 Y1.4593  
G01 X-0.4920 Y1.4532  
G01 X-0.4920 Y1.4468  
G01 X-0.4932 Y1.4407  
G01 X-0.4956 Y1.4348  
G01 X-0.4991 Y1.4296  
G01 X-0.5036 Y1.4251  
G01 X-0.5088 Y1.4216  
G01 X-0.5147 Y1.4192  
G01 X-0.5208 Y1.4180  
G01 X-0.5792 Y1.4180  
G01 X-0.5853 Y1.4192  
G01 X-0.5912 Y1.4216  
G01 X-0.5964 Y1.4251  
G01 X-0.6009 Y1.4296  
G01 X-0.6044 Y1.4348  
G01 X-0.6068 Y1.4407  
G01 X-0.6080 Y1.4468  
G01 X-0.6080 Y1.4532  
G01 X-0.6068 Y1.4593  
G01 X-0.6044 Y1.4651  
G01 X-0.6420 Y1.5028  
G01 X-0.6440 Y1.5062  
G01 X-0.6450 Y1.5100  
G01 X-0.6450 Y1.5860  
G01 X-0.6440 Y1.5898  
G01 X-0.6420 Y1.5932  
G01 X-0.5190 Y1.7162  
G01 X-0.5190 Y1.8982  
G01 X-0.5204 Y1.8991  
G01 X-0.5249 Y1.9036  
G01 X-0.5284 Y1.9088  
G01 X-0.5308 Y1.9147  
G01 X-0.5320 Y1.9208  
G01 X-0.5320 Y1.9792  
G01 X-0.5308 Y1.9853  
G01 X-0.5284 Y1.9912  
G01 X-0.5249 Y1.9964  
G01 X-0.5204 Y2.0009  
G01 X-0.5152 Y2.0044  
G01 X-0.5093 Y2.0068  
G01 X-0.5032 Y2.0080  
G01 X-0.4968 Y2.0080  
G01 X-0.4907 Y2.0068  
G01 X-0.4848 Y2.0044  
G01 X-0.4796 Y2.0009  
G00 Z0.0500  
G00 X-0.5796 Y2.0009  
G01 Z-0.0040 F10    
G01 X-0.5751 Y1.9964  F20    
G01 X-0.5716 Y1.9912  
G01 X-0.5692 Y1.9853  
G01 X-0.5680 Y1.9792  
G01 X-0.5680 Y1.9208  
G01 X-0.5692 Y1.9147  
G01 X-0.5716 Y1.9088  
G01 X-0.5751 Y1.9036  
G01 X-0.5796 Y1.8991  
G01 X-0.5848 Y1.8956  
G01 X-0.5907 Y1.8932  
G01 X-0.5968 Y1.8920  
G01 X-0.6032 Y1.8920  
G01 X-0.6093 Y1.8932  
G01 X-0.6152 Y1.8956  
G01 X-0.6187 Y1.8980  
G01 X-1.0680 Y1.4488  
G01 X-1.0708 Y1.4460  
G01 X-1.0742 Y1.4440  
G01 X-1.0780 Y1.4430  
G01 X-1.0928 Y1.4430  
G01 X-1.0932 Y1.4407  
G01 X-1.0956 Y1.4348  
G01 X-1.0991 Y1.4296  
G01 X-1.1036 Y1.4251  
G01 X-1.1088 Y1.4216  
G01 X-1.1147 Y1.4192  
G01 X-1.1208 Y1.4180  
G01 X-1.1792 Y1.4180  
G01 X-1.1853 Y1.4192  
G01 X-1.1912 Y1.4216  
G01 X-1.1964 Y1.4251  
G01 X-1.2009 Y1.4296  
G01 X-1.2044 Y1.4348  
G01 X-1.2068 Y1.4407  
G01 X-1.2080 Y1.4468  
G01 X-1.2080 Y1.4532  
G01 X-1.2068 Y1.4593  
G01 X-1.2044 Y1.4652  
G01 X-1.2009 Y1.4704  
G01 X-1.1964 Y1.4749  
G01 X-1.1912 Y1.4784  
G01 X-1.1853 Y1.4808  
G01 X-1.1792 Y1.4820  
G01 X-1.1208 Y1.4820  
G01 X-1.1147 Y1.4808  
G01 X-1.1088 Y1.4784  
G01 X-1.1036 Y1.4749  
G01 X-1.1017 Y1.4730  
G01 X-1.0862 Y1.4730  
G01 X-0.6320 Y1.9272  
G01 X-0.6320 Y1.9792  
G01 X-0.6308 Y1.9853  
G01 X-0.6284 Y1.9912  
G01 X-0.6249 Y1.9964  
G01 X-0.6204 Y2.0009  
G01 X-0.6152 Y2.0044  
G01 X-0.6093 Y2.0068  
G01 X-0.6032 Y2.0080  
G01 X-0.5968 Y2.0080  
G01 X-0.5907 Y2.0068  
G01 X-0.5848 Y2.0044  
G01 X-0.5796 Y2.0009  
G00 Z0.0500  
G00 X-1.1751 Y2.2036  
G01 Z-0.0040 F10    
G01 X-1.1796 Y2.1991  F20    
G01 X-1.1848 Y2.1956  
G01 X-1.1907 Y2.1932  
G01 X-1.1968 Y2.1920  
G01 X-1.2032 Y2.1920  
G01 X-1.2093 Y2.1932  
G01 X-1.2152 Y2.1956  
G01 X-1.2204 Y2.1991  
G01 X-1.2249 Y2.2036  
G01 X-1.2284 Y2.2088  
G01 X-1.2308 Y2.2147  
G01 X-1.2320 Y2.2208  
G01 X-1.2320 Y2.2792  
G01 X-1.2308 Y2.2853  
G01 X-1.2284 Y2.2912  
G01 X-1.2249 Y2.2964  
G01 X-1.2204 Y2.3009  
G01 X-1.2152 Y2.3044  
G01 X-1.2093 Y2.3068  
G01 X-1.2032 Y2.3080  
G01 X-1.1968 Y2.3080  
G01 X-1.1907 Y2.3068  
G01 X-1.1848 Y2.3044  
G01 X-1.1796 Y2.3009  
G01 X-1.1751 Y2.2964  
G01 X-1.1716 Y2.2912  
G01 X-1.1692 Y2.2853  
G01 X-1.1680 Y2.2792  
G01 X-1.1680 Y2.2208  
G01 X-1.1692 Y2.2147  
G01 X-1.1716 Y2.2088  
G01 X-1.1751 Y2.2036  
G00 Z0.0500  
G00 X-1.2751 Y2.2036  
G01 Z-0.0040 F10    
G01 X-1.2796 Y2.1991  F20    
G01 X-1.2848 Y2.1956  
G01 X-1.2907 Y2.1932  
G01 X-1.2968 Y2.1920  
G01 X-1.3032 Y2.1920  
G01 X-1.3093 Y2.1932  
G01 X-1.3152 Y2.1956  
G01 X-1.3204 Y2.1991  
G01 X-1.3249 Y2.2036  
G01 X-1.3284 Y2.2088  
G01 X-1.3308 Y2.2147  
G01 X-1.3320 Y2.2208  
G01 X-1.3320 Y2.2792  
G01 X-1.3308 Y2.2853  
G01 X-1.3284 Y2.2912  
G01 X-1.3249 Y2.2964  
G01 X-1.3204 Y2.3009  
G01 X-1.3152 Y2.3044  
G01 X-1.3093 Y2.3068  
G01 X-1.3032 Y2.3080  
G01 X-1.2968 Y2.3080  
G01 X-1.2907 Y2.3068  
G01 X-1.2848 Y2.3044  
G01 X-1.2796 Y2.3009  
G01 X-1.2751 Y2.2964  
G01 X-1.2716 Y2.2912  
G01 X-1.2692 Y2.2853  
G01 X-1.2680 Y2.2792  
G01 X-1.2680 Y2.2208  
G01 X-1.2692 Y2.2147  
G01 X-1.2716 Y2.2088  
G01 X-1.2751 Y2.2036  
G00 Z0.0500  
G00 X-1.3751 Y2.2036  
G01 Z-0.0040 F10    
G01 X-1.3796 Y2.1991  F20    
G01 X-1.3848 Y2.1956  
G01 X-1.3907 Y2.1932  
G01 X-1.3968 Y2.1920  
G01 X-1.4032 Y2.1920  
G01 X-1.4093 Y2.1932  
G01 X-1.4152 Y2.1956  
G01 X-1.4204 Y2.1991  
G01 X-1.4249 Y2.2036  
G01 X-1.4284 Y2.2088  
G01 X-1.4308 Y2.2147  
G01 X-1.4320 Y2.2208  
G01 X-1.4320 Y2.2792  
G01 X-1.4308 Y2.2853  
G01 X-1.4284 Y2.2912  
G01 X-1.4249 Y2.2964  
G01 X-1.4204 Y2.3009  
G01 X-1.4152 Y2.3044  
G01 X-1.4093 Y2.3068  
G01 X-1.4032 Y2.3080  
G01 X-1.3968 Y2.3080  
G01 X-1.3907 Y2.3068  
G01 X-1.3848 Y2.3044  
G01 X-1.3796 Y2.3009  
G01 X-1.3751 Y2.2964  
G01 X-1.3716 Y2.2912  
G01 X-1.3692 Y2.2853  
G01 X-1.3680 Y2.2792  
G01 X-1.3680 Y2.2208  
G01 X-1.3692 Y2.2147  
G01 X-1.3716 Y2.2088  
G01 X-1.3751 Y2.2036  
G00 Z0.0500  
G00 X-1.4751 Y2.2036  
G01 Z-0.0040 F10    
G01 X-1.4796 Y2.1991  F20    
G01 X-1.4848 Y2.1956  
G01 X-1.4907 Y2.1932  
G01 X-1.4968 Y2.1920  
G01 X-1.5032 Y2.1920  
G01 X-1.5093 Y2.1932  
G01 X-1.5152 Y2.1956  
G01 X-1.5204 Y2.1991  
G01 X-1.5249 Y2.2036  
G01 X-1.5284 Y2.2088  
G01 X-1.5308 Y2.2147  
G01 X-1.5320 Y2.2208  
G01 X-1.5320 Y2.2792  
G01 X-1.5308 Y2.2853  
G01 X-1.5284 Y2.2912  
G01 X-1.5249 Y2.2964  
G01 X-1.5204 Y2.3009  
G01 X-1.5152 Y2.3044  
G01 X-1.5093 Y2.3068  
G01 X-1.5090 Y2.3068  
G01 X-1.5090 Y2.3680  
G01 X-1.5133 Y2.3680  
G01 X-1.5320 Y2.3867  
G01 X-1.5320 Y2.4133  
G01 X-1.5133 Y2.4320  
G01 X-1.4867 Y2.4320  
G01 X-1.4680 Y2.4133  
G01 X-1.4680 Y2.3867  
G01 X-1.4790 Y2.3757  
G01 X-1.4790 Y2.3003  
G01 X-1.4751 Y2.2964  
G01 X-1.4716 Y2.2912  
G01 X-1.4692 Y2.2853  
G01 X-1.4680 Y2.2792  
G01 X-1.4680 Y2.2208  
G01 X-1.4692 Y2.2147  
G01 X-1.4716 Y2.2088  
G01 X-1.4751 Y2.2036  
G00 Z0.0500  
G00 X-1.5751 Y2.2036  
G01 Z-0.0040 F10    
G01 X-1.5796 Y2.1991  F20    
G01 X-1.5848 Y2.1956  
G01 X-1.5907 Y2.1932  
G01 X-1.5968 Y2.1920  
G01 X-1.6032 Y2.1920  
G01 X-1.6093 Y2.1932  
G01 X-1.6152 Y2.1956  
G01 X-1.6204 Y2.1991  
G01 X-1.6249 Y2.2036  
G01 X-1.6284 Y2.2088  
G01 X-1.6308 Y2.2147  
G01 X-1.6320 Y2.2208  
G01 X-1.6320 Y2.2792  
G01 X-1.6308 Y2.2853  
G01 X-1.6284 Y2.2912  
G01 X-1.6249 Y2.2964  
G01 X-1.6204 Y2.3009  
G01 X-1.6152 Y2.3044  
G01 X-1.6093 Y2.3068  
G01 X-1.6032 Y2.3080  
G01 X-1.5968 Y2.3080  
G01 X-1.5907 Y2.3068  
G01 X-1.5848 Y2.3044  
G01 X-1.5796 Y2.3009  
G01 X-1.5751 Y2.2964  
G01 X-1.5716 Y2.2912  
G01 X-1.5692 Y2.2853  
G01 X-1.5680 Y2.2792  
G01 X-1.5680 Y2.2208  
G01 X-1.5692 Y2.2147  
G01 X-1.5716 Y2.2088  
G01 X-1.5751 Y2.2036  
G00 Z0.0500  
G00 X-1.6751 Y2.2036  
G01 Z-0.0040 F10    
G01 X-1.6796 Y2.1991  F20    
G01 X-1.6848 Y2.1956  
G01 X-1.6907 Y2.1932  
G01 X-1.6968 Y2.1920  
G01 X-1.7032 Y2.1920  
G01 X-1.7093 Y2.1932  
G01 X-1.7152 Y2.1956  
G01 X-1.7204 Y2.1991  
G01 X-1.7249 Y2.2036  
G01 X-1.7284 Y2.2088  
G01 X-1.7288 Y2.2100  
G01 X-1.8448 Y2.0940  
G01 X-1.8482 Y2.0920  
G01 X-1.8520 Y2.0910  
G01 X-1.8640 Y2.0910  
G01 X-1.8640 Y2.0768  
G01 X-1.8968 Y2.0440  
G01 X-1.9432 Y2.0440  
G01 X-1.9760 Y2.0768  
G01 X-1.9760 Y2.1232  
G01 X-1.9432 Y2.1560  
G01 X-1.8968 Y2.1560  
G01 X-1.8640 Y2.1232  
G01 X-1.8640 Y2.1210  
G01 X-1.8602 Y2.1210  
G01 X-1.7320 Y2.2492  
G01 X-1.7320 Y2.2792  
G01 X-1.7308 Y2.2853  
G01 X-1.7284 Y2.2912  
G01 X-1.7250 Y2.2962  
G01 X-1.7250 Y2.4958  
G01 X-1.7472 Y2.5180  
G01 X-1.7633 Y2.5180  
G01 X-1.7820 Y2.5367  
G01 X-1.7820 Y2.5633  
G01 X-1.7633 Y2.5820  
G01 X-1.7367 Y2.5820  
G01 X-1.7180 Y2.5633  
G01 X-1.7180 Y2.5367  
G01 X-1.7208 Y2.5340  
G01 X-1.6980 Y2.5112  
G01 X-1.6960 Y2.5078  
G01 X-1.6950 Y2.5040  
G01 X-1.6950 Y2.3076  
G01 X-1.6907 Y2.3068  
G01 X-1.6848 Y2.3044  
G01 X-1.6796 Y2.3009  
G01 X-1.6751 Y2.2964  
G01 X-1.6716 Y2.2912  
G01 X-1.6692 Y2.2853  
G01 X-1.6680 Y2.2792  
G01 X-1.6680 Y2.2208  
G01 X-1.6692 Y2.2147  
G01 X-1.6716 Y2.2088  
G01 X-1.6751 Y2.2036  
G00 Z0.0500  
G00 X-1.6796 Y2.0009  
G01 Z-0.0040 F10    
G01 X-1.6751 Y1.9964  F20    
G01 X-1.6716 Y1.9912  
G01 X-1.6692 Y1.9853  
G01 X-1.6680 Y1.9792  
G01 X-1.6680 Y1.9208  
G01 X-1.6692 Y1.9147  
G01 X-1.6716 Y1.9088  
G01 X-1.6751 Y1.9036  
G01 X-1.6796 Y1.8991  
G01 X-1.6848 Y1.8956  
G01 X-1.6907 Y1.8932  
G01 X-1.6968 Y1.8920  
G01 X-1.7032 Y1.8920  
G01 X-1.7093 Y1.8932  
G01 X-1.7152 Y1.8956  
G01 X-1.7204 Y1.8991  
G01 X-1.7249 Y1.9036  
G01 X-1.7284 Y1.9088  
G01 X-1.7308 Y1.9147  
G01 X-1.7320 Y1.9208  
G01 X-1.7320 Y1.9792  
G01 X-1.7308 Y1.9853  
G01 X-1.7284 Y1.9912  
G01 X-1.7249 Y1.9964  
G01 X-1.7204 Y2.0009  
G01 X-1.7152 Y2.0044  
G01 X-1.7093 Y2.0068  
G01 X-1.7032 Y2.0080  
G01 X-1.6968 Y2.0080  
G01 X-1.6907 Y2.0068  
G01 X-1.6848 Y2.0044  
G01 X-1.6796 Y2.0009  
G00 Z0.0500  
G00 X-1.8680 Y2.3867  
G01 Z-0.0040 F10    
G01 X-1.8867 Y2.3680  F20    
G01 X-1.9133 Y2.3680  
G01 X-1.9320 Y2.3867  
G01 X-1.9320 Y2.4133  
G01 X-1.9230 Y2.4223  
G01 X-1.9230 Y2.6440  
G01 X-1.9232 Y2.6440  
G01 X-1.9560 Y2.6768  
G01 X-1.9560 Y2.7232  
G01 X-1.9232 Y2.7560  
G01 X-1.8768 Y2.7560  
G01 X-1.8440 Y2.7232  
G01 X-1.8440 Y2.6768  
G01 X-1.8768 Y2.6440  
G01 X-1.8930 Y2.6440  
G01 X-1.8930 Y2.4320  
G01 X-1.8867 Y2.4320  
G01 X-1.8680 Y2.4133  
G01 X-1.8680 Y2.3867  
G00 Z0.0500  
G00 X-1.2009 Y0.4704  
G01 Z-0.0040 F10    
G01 X-1.1964 Y0.4749  F20    
G01 X-1.1912 Y0.4784  
G01 X-1.1853 Y0.4808  
G01 X-1.1792 Y0.4820  
G01 X-1.1208 Y0.4820  
G01 X-1.1147 Y0.4808  
G01 X-1.1088 Y0.4784  
G01 X-1.1036 Y0.4749  
G01 X-1.0991 Y0.4704  
G01 X-1.0956 Y0.4652  
G01 X-1.0932 Y0.4593  
G01 X-1.0920 Y0.4532  
G01 X-1.0920 Y0.4468  
G01 X-1.0932 Y0.4407  
G01 X-1.0956 Y0.4348  
G01 X-1.0991 Y0.4296  
G01 X-1.1036 Y0.4251  
G01 X-1.1088 Y0.4216  
G01 X-1.1147 Y0.4192  
G01 X-1.1208 Y0.4180  
G01 X-1.1320 Y0.4180  
G01 X-1.1320 Y0.4075  
G01 X-1.1043 Y0.3797  
G01 X-1.0751 Y0.3797  
G01 X-1.0729 Y0.3788  
G01 X-1.0712 Y0.3771  
G01 X-1.0703 Y0.3749  
G01 X-1.0703 Y0.3251  
G01 X-1.0712 Y0.3229  
G01 X-1.0729 Y0.3212  
G01 X-1.0751 Y0.3203  
G01 X-1.1249 Y0.3203  
G01 X-1.1271 Y0.3212  
G01 X-1.1288 Y0.3229  
G01 X-1.1297 Y0.3251  
G01 X-1.1297 Y0.3543  
G01 X-1.1611 Y0.3856  
G01 X-1.1644 Y0.3889  
G01 X-1.1668 Y0.3931  
G01 X-1.1680 Y0.3976  
G01 X-1.1680 Y0.4180  
G01 X-1.1792 Y0.4180  
G01 X-1.1853 Y0.4192  
G01 X-1.1912 Y0.4216  
G01 X-1.1964 Y0.4251  
G01 X-1.2009 Y0.4296  
G01 X-1.2044 Y0.4348  
G01 X-1.2068 Y0.4407  
G01 X-1.2080 Y0.4468  
G01 X-1.2080 Y0.4532  
G01 X-1.2068 Y0.4593  
G01 X-1.2044 Y0.4652  
G01 X-1.2009 Y0.4704  
G00 Z0.0500  
G00 X-0.6009 Y0.4704  
G01 Z-0.0040 F10    
G01 X-0.5964 Y0.4749  F20    
G01 X-0.5912 Y0.4784  
G01 X-0.5853 Y0.4808  
G01 X-0.5792 Y0.4820  
G01 X-0.5208 Y0.4820  
G01 X-0.5147 Y0.4808  
G01 X-0.5088 Y0.4784  
G01 X-0.5036 Y0.4749  
G01 X-0.4991 Y0.4704  
G01 X-0.4956 Y0.4652  
G01 X-0.4932 Y0.4593  
G01 X-0.4920 Y0.4532  
G01 X-0.4920 Y0.4468  
G01 X-0.4932 Y0.4407  
G01 X-0.4956 Y0.4348  
G01 X-0.4991 Y0.4296  
G01 X-0.5036 Y0.4251  
G01 X-0.5088 Y0.4216  
G01 X-0.5147 Y0.4192  
G01 X-0.5208 Y0.4180  
G01 X-0.5565 Y0.4180  
G01 X-0.6320 Y0.3425  
G01 X-0.6320 Y0.2976  
G01 X-0.6332 Y0.2931  
G01 X-0.6356 Y0.2889  
G01 X-0.6603 Y0.2643  
G01 X-0.6603 Y0.2351  
G01 X-0.6612 Y0.2329  
G01 X-0.6629 Y0.2312  
G01 X-0.6651 Y0.2303  
G01 X-0.7149 Y0.2303  
G01 X-0.7171 Y0.2312  
G01 X-0.7188 Y0.2329  
G01 X-0.7197 Y0.2351  
G01 X-0.7197 Y0.2849  
G01 X-0.7188 Y0.2871  
G01 X-0.7171 Y0.2888  
G01 X-0.7149 Y0.2897  
G01 X-0.6857 Y0.2897  
G01 X-0.6680 Y0.3075  
G01 X-0.6680 Y0.3524  
G01 X-0.6668 Y0.3569  
G01 X-0.6644 Y0.3611  
G01 X-0.6611 Y0.3644  
G01 X-0.5984 Y0.4271  
G01 X-0.6009 Y0.4296  
G01 X-0.6044 Y0.4348  
G01 X-0.6068 Y0.4407  
G01 X-0.6080 Y0.4468  
G01 X-0.6080 Y0.4532  
G01 X-0.6068 Y0.4593  
G01 X-0.6044 Y0.4652  
G01 X-0.6009 Y0.4704  
G00 Z0.0500  
G00 X-0.0664 Y0.0343  
G01 Z-0.0040 F10    
G01 X-0.0713 Y0.0294  F20    
G01 X-0.0769 Y0.0254  
G01 X-0.0831 Y0.0222  
G01 X-0.0897 Y0.0201  
G01 X-0.0965 Y0.0190  
G01 X-0.1035 Y0.0190  
G01 X-0.1103 Y0.0201  
G01 X-0.1169 Y0.0222  
G01 X-0.1231 Y0.0254  
G01 X-0.1287 Y0.0294  
G01 X-0.1336 Y0.0343  
G01 X-0.1376 Y0.0399  
G01 X-0.1408 Y0.0461  
G01 X-0.1429 Y0.0527  
G01 X-0.1440 Y0.0595  
G01 X-0.1440 Y0.1405  
G01 X-0.1429 Y0.1473  
G01 X-0.1408 Y0.1539  
G01 X-0.1376 Y0.1601  
G01 X-0.1336 Y0.1657  
G01 X-0.1287 Y0.1706  
G01 X-0.1240 Y0.1739  
G01 X-0.1240 Y0.8034  
G01 X-0.5376 Y1.2170  
G01 X-0.5793 Y1.2170  
G01 X-0.5856 Y1.2183  
G01 X-0.5916 Y1.2208  
G01 X-0.5970 Y1.2244  
G01 X-0.6016 Y1.2290  
G01 X-0.6052 Y1.2344  
G01 X-0.6077 Y1.2404  
G01 X-0.6090 Y1.2467  
G01 X-0.6090 Y1.2533  
G01 X-0.6077 Y1.2596  
G01 X-0.6052 Y1.2656  
G01 X-0.6016 Y1.2710  
G01 X-0.5970 Y1.2756  
G01 X-0.5916 Y1.2792  
G01 X-0.5856 Y1.2817  
G01 X-0.5793 Y1.2830  
G01 X-0.5207 Y1.2830  
G01 X-0.5144 Y1.2817  
G01 X-0.5084 Y1.2792  
G01 X-0.5030 Y1.2756  
G01 X-0.4984 Y1.2710  
G01 X-0.4948 Y1.2656  
G01 X-0.4923 Y1.2596  
G01 X-0.4910 Y1.2533  
G01 X-0.4910 Y1.2467  
G01 X-0.4923 Y1.2404  
G01 X-0.4948 Y1.2344  
G01 X-0.4984 Y1.2290  
G01 X-0.5014 Y1.2260  
G01 X-0.0982 Y0.8228  
G01 X-0.0952 Y0.8198  
G01 X-0.0931 Y0.8162  
G01 X-0.0920 Y0.8121  
G01 X-0.0920 Y0.1803  
G01 X-0.0897 Y0.1799  
G01 X-0.0831 Y0.1778  
G01 X-0.0769 Y0.1746  
G01 X-0.0713 Y0.1706  
G01 X-0.0664 Y0.1657  
G01 X-0.0624 Y0.1601  
G01 X-0.0592 Y0.1539  
G01 X-0.0571 Y0.1473  
G01 X-0.0560 Y0.1405  
G01 X-0.0560 Y0.0595  
G01 X-0.0571 Y0.0527  
G01 X-0.0592 Y0.0461  
G01 X-0.0624 Y0.0399  
G01 X-0.0664 Y0.0343  
G00 Z0.0500  
G00 X-0.1664 Y0.0343  
G01 Z-0.0040 F10    
G01 X-0.1713 Y0.0294  F20    
G01 X-0.1769 Y0.0254  
G01 X-0.1831 Y0.0222  
G01 X-0.1897 Y0.0201  
G01 X-0.1965 Y0.0190  
G01 X-0.2035 Y0.0190  
G01 X-0.2103 Y0.0201  
G01 X-0.2169 Y0.0222  
G01 X-0.2231 Y0.0254  
G01 X-0.2287 Y0.0294  
G01 X-0.2336 Y0.0343  
G01 X-0.2376 Y0.0399  
G01 X-0.2408 Y0.0461  
G01 X-0.2429 Y0.0527  
G01 X-0.2440 Y0.0595  
G01 X-0.2440 Y0.1405  
G01 X-0.2429 Y0.1473  
G01 X-0.2408 Y0.1539  
G01 X-0.2376 Y0.1601  
G01 X-0.2336 Y0.1657  
G01 X-0.2287 Y0.1706  
G01 X-0.2231 Y0.1746  
G01 X-0.2169 Y0.1778  
G01 X-0.2103 Y0.1799  
G01 X-0.2035 Y0.1810  
G01 X-0.1965 Y0.1810  
G01 X-0.1920 Y0.1803  
G01 X-0.1920 Y0.7814  
G01 X-0.5276 Y1.1170  
G01 X-0.5793 Y1.1170  
G01 X-0.5856 Y1.1183  
G01 X-0.5916 Y1.1208  
G01 X-0.5970 Y1.1244  
G01 X-0.6016 Y1.1290  
G01 X-0.6052 Y1.1344  
G01 X-0.6077 Y1.1404  
G01 X-0.6090 Y1.1467  
G01 X-0.6090 Y1.1533  
G01 X-0.6077 Y1.1596  
G01 X-0.6052 Y1.1656  
G01 X-0.6016 Y1.1710  
G01 X-0.5970 Y1.1756  
G01 X-0.5916 Y1.1792  
G01 X-0.5856 Y1.1817  
G01 X-0.5793 Y1.1830  
G01 X-0.5207 Y1.1830  
G01 X-0.5144 Y1.1817  
G01 X-0.5084 Y1.1792  
G01 X-0.5030 Y1.1756  
G01 X-0.4984 Y1.1710  
G01 X-0.4948 Y1.1656  
G01 X-0.4923 Y1.1596  
G01 X-0.4910 Y1.1533  
G01 X-0.4910 Y1.1467  
G01 X-0.4923 Y1.1404  
G01 X-0.4948 Y1.1344  
G01 X-0.4968 Y1.1314  
G01 X-0.1662 Y0.8008  
G01 X-0.1632 Y0.7978  
G01 X-0.1611 Y0.7942  
G01 X-0.1600 Y0.7901  
G01 X-0.1600 Y0.1554  
G01 X-0.1592 Y0.1539  
G01 X-0.1571 Y0.1473  
G01 X-0.1560 Y0.1405  
G01 X-0.1560 Y0.0595  
G01 X-0.1571 Y0.0527  
G01 X-0.1592 Y0.0461  
G01 X-0.1624 Y0.0399  
G01 X-0.1664 Y0.0343  
G00 Z0.0500  
G00 X-0.2664 Y0.0343  
G01 Z-0.0040 F10    
G01 X-0.2713 Y0.0294  F20    
G01 X-0.2769 Y0.0254  
G01 X-0.2831 Y0.0222  
G01 X-0.2897 Y0.0201  
G01 X-0.2965 Y0.0190  
G01 X-0.3035 Y0.0190  
G01 X-0.3103 Y0.0201  
G01 X-0.3169 Y0.0222  
G01 X-0.3231 Y0.0254  
G01 X-0.3287 Y0.0294  
G01 X-0.3336 Y0.0343  
G01 X-0.3376 Y0.0399  
G01 X-0.3408 Y0.0461  
G01 X-0.3429 Y0.0527  
G01 X-0.3440 Y0.0595  
G01 X-0.3440 Y0.1405  
G01 X-0.3429 Y0.1473  
G01 X-0.3408 Y0.1539  
G01 X-0.3376 Y0.1601  
G01 X-0.3336 Y0.1657  
G01 X-0.3287 Y0.1706  
G01 X-0.3231 Y0.1746  
G01 X-0.3169 Y0.1778  
G01 X-0.3103 Y0.1799  
G01 X-0.3035 Y0.1810  
G01 X-0.2965 Y0.1810  
G01 X-0.2897 Y0.1799  
G01 X-0.2837 Y0.1780  
G01 X-0.2520 Y0.2513  
G01 X-0.2520 Y0.7629  
G01 X-0.5339 Y1.0170  
G01 X-0.5793 Y1.0170  
G01 X-0.5856 Y1.0183  
G01 X-0.5916 Y1.0208  
G01 X-0.5970 Y1.0244  
G01 X-0.6016 Y1.0290  
G01 X-0.6052 Y1.0344  
G01 X-0.6077 Y1.0404  
G01 X-0.6090 Y1.0467  
G01 X-0.6090 Y1.0533  
G01 X-0.6077 Y1.0596  
G01 X-0.6052 Y1.0656  
G01 X-0.6016 Y1.0710  
G01 X-0.5970 Y1.0756  
G01 X-0.5916 Y1.0792  
G01 X-0.5856 Y1.0817  
G01 X-0.5793 Y1.0830  
G01 X-0.5207 Y1.0830  
G01 X-0.5144 Y1.0817  
G01 X-0.5084 Y1.0792  
G01 X-0.5030 Y1.0756  
G01 X-0.4984 Y1.0710  
G01 X-0.4948 Y1.0656  
G01 X-0.4923 Y1.0596  
G01 X-0.4910 Y1.0533  
G01 X-0.4910 Y1.0467  
G01 X-0.4923 Y1.0404  
G01 X-0.4948 Y1.0344  
G01 X-0.4984 Y1.0290  
G01 X-0.4989 Y1.0285  
G01 X-0.2265 Y0.7830  
G01 X-0.2262 Y0.7828  
G01 X-0.2250 Y0.7816  
G01 X-0.2237 Y0.7805  
G01 X-0.2235 Y0.7801  
G01 X-0.2232 Y0.7798  
G01 X-0.2224 Y0.7784  
G01 X-0.2214 Y0.7769  
G01 X-0.2213 Y0.7765  
G01 X-0.2211 Y0.7762  
G01 X-0.2207 Y0.7745  
G01 X-0.2201 Y0.7729  
G01 X-0.2201 Y0.7725  
G01 X-0.2200 Y0.7721  
G01 X-0.2200 Y0.7704  
G01 X-0.2199 Y0.7687  
G01 X-0.2200 Y0.7683  
G01 X-0.2200 Y0.2489  
G01 X-0.2199 Y0.2478  
G01 X-0.2200 Y0.2468  
G01 X-0.2200 Y0.2459  
G01 X-0.2203 Y0.2448  
G01 X-0.2205 Y0.2436  
G01 X-0.2208 Y0.2427  
G01 X-0.2211 Y0.2418  
G01 X-0.2217 Y0.2408  
G01 X-0.2592 Y0.1539  
G01 X-0.2571 Y0.1473  
G01 X-0.2560 Y0.1405  
G01 X-0.2560 Y0.0595  
G01 X-0.2571 Y0.0527  
G01 X-0.2592 Y0.0461  
G01 X-0.2624 Y0.0399  
G01 X-0.2664 Y0.0343  
G00 Z0.0500  
G00 X-0.3664 Y0.0343  
G01 Z-0.0040 F10    
G01 X-0.3713 Y0.0294  F20    
G01 X-0.3769 Y0.0254  
G01 X-0.3831 Y0.0222  
G01 X-0.3897 Y0.0201  
G01 X-0.3965 Y0.0190  
G01 X-0.4035 Y0.0190  
G01 X-0.4103 Y0.0201  
G01 X-0.4169 Y0.0222  
G01 X-0.4231 Y0.0254  
G01 X-0.4287 Y0.0294  
G01 X-0.4336 Y0.0343  
G01 X-0.4376 Y0.0399  
G01 X-0.4408 Y0.0461  
G01 X-0.4429 Y0.0527  
G01 X-0.4440 Y0.0595  
G01 X-0.4440 Y0.1405  
G01 X-0.4429 Y0.1473  
G01 X-0.4408 Y0.1539  
G01 X-0.4376 Y0.1601  
G01 X-0.4336 Y0.1657  
G01 X-0.4287 Y0.1706  
G01 X-0.4231 Y0.1746  
G01 X-0.4169 Y0.1778  
G01 X-0.4103 Y0.1799  
G01 X-0.4035 Y0.1810  
G01 X-0.3965 Y0.1810  
G01 X-0.3897 Y0.1799  
G01 X-0.3876 Y0.1792  
G01 X-0.3160 Y0.2658  
G01 X-0.3160 Y0.7269  
G01 X-0.5249 Y0.9170  
G01 X-0.5793 Y0.9170  
G01 X-0.5856 Y0.9183  
G01 X-0.5916 Y0.9208  
G01 X-0.5970 Y0.9244  
G01 X-0.6016 Y0.9290  
G01 X-0.6052 Y0.9344  
G01 X-0.6077 Y0.9404  
G01 X-0.6090 Y0.9467  
G01 X-0.6090 Y0.9533  
G01 X-0.6077 Y0.9596  
G01 X-0.6052 Y0.9656  
G01 X-0.6016 Y0.9710  
G01 X-0.5970 Y0.9756  
G01 X-0.5916 Y0.9792  
G01 X-0.5856 Y0.9817  
G01 X-0.5793 Y0.9830  
G01 X-0.5207 Y0.9830  
G01 X-0.5144 Y0.9817  
G01 X-0.5084 Y0.9792  
G01 X-0.5030 Y0.9756  
G01 X-0.4984 Y0.9710  
G01 X-0.4948 Y0.9656  
G01 X-0.4923 Y0.9596  
G01 X-0.4910 Y0.9533  
G01 X-0.4910 Y0.9467  
G01 X-0.4923 Y0.9404  
G01 X-0.4948 Y0.9344  
G01 X-0.4954 Y0.9334  
G01 X-0.2905 Y0.7470  
G01 X-0.2902 Y0.7468  
G01 X-0.2890 Y0.7456  
G01 X-0.2877 Y0.7444  
G01 X-0.2875 Y0.7441  
G01 X-0.2872 Y0.7438  
G01 X-0.2863 Y0.7423  
G01 X-0.2854 Y0.7409  
G01 X-0.2853 Y0.7405  
G01 X-0.2851 Y0.7402  
G01 X-0.2846 Y0.7385  
G01 X-0.2841 Y0.7369  
G01 X-0.2841 Y0.7365  
G01 X-0.2840 Y0.7361  
G01 X-0.2840 Y0.7344  
G01 X-0.2839 Y0.7326  
G01 X-0.2840 Y0.7323  
G01 X-0.2840 Y0.2608  
G01 X-0.2839 Y0.2594  
G01 X-0.2840 Y0.2587  
G01 X-0.2840 Y0.2579  
G01 X-0.2844 Y0.2566  
G01 X-0.2846 Y0.2553  
G01 X-0.2849 Y0.2546  
G01 X-0.2851 Y0.2538  
G01 X-0.2858 Y0.2527  
G01 X-0.2863 Y0.2514  
G01 X-0.2868 Y0.2508  
G01 X-0.2872 Y0.2502  
G01 X-0.2882 Y0.2492  
G01 X-0.3622 Y0.1597  
G01 X-0.3592 Y0.1539  
G01 X-0.3571 Y0.1473  
G01 X-0.3560 Y0.1405  
G01 X-0.3560 Y0.0595  
G01 X-0.3571 Y0.0527  
G01 X-0.3592 Y0.0461  
G01 X-0.3624 Y0.0399  
G01 X-0.3664 Y0.0343  
G00 Z0.0500  
G00 X-0.4664 Y0.0343  
G01 Z-0.0040 F10    
G01 X-0.4713 Y0.0294  F20    
G01 X-0.4769 Y0.0254  
G01 X-0.4831 Y0.0222  
G01 X-0.4897 Y0.0201  
G01 X-0.4965 Y0.0190  
G01 X-0.5035 Y0.0190  
G01 X-0.5103 Y0.0201  
G01 X-0.5169 Y0.0222  
G01 X-0.5231 Y0.0254  
G01 X-0.5287 Y0.0294  
G01 X-0.5336 Y0.0343  
G01 X-0.5376 Y0.0399  
G01 X-0.5408 Y0.0461  
G01 X-0.5429 Y0.0527  
G01 X-0.5440 Y0.0595  
G01 X-0.5440 Y0.1405  
G01 X-0.5429 Y0.1473  
G01 X-0.5408 Y0.1539  
G01 X-0.5376 Y0.1601  
G01 X-0.5336 Y0.1657  
G01 X-0.5287 Y0.1706  
G01 X-0.5231 Y0.1746  
G01 X-0.5169 Y0.1778  
G01 X-0.5103 Y0.1799  
G01 X-0.5035 Y0.1810  
G01 X-0.4965 Y0.1810  
G01 X-0.4897 Y0.1799  
G01 X-0.4831 Y0.1778  
G01 X-0.4795 Y0.1759  
G01 X-0.3720 Y0.3000  
G01 X-0.3720 Y0.6942  
G01 X-0.5289 Y0.8170  
G01 X-0.5793 Y0.8170  
G01 X-0.5856 Y0.8183  
G01 X-0.5916 Y0.8208  
G01 X-0.5970 Y0.8244  
G01 X-0.6016 Y0.8290  
G01 X-0.6052 Y0.8344  
G01 X-0.6077 Y0.8404  
G01 X-0.6090 Y0.8467  
G01 X-0.6090 Y0.8533  
G01 X-0.6077 Y0.8596  
G01 X-0.6052 Y0.8656  
G01 X-0.6016 Y0.8710  
G01 X-0.5970 Y0.8756  
G01 X-0.5916 Y0.8792  
G01 X-0.5856 Y0.8817  
G01 X-0.5793 Y0.8830  
G01 X-0.5207 Y0.8830  
G01 X-0.5144 Y0.8817  
G01 X-0.5084 Y0.8792  
G01 X-0.5030 Y0.8756  
G01 X-0.4984 Y0.8710  
G01 X-0.4948 Y0.8656  
G01 X-0.4923 Y0.8596  
G01 X-0.4910 Y0.8533  
G01 X-0.4910 Y0.8467  
G01 X-0.4923 Y0.8404  
G01 X-0.4948 Y0.8344  
G01 X-0.4963 Y0.8321  
G01 X-0.3470 Y0.7153  
G01 X-0.3462 Y0.7148  
G01 X-0.3454 Y0.7140  
G01 X-0.3445 Y0.7133  
G01 X-0.3439 Y0.7125  
G01 X-0.3432 Y0.7118  
G01 X-0.3426 Y0.7108  
G01 X-0.3419 Y0.7099  
G01 X-0.3416 Y0.7090  
G01 X-0.3411 Y0.7082  
G01 X-0.3408 Y0.7071  
G01 X-0.3404 Y0.7060  
G01 X-0.3403 Y0.7051  
G01 X-0.3400 Y0.7041  
G01 X-0.3400 Y0.7030  
G01 X-0.3399 Y0.7018  
G01 X-0.3400 Y0.7009  
G01 X-0.3400 Y0.2946  
G01 X-0.3399 Y0.2930  
G01 X-0.3400 Y0.2925  
G01 X-0.3400 Y0.2919  
G01 X-0.3404 Y0.2904  
G01 X-0.3407 Y0.2889  
G01 X-0.3409 Y0.2884  
G01 X-0.3411 Y0.2878  
G01 X-0.3419 Y0.2865  
G01 X-0.3425 Y0.2851  
G01 X-0.3429 Y0.2847  
G01 X-0.3432 Y0.2842  
G01 X-0.3443 Y0.2831  
G01 X-0.4584 Y0.1514  
G01 X-0.4571 Y0.1473  
G01 X-0.4560 Y0.1405  
G01 X-0.4560 Y0.0595  
G01 X-0.4571 Y0.0527  
G01 X-0.4592 Y0.0461  
G01 X-0.4624 Y0.0399  
G01 X-0.4664 Y0.0343  
G00 Z0.0500  
G00 X-0.5664 Y0.0343  
G01 Z-0.0040 F10    
G01 X-0.5713 Y0.0294  F20    
G01 X-0.5769 Y0.0254  
G01 X-0.5831 Y0.0222  
G01 X-0.5897 Y0.0201  
G01 X-0.5965 Y0.0190  
G01 X-0.6035 Y0.0190  
G01 X-0.6103 Y0.0201  
G01 X-0.6169 Y0.0222  
G01 X-0.6231 Y0.0254  
G01 X-0.6287 Y0.0294  
G01 X-0.6336 Y0.0343  
G01 X-0.6376 Y0.0399  
G01 X-0.6408 Y0.0461  
G01 X-0.6429 Y0.0527  
G01 X-0.6440 Y0.0595  
G01 X-0.6440 Y0.1405  
G01 X-0.6429 Y0.1473  
G01 X-0.6408 Y0.1539  
G01 X-0.6376 Y0.1601  
G01 X-0.6336 Y0.1657  
G01 X-0.6287 Y0.1706  
